(G-CODE GENERATED BY FLATCAM v8.993 - www.flatcam.org - Version Date: 2020/06/05)

(Name: 18B20.drl_mill_cnc)
(Type: G-code from Geometry)
(Units: MM)

(Created on Saturday, 28 November 2020 at 22:22)

(This preprocessor is the default preprocessor used by FlatCAM.)
(It is made to work with MACH3 compatible motion controllers.)

(TOOL DIAMETER: 0.8 mm)
(Feedrate_XY: 120.0 mm/min)
(Feedrate_Z: 70.0 mm/min)
(Feedrate rapids 1500.0 mm/min)

(Z_Cut: -1.6 mm)
(DepthPerCut: 0.10000000000000014 mm <=>16 passes)
(Z_Move: 2.0 mm)
(Z Start: None mm)
(Z End: 25.0 mm)
(Steps per circle: 128)
(Preprocessor Geometry: default)

(X range:    2.5400 ...    7.6200  mm)
(Y range:  -12.7000 ...   -3.9800  mm)

(Spindle Speed: 10000 RPM)
G21
G90
G94



G01 F120.00
G00 Z2.0000

M03 S10000
G00 X6.1800 Y-5.0800
G01 F70.00
G01 Z-0.1000
G01 F120.00
G01 X6.1747 Y-5.1878
G01 X6.1589 Y-5.2946
G01 X6.1326 Y-5.3993
G01 X6.0963 Y-5.5010
G01 X6.0501 Y-5.5985
G01 X5.9946 Y-5.6911
G01 X5.9303 Y-5.7778
G01 X5.8578 Y-5.8578
G01 X5.7778 Y-5.9303
G01 X5.6911 Y-5.9946
G01 X5.5985 Y-6.0501
G01 X5.5010 Y-6.0963
G01 X5.3993 Y-6.1326
G01 X5.2946 Y-6.1589
G01 X5.1878 Y-6.1747
G01 X5.0800 Y-6.1800
G01 X4.9722 Y-6.1747
G01 X4.8654 Y-6.1589
G01 X4.7607 Y-6.1326
G01 X4.6590 Y-6.0963
G01 X4.5615 Y-6.0501
G01 X4.4689 Y-5.9946
G01 X4.3822 Y-5.9303
G01 X4.3022 Y-5.8578
G01 X4.2297 Y-5.7778
G01 X4.1654 Y-5.6911
G01 X4.1099 Y-5.5985
G01 X4.0637 Y-5.5010
G01 X4.0274 Y-5.3993
G01 X4.0011 Y-5.2946
G01 X3.9853 Y-5.1878
G01 X3.9800 Y-5.0800
G01 X3.9853 Y-4.9722
G01 X4.0011 Y-4.8654
G01 X4.0274 Y-4.7607
G01 X4.0637 Y-4.6590
G01 X4.1099 Y-4.5615
G01 X4.1654 Y-4.4689
G01 X4.2297 Y-4.3822
G01 X4.3022 Y-4.3022
G01 X4.3822 Y-4.2297
G01 X4.4689 Y-4.1654
G01 X4.5615 Y-4.1099
G01 X4.6590 Y-4.0637
G01 X4.7607 Y-4.0274
G01 X4.8654 Y-4.0011
G01 X4.9722 Y-3.9853
G01 X5.0800 Y-3.9800
G01 X5.1878 Y-3.9853
G01 X5.2946 Y-4.0011
G01 X5.3993 Y-4.0274
G01 X5.5010 Y-4.0637
G01 X5.5985 Y-4.1099
G01 X5.6911 Y-4.1654
G01 X5.7778 Y-4.2297
G01 X5.8578 Y-4.3022
G01 X5.9303 Y-4.3822
G01 X5.9946 Y-4.4689
G01 X6.0501 Y-4.5615
G01 X6.0963 Y-4.6590
G01 X6.1326 Y-4.7607
G01 X6.1589 Y-4.8654
G01 X6.1747 Y-4.9722
G01 X6.1800 Y-5.0800
G00 X6.1800 Y-5.0800
G01 F70.00
G01 Z-0.2000
G01 F120.00
G01 X6.1747 Y-5.1878
G01 X6.1589 Y-5.2946
G01 X6.1326 Y-5.3993
G01 X6.0963 Y-5.5010
G01 X6.0501 Y-5.5985
G01 X5.9946 Y-5.6911
G01 X5.9303 Y-5.7778
G01 X5.8578 Y-5.8578
G01 X5.7778 Y-5.9303
G01 X5.6911 Y-5.9946
G01 X5.5985 Y-6.0501
G01 X5.5010 Y-6.0963
G01 X5.3993 Y-6.1326
G01 X5.2946 Y-6.1589
G01 X5.1878 Y-6.1747
G01 X5.0800 Y-6.1800
G01 X4.9722 Y-6.1747
G01 X4.8654 Y-6.1589
G01 X4.7607 Y-6.1326
G01 X4.6590 Y-6.0963
G01 X4.5615 Y-6.0501
G01 X4.4689 Y-5.9946
G01 X4.3822 Y-5.9303
G01 X4.3022 Y-5.8578
G01 X4.2297 Y-5.7778
G01 X4.1654 Y-5.6911
G01 X4.1099 Y-5.5985
G01 X4.0637 Y-5.5010
G01 X4.0274 Y-5.3993
G01 X4.0011 Y-5.2946
G01 X3.9853 Y-5.1878
G01 X3.9800 Y-5.0800
G01 X3.9853 Y-4.9722
G01 X4.0011 Y-4.8654
G01 X4.0274 Y-4.7607
G01 X4.0637 Y-4.6590
G01 X4.1099 Y-4.5615
G01 X4.1654 Y-4.4689
G01 X4.2297 Y-4.3822
G01 X4.3022 Y-4.3022
G01 X4.3822 Y-4.2297
G01 X4.4689 Y-4.1654
G01 X4.5615 Y-4.1099
G01 X4.6590 Y-4.0637
G01 X4.7607 Y-4.0274
G01 X4.8654 Y-4.0011
G01 X4.9722 Y-3.9853
G01 X5.0800 Y-3.9800
G01 X5.1878 Y-3.9853
G01 X5.2946 Y-4.0011
G01 X5.3993 Y-4.0274
G01 X5.5010 Y-4.0637
G01 X5.5985 Y-4.1099
G01 X5.6911 Y-4.1654
G01 X5.7778 Y-4.2297
G01 X5.8578 Y-4.3022
G01 X5.9303 Y-4.3822
G01 X5.9946 Y-4.4689
G01 X6.0501 Y-4.5615
G01 X6.0963 Y-4.6590
G01 X6.1326 Y-4.7607
G01 X6.1589 Y-4.8654
G01 X6.1747 Y-4.9722
G01 X6.1800 Y-5.0800
G00 X6.1800 Y-5.0800
G01 F70.00
G01 Z-0.3000
G01 F120.00
G01 X6.1747 Y-5.1878
G01 X6.1589 Y-5.2946
G01 X6.1326 Y-5.3993
G01 X6.0963 Y-5.5010
G01 X6.0501 Y-5.5985
G01 X5.9946 Y-5.6911
G01 X5.9303 Y-5.7778
G01 X5.8578 Y-5.8578
G01 X5.7778 Y-5.9303
G01 X5.6911 Y-5.9946
G01 X5.5985 Y-6.0501
G01 X5.5010 Y-6.0963
G01 X5.3993 Y-6.1326
G01 X5.2946 Y-6.1589
G01 X5.1878 Y-6.1747
G01 X5.0800 Y-6.1800
G01 X4.9722 Y-6.1747
G01 X4.8654 Y-6.1589
G01 X4.7607 Y-6.1326
G01 X4.6590 Y-6.0963
G01 X4.5615 Y-6.0501
G01 X4.4689 Y-5.9946
G01 X4.3822 Y-5.9303
G01 X4.3022 Y-5.8578
G01 X4.2297 Y-5.7778
G01 X4.1654 Y-5.6911
G01 X4.1099 Y-5.5985
G01 X4.0637 Y-5.5010
G01 X4.0274 Y-5.3993
G01 X4.0011 Y-5.2946
G01 X3.9853 Y-5.1878
G01 X3.9800 Y-5.0800
G01 X3.9853 Y-4.9722
G01 X4.0011 Y-4.8654
G01 X4.0274 Y-4.7607
G01 X4.0637 Y-4.6590
G01 X4.1099 Y-4.5615
G01 X4.1654 Y-4.4689
G01 X4.2297 Y-4.3822
G01 X4.3022 Y-4.3022
G01 X4.3822 Y-4.2297
G01 X4.4689 Y-4.1654
G01 X4.5615 Y-4.1099
G01 X4.6590 Y-4.0637
G01 X4.7607 Y-4.0274
G01 X4.8654 Y-4.0011
G01 X4.9722 Y-3.9853
G01 X5.0800 Y-3.9800
G01 X5.1878 Y-3.9853
G01 X5.2946 Y-4.0011
G01 X5.3993 Y-4.0274
G01 X5.5010 Y-4.0637
G01 X5.5985 Y-4.1099
G01 X5.6911 Y-4.1654
G01 X5.7778 Y-4.2297
G01 X5.8578 Y-4.3022
G01 X5.9303 Y-4.3822
G01 X5.9946 Y-4.4689
G01 X6.0501 Y-4.5615
G01 X6.0963 Y-4.6590
G01 X6.1326 Y-4.7607
G01 X6.1589 Y-4.8654
G01 X6.1747 Y-4.9722
G01 X6.1800 Y-5.0800
G00 X6.1800 Y-5.0800
G01 F70.00
G01 Z-0.4000
G01 F120.00
G01 X6.1747 Y-5.1878
G01 X6.1589 Y-5.2946
G01 X6.1326 Y-5.3993
G01 X6.0963 Y-5.5010
G01 X6.0501 Y-5.5985
G01 X5.9946 Y-5.6911
G01 X5.9303 Y-5.7778
G01 X5.8578 Y-5.8578
G01 X5.7778 Y-5.9303
G01 X5.6911 Y-5.9946
G01 X5.5985 Y-6.0501
G01 X5.5010 Y-6.0963
G01 X5.3993 Y-6.1326
G01 X5.2946 Y-6.1589
G01 X5.1878 Y-6.1747
G01 X5.0800 Y-6.1800
G01 X4.9722 Y-6.1747
G01 X4.8654 Y-6.1589
G01 X4.7607 Y-6.1326
G01 X4.6590 Y-6.0963
G01 X4.5615 Y-6.0501
G01 X4.4689 Y-5.9946
G01 X4.3822 Y-5.9303
G01 X4.3022 Y-5.8578
G01 X4.2297 Y-5.7778
G01 X4.1654 Y-5.6911
G01 X4.1099 Y-5.5985
G01 X4.0637 Y-5.5010
G01 X4.0274 Y-5.3993
G01 X4.0011 Y-5.2946
G01 X3.9853 Y-5.1878
G01 X3.9800 Y-5.0800
G01 X3.9853 Y-4.9722
G01 X4.0011 Y-4.8654
G01 X4.0274 Y-4.7607
G01 X4.0637 Y-4.6590
G01 X4.1099 Y-4.5615
G01 X4.1654 Y-4.4689
G01 X4.2297 Y-4.3822
G01 X4.3022 Y-4.3022
G01 X4.3822 Y-4.2297
G01 X4.4689 Y-4.1654
G01 X4.5615 Y-4.1099
G01 X4.6590 Y-4.0637
G01 X4.7607 Y-4.0274
G01 X4.8654 Y-4.0011
G01 X4.9722 Y-3.9853
G01 X5.0800 Y-3.9800
G01 X5.1878 Y-3.9853
G01 X5.2946 Y-4.0011
G01 X5.3993 Y-4.0274
G01 X5.5010 Y-4.0637
G01 X5.5985 Y-4.1099
G01 X5.6911 Y-4.1654
G01 X5.7778 Y-4.2297
G01 X5.8578 Y-4.3022
G01 X5.9303 Y-4.3822
G01 X5.9946 Y-4.4689
G01 X6.0501 Y-4.5615
G01 X6.0963 Y-4.6590
G01 X6.1326 Y-4.7607
G01 X6.1589 Y-4.8654
G01 X6.1747 Y-4.9722
G01 X6.1800 Y-5.0800
G00 X6.1800 Y-5.0800
G01 F70.00
G01 Z-0.5000
G01 F120.00
G01 X6.1747 Y-5.1878
G01 X6.1589 Y-5.2946
G01 X6.1326 Y-5.3993
G01 X6.0963 Y-5.5010
G01 X6.0501 Y-5.5985
G01 X5.9946 Y-5.6911
G01 X5.9303 Y-5.7778
G01 X5.8578 Y-5.8578
G01 X5.7778 Y-5.9303
G01 X5.6911 Y-5.9946
G01 X5.5985 Y-6.0501
G01 X5.5010 Y-6.0963
G01 X5.3993 Y-6.1326
G01 X5.2946 Y-6.1589
G01 X5.1878 Y-6.1747
G01 X5.0800 Y-6.1800
G01 X4.9722 Y-6.1747
G01 X4.8654 Y-6.1589
G01 X4.7607 Y-6.1326
G01 X4.6590 Y-6.0963
G01 X4.5615 Y-6.0501
G01 X4.4689 Y-5.9946
G01 X4.3822 Y-5.9303
G01 X4.3022 Y-5.8578
G01 X4.2297 Y-5.7778
G01 X4.1654 Y-5.6911
G01 X4.1099 Y-5.5985
G01 X4.0637 Y-5.5010
G01 X4.0274 Y-5.3993
G01 X4.0011 Y-5.2946
G01 X3.9853 Y-5.1878
G01 X3.9800 Y-5.0800
G01 X3.9853 Y-4.9722
G01 X4.0011 Y-4.8654
G01 X4.0274 Y-4.7607
G01 X4.0637 Y-4.6590
G01 X4.1099 Y-4.5615
G01 X4.1654 Y-4.4689
G01 X4.2297 Y-4.3822
G01 X4.3022 Y-4.3022
G01 X4.3822 Y-4.2297
G01 X4.4689 Y-4.1654
G01 X4.5615 Y-4.1099
G01 X4.6590 Y-4.0637
G01 X4.7607 Y-4.0274
G01 X4.8654 Y-4.0011
G01 X4.9722 Y-3.9853
G01 X5.0800 Y-3.9800
G01 X5.1878 Y-3.9853
G01 X5.2946 Y-4.0011
G01 X5.3993 Y-4.0274
G01 X5.5010 Y-4.0637
G01 X5.5985 Y-4.1099
G01 X5.6911 Y-4.1654
G01 X5.7778 Y-4.2297
G01 X5.8578 Y-4.3022
G01 X5.9303 Y-4.3822
G01 X5.9946 Y-4.4689
G01 X6.0501 Y-4.5615
G01 X6.0963 Y-4.6590
G01 X6.1326 Y-4.7607
G01 X6.1589 Y-4.8654
G01 X6.1747 Y-4.9722
G01 X6.1800 Y-5.0800
G00 X6.1800 Y-5.0800
G01 F70.00
G01 Z-0.6000
G01 F120.00
G01 X6.1747 Y-5.1878
G01 X6.1589 Y-5.2946
G01 X6.1326 Y-5.3993
G01 X6.0963 Y-5.5010
G01 X6.0501 Y-5.5985
G01 X5.9946 Y-5.6911
G01 X5.9303 Y-5.7778
G01 X5.8578 Y-5.8578
G01 X5.7778 Y-5.9303
G01 X5.6911 Y-5.9946
G01 X5.5985 Y-6.0501
G01 X5.5010 Y-6.0963
G01 X5.3993 Y-6.1326
G01 X5.2946 Y-6.1589
G01 X5.1878 Y-6.1747
G01 X5.0800 Y-6.1800
G01 X4.9722 Y-6.1747
G01 X4.8654 Y-6.1589
G01 X4.7607 Y-6.1326
G01 X4.6590 Y-6.0963
G01 X4.5615 Y-6.0501
G01 X4.4689 Y-5.9946
G01 X4.3822 Y-5.9303
G01 X4.3022 Y-5.8578
G01 X4.2297 Y-5.7778
G01 X4.1654 Y-5.6911
G01 X4.1099 Y-5.5985
G01 X4.0637 Y-5.5010
G01 X4.0274 Y-5.3993
G01 X4.0011 Y-5.2946
G01 X3.9853 Y-5.1878
G01 X3.9800 Y-5.0800
G01 X3.9853 Y-4.9722
G01 X4.0011 Y-4.8654
G01 X4.0274 Y-4.7607
G01 X4.0637 Y-4.6590
G01 X4.1099 Y-4.5615
G01 X4.1654 Y-4.4689
G01 X4.2297 Y-4.3822
G01 X4.3022 Y-4.3022
G01 X4.3822 Y-4.2297
G01 X4.4689 Y-4.1654
G01 X4.5615 Y-4.1099
G01 X4.6590 Y-4.0637
G01 X4.7607 Y-4.0274
G01 X4.8654 Y-4.0011
G01 X4.9722 Y-3.9853
G01 X5.0800 Y-3.9800
G01 X5.1878 Y-3.9853
G01 X5.2946 Y-4.0011
G01 X5.3993 Y-4.0274
G01 X5.5010 Y-4.0637
G01 X5.5985 Y-4.1099
G01 X5.6911 Y-4.1654
G01 X5.7778 Y-4.2297
G01 X5.8578 Y-4.3022
G01 X5.9303 Y-4.3822
G01 X5.9946 Y-4.4689
G01 X6.0501 Y-4.5615
G01 X6.0963 Y-4.6590
G01 X6.1326 Y-4.7607
G01 X6.1589 Y-4.8654
G01 X6.1747 Y-4.9722
G01 X6.1800 Y-5.0800
G00 X6.1800 Y-5.0800
G01 F70.00
G01 Z-0.7000
G01 F120.00
G01 X6.1747 Y-5.1878
G01 X6.1589 Y-5.2946
G01 X6.1326 Y-5.3993
G01 X6.0963 Y-5.5010
G01 X6.0501 Y-5.5985
G01 X5.9946 Y-5.6911
G01 X5.9303 Y-5.7778
G01 X5.8578 Y-5.8578
G01 X5.7778 Y-5.9303
G01 X5.6911 Y-5.9946
G01 X5.5985 Y-6.0501
G01 X5.5010 Y-6.0963
G01 X5.3993 Y-6.1326
G01 X5.2946 Y-6.1589
G01 X5.1878 Y-6.1747
G01 X5.0800 Y-6.1800
G01 X4.9722 Y-6.1747
G01 X4.8654 Y-6.1589
G01 X4.7607 Y-6.1326
G01 X4.6590 Y-6.0963
G01 X4.5615 Y-6.0501
G01 X4.4689 Y-5.9946
G01 X4.3822 Y-5.9303
G01 X4.3022 Y-5.8578
G01 X4.2297 Y-5.7778
G01 X4.1654 Y-5.6911
G01 X4.1099 Y-5.5985
G01 X4.0637 Y-5.5010
G01 X4.0274 Y-5.3993
G01 X4.0011 Y-5.2946
G01 X3.9853 Y-5.1878
G01 X3.9800 Y-5.0800
G01 X3.9853 Y-4.9722
G01 X4.0011 Y-4.8654
G01 X4.0274 Y-4.7607
G01 X4.0637 Y-4.6590
G01 X4.1099 Y-4.5615
G01 X4.1654 Y-4.4689
G01 X4.2297 Y-4.3822
G01 X4.3022 Y-4.3022
G01 X4.3822 Y-4.2297
G01 X4.4689 Y-4.1654
G01 X4.5615 Y-4.1099
G01 X4.6590 Y-4.0637
G01 X4.7607 Y-4.0274
G01 X4.8654 Y-4.0011
G01 X4.9722 Y-3.9853
G01 X5.0800 Y-3.9800
G01 X5.1878 Y-3.9853
G01 X5.2946 Y-4.0011
G01 X5.3993 Y-4.0274
G01 X5.5010 Y-4.0637
G01 X5.5985 Y-4.1099
G01 X5.6911 Y-4.1654
G01 X5.7778 Y-4.2297
G01 X5.8578 Y-4.3022
G01 X5.9303 Y-4.3822
G01 X5.9946 Y-4.4689
G01 X6.0501 Y-4.5615
G01 X6.0963 Y-4.6590
G01 X6.1326 Y-4.7607
G01 X6.1589 Y-4.8654
G01 X6.1747 Y-4.9722
G01 X6.1800 Y-5.0800
G00 X6.1800 Y-5.0800
G01 F70.00
G01 Z-0.8000
G01 F120.00
G01 X6.1747 Y-5.1878
G01 X6.1589 Y-5.2946
G01 X6.1326 Y-5.3993
G01 X6.0963 Y-5.5010
G01 X6.0501 Y-5.5985
G01 X5.9946 Y-5.6911
G01 X5.9303 Y-5.7778
G01 X5.8578 Y-5.8578
G01 X5.7778 Y-5.9303
G01 X5.6911 Y-5.9946
G01 X5.5985 Y-6.0501
G01 X5.5010 Y-6.0963
G01 X5.3993 Y-6.1326
G01 X5.2946 Y-6.1589
G01 X5.1878 Y-6.1747
G01 X5.0800 Y-6.1800
G01 X4.9722 Y-6.1747
G01 X4.8654 Y-6.1589
G01 X4.7607 Y-6.1326
G01 X4.6590 Y-6.0963
G01 X4.5615 Y-6.0501
G01 X4.4689 Y-5.9946
G01 X4.3822 Y-5.9303
G01 X4.3022 Y-5.8578
G01 X4.2297 Y-5.7778
G01 X4.1654 Y-5.6911
G01 X4.1099 Y-5.5985
G01 X4.0637 Y-5.5010
G01 X4.0274 Y-5.3993
G01 X4.0011 Y-5.2946
G01 X3.9853 Y-5.1878
G01 X3.9800 Y-5.0800
G01 X3.9853 Y-4.9722
G01 X4.0011 Y-4.8654
G01 X4.0274 Y-4.7607
G01 X4.0637 Y-4.6590
G01 X4.1099 Y-4.5615
G01 X4.1654 Y-4.4689
G01 X4.2297 Y-4.3822
G01 X4.3022 Y-4.3022
G01 X4.3822 Y-4.2297
G01 X4.4689 Y-4.1654
G01 X4.5615 Y-4.1099
G01 X4.6590 Y-4.0637
G01 X4.7607 Y-4.0274
G01 X4.8654 Y-4.0011
G01 X4.9722 Y-3.9853
G01 X5.0800 Y-3.9800
G01 X5.1878 Y-3.9853
G01 X5.2946 Y-4.0011
G01 X5.3993 Y-4.0274
G01 X5.5010 Y-4.0637
G01 X5.5985 Y-4.1099
G01 X5.6911 Y-4.1654
G01 X5.7778 Y-4.2297
G01 X5.8578 Y-4.3022
G01 X5.9303 Y-4.3822
G01 X5.9946 Y-4.4689
G01 X6.0501 Y-4.5615
G01 X6.0963 Y-4.6590
G01 X6.1326 Y-4.7607
G01 X6.1589 Y-4.8654
G01 X6.1747 Y-4.9722
G01 X6.1800 Y-5.0800
G00 X6.1800 Y-5.0800
G01 F70.00
G01 Z-0.9000
G01 F120.00
G01 X6.1747 Y-5.1878
G01 X6.1589 Y-5.2946
G01 X6.1326 Y-5.3993
G01 X6.0963 Y-5.5010
G01 X6.0501 Y-5.5985
G01 X5.9946 Y-5.6911
G01 X5.9303 Y-5.7778
G01 X5.8578 Y-5.8578
G01 X5.7778 Y-5.9303
G01 X5.6911 Y-5.9946
G01 X5.5985 Y-6.0501
G01 X5.5010 Y-6.0963
G01 X5.3993 Y-6.1326
G01 X5.2946 Y-6.1589
G01 X5.1878 Y-6.1747
G01 X5.0800 Y-6.1800
G01 X4.9722 Y-6.1747
G01 X4.8654 Y-6.1589
G01 X4.7607 Y-6.1326
G01 X4.6590 Y-6.0963
G01 X4.5615 Y-6.0501
G01 X4.4689 Y-5.9946
G01 X4.3822 Y-5.9303
G01 X4.3022 Y-5.8578
G01 X4.2297 Y-5.7778
G01 X4.1654 Y-5.6911
G01 X4.1099 Y-5.5985
G01 X4.0637 Y-5.5010
G01 X4.0274 Y-5.3993
G01 X4.0011 Y-5.2946
G01 X3.9853 Y-5.1878
G01 X3.9800 Y-5.0800
G01 X3.9853 Y-4.9722
G01 X4.0011 Y-4.8654
G01 X4.0274 Y-4.7607
G01 X4.0637 Y-4.6590
G01 X4.1099 Y-4.5615
G01 X4.1654 Y-4.4689
G01 X4.2297 Y-4.3822
G01 X4.3022 Y-4.3022
G01 X4.3822 Y-4.2297
G01 X4.4689 Y-4.1654
G01 X4.5615 Y-4.1099
G01 X4.6590 Y-4.0637
G01 X4.7607 Y-4.0274
G01 X4.8654 Y-4.0011
G01 X4.9722 Y-3.9853
G01 X5.0800 Y-3.9800
G01 X5.1878 Y-3.9853
G01 X5.2946 Y-4.0011
G01 X5.3993 Y-4.0274
G01 X5.5010 Y-4.0637
G01 X5.5985 Y-4.1099
G01 X5.6911 Y-4.1654
G01 X5.7778 Y-4.2297
G01 X5.8578 Y-4.3022
G01 X5.9303 Y-4.3822
G01 X5.9946 Y-4.4689
G01 X6.0501 Y-4.5615
G01 X6.0963 Y-4.6590
G01 X6.1326 Y-4.7607
G01 X6.1589 Y-4.8654
G01 X6.1747 Y-4.9722
G01 X6.1800 Y-5.0800
G00 X6.1800 Y-5.0800
G01 F70.00
G01 Z-1.0000
G01 F120.00
G01 X6.1747 Y-5.1878
G01 X6.1589 Y-5.2946
G01 X6.1326 Y-5.3993
G01 X6.0963 Y-5.5010
G01 X6.0501 Y-5.5985
G01 X5.9946 Y-5.6911
G01 X5.9303 Y-5.7778
G01 X5.8578 Y-5.8578
G01 X5.7778 Y-5.9303
G01 X5.6911 Y-5.9946
G01 X5.5985 Y-6.0501
G01 X5.5010 Y-6.0963
G01 X5.3993 Y-6.1326
G01 X5.2946 Y-6.1589
G01 X5.1878 Y-6.1747
G01 X5.0800 Y-6.1800
G01 X4.9722 Y-6.1747
G01 X4.8654 Y-6.1589
G01 X4.7607 Y-6.1326
G01 X4.6590 Y-6.0963
G01 X4.5615 Y-6.0501
G01 X4.4689 Y-5.9946
G01 X4.3822 Y-5.9303
G01 X4.3022 Y-5.8578
G01 X4.2297 Y-5.7778
G01 X4.1654 Y-5.6911
G01 X4.1099 Y-5.5985
G01 X4.0637 Y-5.5010
G01 X4.0274 Y-5.3993
G01 X4.0011 Y-5.2946
G01 X3.9853 Y-5.1878
G01 X3.9800 Y-5.0800
G01 X3.9853 Y-4.9722
G01 X4.0011 Y-4.8654
G01 X4.0274 Y-4.7607
G01 X4.0637 Y-4.6590
G01 X4.1099 Y-4.5615
G01 X4.1654 Y-4.4689
G01 X4.2297 Y-4.3822
G01 X4.3022 Y-4.3022
G01 X4.3822 Y-4.2297
G01 X4.4689 Y-4.1654
G01 X4.5615 Y-4.1099
G01 X4.6590 Y-4.0637
G01 X4.7607 Y-4.0274
G01 X4.8654 Y-4.0011
G01 X4.9722 Y-3.9853
G01 X5.0800 Y-3.9800
G01 X5.1878 Y-3.9853
G01 X5.2946 Y-4.0011
G01 X5.3993 Y-4.0274
G01 X5.5010 Y-4.0637
G01 X5.5985 Y-4.1099
G01 X5.6911 Y-4.1654
G01 X5.7778 Y-4.2297
G01 X5.8578 Y-4.3022
G01 X5.9303 Y-4.3822
G01 X5.9946 Y-4.4689
G01 X6.0501 Y-4.5615
G01 X6.0963 Y-4.6590
G01 X6.1326 Y-4.7607
G01 X6.1589 Y-4.8654
G01 X6.1747 Y-4.9722
G01 X6.1800 Y-5.0800
G00 X6.1800 Y-5.0800
G01 F70.00
G01 Z-1.1000
G01 F120.00
G01 X6.1747 Y-5.1878
G01 X6.1589 Y-5.2946
G01 X6.1326 Y-5.3993
G01 X6.0963 Y-5.5010
G01 X6.0501 Y-5.5985
G01 X5.9946 Y-5.6911
G01 X5.9303 Y-5.7778
G01 X5.8578 Y-5.8578
G01 X5.7778 Y-5.9303
G01 X5.6911 Y-5.9946
G01 X5.5985 Y-6.0501
G01 X5.5010 Y-6.0963
G01 X5.3993 Y-6.1326
G01 X5.2946 Y-6.1589
G01 X5.1878 Y-6.1747
G01 X5.0800 Y-6.1800
G01 X4.9722 Y-6.1747
G01 X4.8654 Y-6.1589
G01 X4.7607 Y-6.1326
G01 X4.6590 Y-6.0963
G01 X4.5615 Y-6.0501
G01 X4.4689 Y-5.9946
G01 X4.3822 Y-5.9303
G01 X4.3022 Y-5.8578
G01 X4.2297 Y-5.7778
G01 X4.1654 Y-5.6911
G01 X4.1099 Y-5.5985
G01 X4.0637 Y-5.5010
G01 X4.0274 Y-5.3993
G01 X4.0011 Y-5.2946
G01 X3.9853 Y-5.1878
G01 X3.9800 Y-5.0800
G01 X3.9853 Y-4.9722
G01 X4.0011 Y-4.8654
G01 X4.0274 Y-4.7607
G01 X4.0637 Y-4.6590
G01 X4.1099 Y-4.5615
G01 X4.1654 Y-4.4689
G01 X4.2297 Y-4.3822
G01 X4.3022 Y-4.3022
G01 X4.3822 Y-4.2297
G01 X4.4689 Y-4.1654
G01 X4.5615 Y-4.1099
G01 X4.6590 Y-4.0637
G01 X4.7607 Y-4.0274
G01 X4.8654 Y-4.0011
G01 X4.9722 Y-3.9853
G01 X5.0800 Y-3.9800
G01 X5.1878 Y-3.9853
G01 X5.2946 Y-4.0011
G01 X5.3993 Y-4.0274
G01 X5.5010 Y-4.0637
G01 X5.5985 Y-4.1099
G01 X5.6911 Y-4.1654
G01 X5.7778 Y-4.2297
G01 X5.8578 Y-4.3022
G01 X5.9303 Y-4.3822
G01 X5.9946 Y-4.4689
G01 X6.0501 Y-4.5615
G01 X6.0963 Y-4.6590
G01 X6.1326 Y-4.7607
G01 X6.1589 Y-4.8654
G01 X6.1747 Y-4.9722
G01 X6.1800 Y-5.0800
G00 X6.1800 Y-5.0800
G01 F70.00
G01 Z-1.2000
G01 F120.00
G01 X6.1747 Y-5.1878
G01 X6.1589 Y-5.2946
G01 X6.1326 Y-5.3993
G01 X6.0963 Y-5.5010
G01 X6.0501 Y-5.5985
G01 X5.9946 Y-5.6911
G01 X5.9303 Y-5.7778
G01 X5.8578 Y-5.8578
G01 X5.7778 Y-5.9303
G01 X5.6911 Y-5.9946
G01 X5.5985 Y-6.0501
G01 X5.5010 Y-6.0963
G01 X5.3993 Y-6.1326
G01 X5.2946 Y-6.1589
G01 X5.1878 Y-6.1747
G01 X5.0800 Y-6.1800
G01 X4.9722 Y-6.1747
G01 X4.8654 Y-6.1589
G01 X4.7607 Y-6.1326
G01 X4.6590 Y-6.0963
G01 X4.5615 Y-6.0501
G01 X4.4689 Y-5.9946
G01 X4.3822 Y-5.9303
G01 X4.3022 Y-5.8578
G01 X4.2297 Y-5.7778
G01 X4.1654 Y-5.6911
G01 X4.1099 Y-5.5985
G01 X4.0637 Y-5.5010
G01 X4.0274 Y-5.3993
G01 X4.0011 Y-5.2946
G01 X3.9853 Y-5.1878
G01 X3.9800 Y-5.0800
G01 X3.9853 Y-4.9722
G01 X4.0011 Y-4.8654
G01 X4.0274 Y-4.7607
G01 X4.0637 Y-4.6590
G01 X4.1099 Y-4.5615
G01 X4.1654 Y-4.4689
G01 X4.2297 Y-4.3822
G01 X4.3022 Y-4.3022
G01 X4.3822 Y-4.2297
G01 X4.4689 Y-4.1654
G01 X4.5615 Y-4.1099
G01 X4.6590 Y-4.0637
G01 X4.7607 Y-4.0274
G01 X4.8654 Y-4.0011
G01 X4.9722 Y-3.9853
G01 X5.0800 Y-3.9800
G01 X5.1878 Y-3.9853
G01 X5.2946 Y-4.0011
G01 X5.3993 Y-4.0274
G01 X5.5010 Y-4.0637
G01 X5.5985 Y-4.1099
G01 X5.6911 Y-4.1654
G01 X5.7778 Y-4.2297
G01 X5.8578 Y-4.3022
G01 X5.9303 Y-4.3822
G01 X5.9946 Y-4.4689
G01 X6.0501 Y-4.5615
G01 X6.0963 Y-4.6590
G01 X6.1326 Y-4.7607
G01 X6.1589 Y-4.8654
G01 X6.1747 Y-4.9722
G01 X6.1800 Y-5.0800
G00 X6.1800 Y-5.0800
G01 F70.00
G01 Z-1.3000
G01 F120.00
G01 X6.1747 Y-5.1878
G01 X6.1589 Y-5.2946
G01 X6.1326 Y-5.3993
G01 X6.0963 Y-5.5010
G01 X6.0501 Y-5.5985
G01 X5.9946 Y-5.6911
G01 X5.9303 Y-5.7778
G01 X5.8578 Y-5.8578
G01 X5.7778 Y-5.9303
G01 X5.6911 Y-5.9946
G01 X5.5985 Y-6.0501
G01 X5.5010 Y-6.0963
G01 X5.3993 Y-6.1326
G01 X5.2946 Y-6.1589
G01 X5.1878 Y-6.1747
G01 X5.0800 Y-6.1800
G01 X4.9722 Y-6.1747
G01 X4.8654 Y-6.1589
G01 X4.7607 Y-6.1326
G01 X4.6590 Y-6.0963
G01 X4.5615 Y-6.0501
G01 X4.4689 Y-5.9946
G01 X4.3822 Y-5.9303
G01 X4.3022 Y-5.8578
G01 X4.2297 Y-5.7778
G01 X4.1654 Y-5.6911
G01 X4.1099 Y-5.5985
G01 X4.0637 Y-5.5010
G01 X4.0274 Y-5.3993
G01 X4.0011 Y-5.2946
G01 X3.9853 Y-5.1878
G01 X3.9800 Y-5.0800
G01 X3.9853 Y-4.9722
G01 X4.0011 Y-4.8654
G01 X4.0274 Y-4.7607
G01 X4.0637 Y-4.6590
G01 X4.1099 Y-4.5615
G01 X4.1654 Y-4.4689
G01 X4.2297 Y-4.3822
G01 X4.3022 Y-4.3022
G01 X4.3822 Y-4.2297
G01 X4.4689 Y-4.1654
G01 X4.5615 Y-4.1099
G01 X4.6590 Y-4.0637
G01 X4.7607 Y-4.0274
G01 X4.8654 Y-4.0011
G01 X4.9722 Y-3.9853
G01 X5.0800 Y-3.9800
G01 X5.1878 Y-3.9853
G01 X5.2946 Y-4.0011
G01 X5.3993 Y-4.0274
G01 X5.5010 Y-4.0637
G01 X5.5985 Y-4.1099
G01 X5.6911 Y-4.1654
G01 X5.7778 Y-4.2297
G01 X5.8578 Y-4.3022
G01 X5.9303 Y-4.3822
G01 X5.9946 Y-4.4689
G01 X6.0501 Y-4.5615
G01 X6.0963 Y-4.6590
G01 X6.1326 Y-4.7607
G01 X6.1589 Y-4.8654
G01 X6.1747 Y-4.9722
G01 X6.1800 Y-5.0800
G00 X6.1800 Y-5.0800
G01 F70.00
G01 Z-1.4000
G01 F120.00
G01 X6.1747 Y-5.1878
G01 X6.1589 Y-5.2946
G01 X6.1326 Y-5.3993
G01 X6.0963 Y-5.5010
G01 X6.0501 Y-5.5985
G01 X5.9946 Y-5.6911
G01 X5.9303 Y-5.7778
G01 X5.8578 Y-5.8578
G01 X5.7778 Y-5.9303
G01 X5.6911 Y-5.9946
G01 X5.5985 Y-6.0501
G01 X5.5010 Y-6.0963
G01 X5.3993 Y-6.1326
G01 X5.2946 Y-6.1589
G01 X5.1878 Y-6.1747
G01 X5.0800 Y-6.1800
G01 X4.9722 Y-6.1747
G01 X4.8654 Y-6.1589
G01 X4.7607 Y-6.1326
G01 X4.6590 Y-6.0963
G01 X4.5615 Y-6.0501
G01 X4.4689 Y-5.9946
G01 X4.3822 Y-5.9303
G01 X4.3022 Y-5.8578
G01 X4.2297 Y-5.7778
G01 X4.1654 Y-5.6911
G01 X4.1099 Y-5.5985
G01 X4.0637 Y-5.5010
G01 X4.0274 Y-5.3993
G01 X4.0011 Y-5.2946
G01 X3.9853 Y-5.1878
G01 X3.9800 Y-5.0800
G01 X3.9853 Y-4.9722
G01 X4.0011 Y-4.8654
G01 X4.0274 Y-4.7607
G01 X4.0637 Y-4.6590
G01 X4.1099 Y-4.5615
G01 X4.1654 Y-4.4689
G01 X4.2297 Y-4.3822
G01 X4.3022 Y-4.3022
G01 X4.3822 Y-4.2297
G01 X4.4689 Y-4.1654
G01 X4.5615 Y-4.1099
G01 X4.6590 Y-4.0637
G01 X4.7607 Y-4.0274
G01 X4.8654 Y-4.0011
G01 X4.9722 Y-3.9853
G01 X5.0800 Y-3.9800
G01 X5.1878 Y-3.9853
G01 X5.2946 Y-4.0011
G01 X5.3993 Y-4.0274
G01 X5.5010 Y-4.0637
G01 X5.5985 Y-4.1099
G01 X5.6911 Y-4.1654
G01 X5.7778 Y-4.2297
G01 X5.8578 Y-4.3022
G01 X5.9303 Y-4.3822
G01 X5.9946 Y-4.4689
G01 X6.0501 Y-4.5615
G01 X6.0963 Y-4.6590
G01 X6.1326 Y-4.7607
G01 X6.1589 Y-4.8654
G01 X6.1747 Y-4.9722
G01 X6.1800 Y-5.0800
G00 X6.1800 Y-5.0800
G01 F70.00
G01 Z-1.5000
G01 F120.00
G01 X6.1747 Y-5.1878
G01 X6.1589 Y-5.2946
G01 X6.1326 Y-5.3993
G01 X6.0963 Y-5.5010
G01 X6.0501 Y-5.5985
G01 X5.9946 Y-5.6911
G01 X5.9303 Y-5.7778
G01 X5.8578 Y-5.8578
G01 X5.7778 Y-5.9303
G01 X5.6911 Y-5.9946
G01 X5.5985 Y-6.0501
G01 X5.5010 Y-6.0963
G01 X5.3993 Y-6.1326
G01 X5.2946 Y-6.1589
G01 X5.1878 Y-6.1747
G01 X5.0800 Y-6.1800
G01 X4.9722 Y-6.1747
G01 X4.8654 Y-6.1589
G01 X4.7607 Y-6.1326
G01 X4.6590 Y-6.0963
G01 X4.5615 Y-6.0501
G01 X4.4689 Y-5.9946
G01 X4.3822 Y-5.9303
G01 X4.3022 Y-5.8578
G01 X4.2297 Y-5.7778
G01 X4.1654 Y-5.6911
G01 X4.1099 Y-5.5985
G01 X4.0637 Y-5.5010
G01 X4.0274 Y-5.3993
G01 X4.0011 Y-5.2946
G01 X3.9853 Y-5.1878
G01 X3.9800 Y-5.0800
G01 X3.9853 Y-4.9722
G01 X4.0011 Y-4.8654
G01 X4.0274 Y-4.7607
G01 X4.0637 Y-4.6590
G01 X4.1099 Y-4.5615
G01 X4.1654 Y-4.4689
G01 X4.2297 Y-4.3822
G01 X4.3022 Y-4.3022
G01 X4.3822 Y-4.2297
G01 X4.4689 Y-4.1654
G01 X4.5615 Y-4.1099
G01 X4.6590 Y-4.0637
G01 X4.7607 Y-4.0274
G01 X4.8654 Y-4.0011
G01 X4.9722 Y-3.9853
G01 X5.0800 Y-3.9800
G01 X5.1878 Y-3.9853
G01 X5.2946 Y-4.0011
G01 X5.3993 Y-4.0274
G01 X5.5010 Y-4.0637
G01 X5.5985 Y-4.1099
G01 X5.6911 Y-4.1654
G01 X5.7778 Y-4.2297
G01 X5.8578 Y-4.3022
G01 X5.9303 Y-4.3822
G01 X5.9946 Y-4.4689
G01 X6.0501 Y-4.5615
G01 X6.0963 Y-4.6590
G01 X6.1326 Y-4.7607
G01 X6.1589 Y-4.8654
G01 X6.1747 Y-4.9722
G01 X6.1800 Y-5.0800
G00 X6.1800 Y-5.0800
G01 F70.00
G01 Z-1.6000
G01 F120.00
G01 X6.1747 Y-5.1878
G01 X6.1589 Y-5.2946
G01 X6.1326 Y-5.3993
G01 X6.0963 Y-5.5010
G01 X6.0501 Y-5.5985
G01 X5.9946 Y-5.6911
G01 X5.9303 Y-5.7778
G01 X5.8578 Y-5.8578
G01 X5.7778 Y-5.9303
G01 X5.6911 Y-5.9946
G01 X5.5985 Y-6.0501
G01 X5.5010 Y-6.0963
G01 X5.3993 Y-6.1326
G01 X5.2946 Y-6.1589
G01 X5.1878 Y-6.1747
G01 X5.0800 Y-6.1800
G01 X4.9722 Y-6.1747
G01 X4.8654 Y-6.1589
G01 X4.7607 Y-6.1326
G01 X4.6590 Y-6.0963
G01 X4.5615 Y-6.0501
G01 X4.4689 Y-5.9946
G01 X4.3822 Y-5.9303
G01 X4.3022 Y-5.8578
G01 X4.2297 Y-5.7778
G01 X4.1654 Y-5.6911
G01 X4.1099 Y-5.5985
G01 X4.0637 Y-5.5010
G01 X4.0274 Y-5.3993
G01 X4.0011 Y-5.2946
G01 X3.9853 Y-5.1878
G01 X3.9800 Y-5.0800
G01 X3.9853 Y-4.9722
G01 X4.0011 Y-4.8654
G01 X4.0274 Y-4.7607
G01 X4.0637 Y-4.6590
G01 X4.1099 Y-4.5615
G01 X4.1654 Y-4.4689
G01 X4.2297 Y-4.3822
G01 X4.3022 Y-4.3022
G01 X4.3822 Y-4.2297
G01 X4.4689 Y-4.1654
G01 X4.5615 Y-4.1099
G01 X4.6590 Y-4.0637
G01 X4.7607 Y-4.0274
G01 X4.8654 Y-4.0011
G01 X4.9722 Y-3.9853
G01 X5.0800 Y-3.9800
G01 X5.1878 Y-3.9853
G01 X5.2946 Y-4.0011
G01 X5.3993 Y-4.0274
G01 X5.5010 Y-4.0637
G01 X5.5985 Y-4.1099
G01 X5.6911 Y-4.1654
G01 X5.7778 Y-4.2297
G01 X5.8578 Y-4.3022
G01 X5.9303 Y-4.3822
G01 X5.9946 Y-4.4689
G01 X6.0501 Y-4.5615
G01 X6.0963 Y-4.6590
G01 X6.1326 Y-4.7607
G01 X6.1589 Y-4.8654
G01 X6.1747 Y-4.9722
G01 X6.1800 Y-5.0800
G00 Z2.0000
G00 X5.0800 Y-12.7000
G01 F70.00
G01 Z-0.1000
G01 F120.00
G01 X5.0800 Y-12.7000
G01 X5.0800 Y-12.7000
G01 X5.0800 Y-12.7000
G01 X5.0800 Y-12.7000
G00 X5.0800 Y-12.7000
G01 F70.00
G01 Z-0.2000
G01 F120.00
G01 X5.0800 Y-12.7000
G01 X5.0800 Y-12.7000
G01 X5.0800 Y-12.7000
G01 X5.0800 Y-12.7000
G00 X5.0800 Y-12.7000
G01 F70.00
G01 Z-0.3000
G01 F120.00
G01 X5.0800 Y-12.7000
G01 X5.0800 Y-12.7000
G01 X5.0800 Y-12.7000
G01 X5.0800 Y-12.7000
G00 X5.0800 Y-12.7000
G01 F70.00
G01 Z-0.4000
G01 F120.00
G01 X5.0800 Y-12.7000
G01 X5.0800 Y-12.7000
G01 X5.0800 Y-12.7000
G01 X5.0800 Y-12.7000
G00 X5.0800 Y-12.7000
G01 F70.00
G01 Z-0.5000
G01 F120.00
G01 X5.0800 Y-12.7000
G01 X5.0800 Y-12.7000
G01 X5.0800 Y-12.7000
G01 X5.0800 Y-12.7000
G00 X5.0800 Y-12.7000
G01 F70.00
G01 Z-0.6000
G01 F120.00
G01 X5.0800 Y-12.7000
G01 X5.0800 Y-12.7000
G01 X5.0800 Y-12.7000
G01 X5.0800 Y-12.7000
G00 X5.0800 Y-12.7000
G01 F70.00
G01 Z-0.7000
G01 F120.00
G01 X5.0800 Y-12.7000
G01 X5.0800 Y-12.7000
G01 X5.0800 Y-12.7000
G01 X5.0800 Y-12.7000
G00 X5.0800 Y-12.7000
G01 F70.00
G01 Z-0.8000
G01 F120.00
G01 X5.0800 Y-12.7000
G01 X5.0800 Y-12.7000
G01 X5.0800 Y-12.7000
G01 X5.0800 Y-12.7000
G00 X5.0800 Y-12.7000
G01 F70.00
G01 Z-0.9000
G01 F120.00
G01 X5.0800 Y-12.7000
G01 X5.0800 Y-12.7000
G01 X5.0800 Y-12.7000
G01 X5.0800 Y-12.7000
G00 X5.0800 Y-12.7000
G01 F70.00
G01 Z-1.0000
G01 F120.00
G01 X5.0800 Y-12.7000
G01 X5.0800 Y-12.7000
G01 X5.0800 Y-12.7000
G01 X5.0800 Y-12.7000
G00 X5.0800 Y-12.7000
G01 F70.00
G01 Z-1.1000
G01 F120.00
G01 X5.0800 Y-12.7000
G01 X5.0800 Y-12.7000
G01 X5.0800 Y-12.7000
G01 X5.0800 Y-12.7000
G00 X5.0800 Y-12.7000
G01 F70.00
G01 Z-1.2000
G01 F120.00
G01 X5.0800 Y-12.7000
G01 X5.0800 Y-12.7000
G01 X5.0800 Y-12.7000
G01 X5.0800 Y-12.7000
G00 X5.0800 Y-12.7000
G01 F70.00
G01 Z-1.3000
G01 F120.00
G01 X5.0800 Y-12.7000
G01 X5.0800 Y-12.7000
G01 X5.0800 Y-12.7000
G01 X5.0800 Y-12.7000
G00 X5.0800 Y-12.7000
G01 F70.00
G01 Z-1.4000
G01 F120.00
G01 X5.0800 Y-12.7000
G01 X5.0800 Y-12.7000
G01 X5.0800 Y-12.7000
G01 X5.0800 Y-12.7000
G00 X5.0800 Y-12.7000
G01 F70.00
G01 Z-1.5000
G01 F120.00
G01 X5.0800 Y-12.7000
G01 X5.0800 Y-12.7000
G01 X5.0800 Y-12.7000
G01 X5.0800 Y-12.7000
G00 X5.0800 Y-12.7000
G01 F70.00
G01 Z-1.6000
G01 F120.00
G01 X5.0800 Y-12.7000
G01 X5.0800 Y-12.7000
G01 X5.0800 Y-12.7000
G01 X5.0800 Y-12.7000
G00 Z2.0000
G00 X7.6200 Y-12.7000
G01 F70.00
G01 Z-0.1000
G01 F120.00
G01 X7.6200 Y-12.7000
G01 X7.6200 Y-12.7000
G01 X7.6200 Y-12.7000
G01 X7.6200 Y-12.7000
G00 X7.6200 Y-12.7000
G01 F70.00
G01 Z-0.2000
G01 F120.00
G01 X7.6200 Y-12.7000
G01 X7.6200 Y-12.7000
G01 X7.6200 Y-12.7000
G01 X7.6200 Y-12.7000
G00 X7.6200 Y-12.7000
G01 F70.00
G01 Z-0.3000
G01 F120.00
G01 X7.6200 Y-12.7000
G01 X7.6200 Y-12.7000
G01 X7.6200 Y-12.7000
G01 X7.6200 Y-12.7000
G00 X7.6200 Y-12.7000
G01 F70.00
G01 Z-0.4000
G01 F120.00
G01 X7.6200 Y-12.7000
G01 X7.6200 Y-12.7000
G01 X7.6200 Y-12.7000
G01 X7.6200 Y-12.7000
G00 X7.6200 Y-12.7000
G01 F70.00
G01 Z-0.5000
G01 F120.00
G01 X7.6200 Y-12.7000
G01 X7.6200 Y-12.7000
G01 X7.6200 Y-12.7000
G01 X7.6200 Y-12.7000
G00 X7.6200 Y-12.7000
G01 F70.00
G01 Z-0.6000
G01 F120.00
G01 X7.6200 Y-12.7000
G01 X7.6200 Y-12.7000
G01 X7.6200 Y-12.7000
G01 X7.6200 Y-12.7000
G00 X7.6200 Y-12.7000
G01 F70.00
G01 Z-0.7000
G01 F120.00
G01 X7.6200 Y-12.7000
G01 X7.6200 Y-12.7000
G01 X7.6200 Y-12.7000
G01 X7.6200 Y-12.7000
G00 X7.6200 Y-12.7000
G01 F70.00
G01 Z-0.8000
G01 F120.00
G01 X7.6200 Y-12.7000
G01 X7.6200 Y-12.7000
G01 X7.6200 Y-12.7000
G01 X7.6200 Y-12.7000
G00 X7.6200 Y-12.7000
G01 F70.00
G01 Z-0.9000
G01 F120.00
G01 X7.6200 Y-12.7000
G01 X7.6200 Y-12.7000
G01 X7.6200 Y-12.7000
G01 X7.6200 Y-12.7000
G00 X7.6200 Y-12.7000
G01 F70.00
G01 Z-1.0000
G01 F120.00
G01 X7.6200 Y-12.7000
G01 X7.6200 Y-12.7000
G01 X7.6200 Y-12.7000
G01 X7.6200 Y-12.7000
G00 X7.6200 Y-12.7000
G01 F70.00
G01 Z-1.1000
G01 F120.00
G01 X7.6200 Y-12.7000
G01 X7.6200 Y-12.7000
G01 X7.6200 Y-12.7000
G01 X7.6200 Y-12.7000
G00 X7.6200 Y-12.7000
G01 F70.00
G01 Z-1.2000
G01 F120.00
G01 X7.6200 Y-12.7000
G01 X7.6200 Y-12.7000
G01 X7.6200 Y-12.7000
G01 X7.6200 Y-12.7000
G00 X7.6200 Y-12.7000
G01 F70.00
G01 Z-1.3000
G01 F120.00
G01 X7.6200 Y-12.7000
G01 X7.6200 Y-12.7000
G01 X7.6200 Y-12.7000
G01 X7.6200 Y-12.7000
G00 X7.6200 Y-12.7000
G01 F70.00
G01 Z-1.4000
G01 F120.00
G01 X7.6200 Y-12.7000
G01 X7.6200 Y-12.7000
G01 X7.6200 Y-12.7000
G01 X7.6200 Y-12.7000
G00 X7.6200 Y-12.7000
G01 F70.00
G01 Z-1.5000
G01 F120.00
G01 X7.6200 Y-12.7000
G01 X7.6200 Y-12.7000
G01 X7.6200 Y-12.7000
G01 X7.6200 Y-12.7000
G00 X7.6200 Y-12.7000
G01 F70.00
G01 Z-1.6000
G01 F120.00
G01 X7.6200 Y-12.7000
G01 X7.6200 Y-12.7000
G01 X7.6200 Y-12.7000
G01 X7.6200 Y-12.7000
G00 Z2.0000
G00 X2.5400 Y-12.7000
G01 F70.00
G01 Z-0.1000
G01 F120.00
G01 X2.5400 Y-12.7000
G01 X2.5400 Y-12.7000
G01 X2.5400 Y-12.7000
G01 X2.5400 Y-12.7000
G00 X2.5400 Y-12.7000
G01 F70.00
G01 Z-0.2000
G01 F120.00
G01 X2.5400 Y-12.7000
G01 X2.5400 Y-12.7000
G01 X2.5400 Y-12.7000
G01 X2.5400 Y-12.7000
G00 X2.5400 Y-12.7000
G01 F70.00
G01 Z-0.3000
G01 F120.00
G01 X2.5400 Y-12.7000
G01 X2.5400 Y-12.7000
G01 X2.5400 Y-12.7000
G01 X2.5400 Y-12.7000
G00 X2.5400 Y-12.7000
G01 F70.00
G01 Z-0.4000
G01 F120.00
G01 X2.5400 Y-12.7000
G01 X2.5400 Y-12.7000
G01 X2.5400 Y-12.7000
G01 X2.5400 Y-12.7000
G00 X2.5400 Y-12.7000
G01 F70.00
G01 Z-0.5000
G01 F120.00
G01 X2.5400 Y-12.7000
G01 X2.5400 Y-12.7000
G01 X2.5400 Y-12.7000
G01 X2.5400 Y-12.7000
G00 X2.5400 Y-12.7000
G01 F70.00
G01 Z-0.6000
G01 F120.00
G01 X2.5400 Y-12.7000
G01 X2.5400 Y-12.7000
G01 X2.5400 Y-12.7000
G01 X2.5400 Y-12.7000
G00 X2.5400 Y-12.7000
G01 F70.00
G01 Z-0.7000
G01 F120.00
G01 X2.5400 Y-12.7000
G01 X2.5400 Y-12.7000
G01 X2.5400 Y-12.7000
G01 X2.5400 Y-12.7000
G00 X2.5400 Y-12.7000
G01 F70.00
G01 Z-0.8000
G01 F120.00
G01 X2.5400 Y-12.7000
G01 X2.5400 Y-12.7000
G01 X2.5400 Y-12.7000
G01 X2.5400 Y-12.7000
G00 X2.5400 Y-12.7000
G01 F70.00
G01 Z-0.9000
G01 F120.00
G01 X2.5400 Y-12.7000
G01 X2.5400 Y-12.7000
G01 X2.5400 Y-12.7000
G01 X2.5400 Y-12.7000
G00 X2.5400 Y-12.7000
G01 F70.00
G01 Z-1.0000
G01 F120.00
G01 X2.5400 Y-12.7000
G01 X2.5400 Y-12.7000
G01 X2.5400 Y-12.7000
G01 X2.5400 Y-12.7000
G00 X2.5400 Y-12.7000
G01 F70.00
G01 Z-1.1000
G01 F120.00
G01 X2.5400 Y-12.7000
G01 X2.5400 Y-12.7000
G01 X2.5400 Y-12.7000
G01 X2.5400 Y-12.7000
G00 X2.5400 Y-12.7000
G01 F70.00
G01 Z-1.2000
G01 F120.00
G01 X2.5400 Y-12.7000
G01 X2.5400 Y-12.7000
G01 X2.5400 Y-12.7000
G01 X2.5400 Y-12.7000
G00 X2.5400 Y-12.7000
G01 F70.00
G01 Z-1.3000
G01 F120.00
G01 X2.5400 Y-12.7000
G01 X2.5400 Y-12.7000
G01 X2.5400 Y-12.7000
G01 X2.5400 Y-12.7000
G00 X2.5400 Y-12.7000
G01 F70.00
G01 Z-1.4000
G01 F120.00
G01 X2.5400 Y-12.7000
G01 X2.5400 Y-12.7000
G01 X2.5400 Y-12.7000
G01 X2.5400 Y-12.7000
G00 X2.5400 Y-12.7000
G01 F70.00
G01 Z-1.5000
G01 F120.00
G01 X2.5400 Y-12.7000
G01 X2.5400 Y-12.7000
G01 X2.5400 Y-12.7000
G01 X2.5400 Y-12.7000
G00 X2.5400 Y-12.7000
G01 F70.00
G01 Z-1.6000
G01 F120.00
G01 X2.5400 Y-12.7000
G01 X2.5400 Y-12.7000
G01 X2.5400 Y-12.7000
G01 X2.5400 Y-12.7000
G00 Z2.0000
M05
G00 Z2.0000
G00 Z25.00

