(G-CODE GENERATED BY FLATCAM v8.993 - www.flatcam.org - Version Date: 2020/06/05)

(Name: 18B20_Ф1_верх.gbr_cutout_cnc)
(Type: G-code from Geometry)
(Units: MM)

(Created on Saturday, 28 November 2020 at 22:36)

(This preprocessor is the default preprocessor used by FlatCAM.)
(It is made to work with MACH3 compatible motion controllers.)

(TOOL DIAMETER: 0.8 mm)
(Feedrate_XY: 120.0 mm/min)
(Feedrate_Z: 70.0 mm/min)
(Feedrate rapids 1500.0 mm/min)

(Z_Cut: -1.7000000000000002 mm)
(DepthPerCut: 0.1 mm <=>17 passes)
(Z_Move: 2.0 mm)
(Z Start: None mm)
(Z End: 25.0 mm)
(Steps per circle: 128)
(Preprocessor Geometry: default)

(X range:   -0.5000 ...   10.6000  mm)
(Y range:  -16.6000 ...    0.5000  mm)

(Spindle Speed: 10000 RPM)
G21
G90
G94



G01 F120.00
G00 Z2.0000

M03 S10000
G00 X10.1000 Y-16.6000
G01 F70.00
G01 Z-0.1000
G01 F120.00
G01 X0.0000 Y-16.6000
G01 X-0.0490 Y-16.5976
G01 X-0.0975 Y-16.5904
G01 X-0.1451 Y-16.5785
G01 X-0.1913 Y-16.5619
G01 X-0.2357 Y-16.5410
G01 X-0.2778 Y-16.5157
G01 X-0.3172 Y-16.4865
G01 X-0.3536 Y-16.4536
G01 X-0.3865 Y-16.4172
G01 X-0.4157 Y-16.3778
G01 X-0.4410 Y-16.3357
G01 X-0.4619 Y-16.2913
G01 X-0.4785 Y-16.2451
G01 X-0.4904 Y-16.1975
G01 X-0.4976 Y-16.1490
G01 X-0.5000 Y-16.1000
G01 X-0.5000 Y-0.0000
G01 X-0.4976 Y0.0490
G01 X-0.4904 Y0.0975
G01 X-0.4785 Y0.1451
G01 X-0.4619 Y0.1913
G01 X-0.4410 Y0.2357
G01 X-0.4157 Y0.2778
G01 X-0.3865 Y0.3172
G01 X-0.3536 Y0.3536
G01 X-0.3172 Y0.3865
G01 X-0.2778 Y0.4157
G01 X-0.2357 Y0.4410
G01 X-0.1913 Y0.4619
G01 X-0.1451 Y0.4785
G01 X-0.0975 Y0.4904
G01 X-0.0490 Y0.4976
G01 X0.0000 Y0.5000
G01 X10.1000 Y0.5000
G01 X10.1490 Y0.4976
G01 X10.1975 Y0.4904
G01 X10.2451 Y0.4785
G01 X10.2913 Y0.4619
G01 X10.3357 Y0.4410
G01 X10.3778 Y0.4157
G01 X10.4172 Y0.3865
G01 X10.4536 Y0.3536
G01 X10.4865 Y0.3172
G01 X10.5157 Y0.2778
G01 X10.5410 Y0.2357
G01 X10.5619 Y0.1913
G01 X10.5785 Y0.1451
G01 X10.5904 Y0.0975
G01 X10.5976 Y0.0490
G01 X10.6000 Y-0.0000
G01 X10.6000 Y-16.1000
G01 X10.5976 Y-16.1490
G01 X10.5904 Y-16.1975
G01 X10.5785 Y-16.2451
G01 X10.5619 Y-16.2913
G01 X10.5410 Y-16.3357
G01 X10.5157 Y-16.3778
G01 X10.4865 Y-16.4172
G01 X10.4536 Y-16.4536
G01 X10.4172 Y-16.4865
G01 X10.3778 Y-16.5157
G01 X10.3357 Y-16.5410
G01 X10.2913 Y-16.5619
G01 X10.2451 Y-16.5785
G01 X10.1975 Y-16.5904
G01 X10.1490 Y-16.5976
G01 X10.1000 Y-16.6000
G00 X10.1000 Y-16.6000
G01 F70.00
G01 Z-0.2000
G01 F120.00
G01 X10.1490 Y-16.5976
G01 X10.1975 Y-16.5904
G01 X10.2451 Y-16.5785
G01 X10.2913 Y-16.5619
G01 X10.3357 Y-16.5410
G01 X10.3778 Y-16.5157
G01 X10.4172 Y-16.4865
G01 X10.4536 Y-16.4536
G01 X10.4865 Y-16.4172
G01 X10.5157 Y-16.3778
G01 X10.5410 Y-16.3357
G01 X10.5619 Y-16.2913
G01 X10.5785 Y-16.2451
G01 X10.5904 Y-16.1975
G01 X10.5976 Y-16.1490
G01 X10.6000 Y-16.1000
G01 X10.6000 Y-0.0000
G01 X10.5976 Y0.0490
G01 X10.5904 Y0.0975
G01 X10.5785 Y0.1451
G01 X10.5619 Y0.1913
G01 X10.5410 Y0.2357
G01 X10.5157 Y0.2778
G01 X10.4865 Y0.3172
G01 X10.4536 Y0.3536
G01 X10.4172 Y0.3865
G01 X10.3778 Y0.4157
G01 X10.3357 Y0.4410
G01 X10.2913 Y0.4619
G01 X10.2451 Y0.4785
G01 X10.1975 Y0.4904
G01 X10.1490 Y0.4976
G01 X10.1000 Y0.5000
G01 X0.0000 Y0.5000
G01 X-0.0490 Y0.4976
G01 X-0.0975 Y0.4904
G01 X-0.1451 Y0.4785
G01 X-0.1913 Y0.4619
G01 X-0.2357 Y0.4410
G01 X-0.2778 Y0.4157
G01 X-0.3172 Y0.3865
G01 X-0.3536 Y0.3536
G01 X-0.3865 Y0.3172
G01 X-0.4157 Y0.2778
G01 X-0.4410 Y0.2357
G01 X-0.4619 Y0.1913
G01 X-0.4785 Y0.1451
G01 X-0.4904 Y0.0975
G01 X-0.4976 Y0.0490
G01 X-0.5000 Y-0.0000
G01 X-0.5000 Y-16.1000
G01 X-0.4976 Y-16.1490
G01 X-0.4904 Y-16.1975
G01 X-0.4785 Y-16.2451
G01 X-0.4619 Y-16.2913
G01 X-0.4410 Y-16.3357
G01 X-0.4157 Y-16.3778
G01 X-0.3865 Y-16.4172
G01 X-0.3536 Y-16.4536
G01 X-0.3172 Y-16.4865
G01 X-0.2778 Y-16.5157
G01 X-0.2357 Y-16.5410
G01 X-0.1913 Y-16.5619
G01 X-0.1451 Y-16.5785
G01 X-0.0975 Y-16.5904
G01 X-0.0490 Y-16.5976
G01 X0.0000 Y-16.6000
G01 X10.1000 Y-16.6000
G00 X10.1000 Y-16.6000
G01 F70.00
G01 Z-0.3000
G01 F120.00
G01 X0.0000 Y-16.6000
G01 X-0.0490 Y-16.5976
G01 X-0.0975 Y-16.5904
G01 X-0.1451 Y-16.5785
G01 X-0.1913 Y-16.5619
G01 X-0.2357 Y-16.5410
G01 X-0.2778 Y-16.5157
G01 X-0.3172 Y-16.4865
G01 X-0.3536 Y-16.4536
G01 X-0.3865 Y-16.4172
G01 X-0.4157 Y-16.3778
G01 X-0.4410 Y-16.3357
G01 X-0.4619 Y-16.2913
G01 X-0.4785 Y-16.2451
G01 X-0.4904 Y-16.1975
G01 X-0.4976 Y-16.1490
G01 X-0.5000 Y-16.1000
G01 X-0.5000 Y-0.0000
G01 X-0.4976 Y0.0490
G01 X-0.4904 Y0.0975
G01 X-0.4785 Y0.1451
G01 X-0.4619 Y0.1913
G01 X-0.4410 Y0.2357
G01 X-0.4157 Y0.2778
G01 X-0.3865 Y0.3172
G01 X-0.3536 Y0.3536
G01 X-0.3172 Y0.3865
G01 X-0.2778 Y0.4157
G01 X-0.2357 Y0.4410
G01 X-0.1913 Y0.4619
G01 X-0.1451 Y0.4785
G01 X-0.0975 Y0.4904
G01 X-0.0490 Y0.4976
G01 X0.0000 Y0.5000
G01 X10.1000 Y0.5000
G01 X10.1490 Y0.4976
G01 X10.1975 Y0.4904
G01 X10.2451 Y0.4785
G01 X10.2913 Y0.4619
G01 X10.3357 Y0.4410
G01 X10.3778 Y0.4157
G01 X10.4172 Y0.3865
G01 X10.4536 Y0.3536
G01 X10.4865 Y0.3172
G01 X10.5157 Y0.2778
G01 X10.5410 Y0.2357
G01 X10.5619 Y0.1913
G01 X10.5785 Y0.1451
G01 X10.5904 Y0.0975
G01 X10.5976 Y0.0490
G01 X10.6000 Y-0.0000
G01 X10.6000 Y-16.1000
G01 X10.5976 Y-16.1490
G01 X10.5904 Y-16.1975
G01 X10.5785 Y-16.2451
G01 X10.5619 Y-16.2913
G01 X10.5410 Y-16.3357
G01 X10.5157 Y-16.3778
G01 X10.4865 Y-16.4172
G01 X10.4536 Y-16.4536
G01 X10.4172 Y-16.4865
G01 X10.3778 Y-16.5157
G01 X10.3357 Y-16.5410
G01 X10.2913 Y-16.5619
G01 X10.2451 Y-16.5785
G01 X10.1975 Y-16.5904
G01 X10.1490 Y-16.5976
G01 X10.1000 Y-16.6000
G00 X10.1000 Y-16.6000
G01 F70.00
G01 Z-0.4000
G01 F120.00
G01 X10.1490 Y-16.5976
G01 X10.1975 Y-16.5904
G01 X10.2451 Y-16.5785
G01 X10.2913 Y-16.5619
G01 X10.3357 Y-16.5410
G01 X10.3778 Y-16.5157
G01 X10.4172 Y-16.4865
G01 X10.4536 Y-16.4536
G01 X10.4865 Y-16.4172
G01 X10.5157 Y-16.3778
G01 X10.5410 Y-16.3357
G01 X10.5619 Y-16.2913
G01 X10.5785 Y-16.2451
G01 X10.5904 Y-16.1975
G01 X10.5976 Y-16.1490
G01 X10.6000 Y-16.1000
G01 X10.6000 Y-0.0000
G01 X10.5976 Y0.0490
G01 X10.5904 Y0.0975
G01 X10.5785 Y0.1451
G01 X10.5619 Y0.1913
G01 X10.5410 Y0.2357
G01 X10.5157 Y0.2778
G01 X10.4865 Y0.3172
G01 X10.4536 Y0.3536
G01 X10.4172 Y0.3865
G01 X10.3778 Y0.4157
G01 X10.3357 Y0.4410
G01 X10.2913 Y0.4619
G01 X10.2451 Y0.4785
G01 X10.1975 Y0.4904
G01 X10.1490 Y0.4976
G01 X10.1000 Y0.5000
G01 X0.0000 Y0.5000
G01 X-0.0490 Y0.4976
G01 X-0.0975 Y0.4904
G01 X-0.1451 Y0.4785
G01 X-0.1913 Y0.4619
G01 X-0.2357 Y0.4410
G01 X-0.2778 Y0.4157
G01 X-0.3172 Y0.3865
G01 X-0.3536 Y0.3536
G01 X-0.3865 Y0.3172
G01 X-0.4157 Y0.2778
G01 X-0.4410 Y0.2357
G01 X-0.4619 Y0.1913
G01 X-0.4785 Y0.1451
G01 X-0.4904 Y0.0975
G01 X-0.4976 Y0.0490
G01 X-0.5000 Y-0.0000
G01 X-0.5000 Y-16.1000
G01 X-0.4976 Y-16.1490
G01 X-0.4904 Y-16.1975
G01 X-0.4785 Y-16.2451
G01 X-0.4619 Y-16.2913
G01 X-0.4410 Y-16.3357
G01 X-0.4157 Y-16.3778
G01 X-0.3865 Y-16.4172
G01 X-0.3536 Y-16.4536
G01 X-0.3172 Y-16.4865
G01 X-0.2778 Y-16.5157
G01 X-0.2357 Y-16.5410
G01 X-0.1913 Y-16.5619
G01 X-0.1451 Y-16.5785
G01 X-0.0975 Y-16.5904
G01 X-0.0490 Y-16.5976
G01 X0.0000 Y-16.6000
G01 X10.1000 Y-16.6000
G00 X10.1000 Y-16.6000
G01 F70.00
G01 Z-0.5000
G01 F120.00
G01 X0.0000 Y-16.6000
G01 X-0.0490 Y-16.5976
G01 X-0.0975 Y-16.5904
G01 X-0.1451 Y-16.5785
G01 X-0.1913 Y-16.5619
G01 X-0.2357 Y-16.5410
G01 X-0.2778 Y-16.5157
G01 X-0.3172 Y-16.4865
G01 X-0.3536 Y-16.4536
G01 X-0.3865 Y-16.4172
G01 X-0.4157 Y-16.3778
G01 X-0.4410 Y-16.3357
G01 X-0.4619 Y-16.2913
G01 X-0.4785 Y-16.2451
G01 X-0.4904 Y-16.1975
G01 X-0.4976 Y-16.1490
G01 X-0.5000 Y-16.1000
G01 X-0.5000 Y-0.0000
G01 X-0.4976 Y0.0490
G01 X-0.4904 Y0.0975
G01 X-0.4785 Y0.1451
G01 X-0.4619 Y0.1913
G01 X-0.4410 Y0.2357
G01 X-0.4157 Y0.2778
G01 X-0.3865 Y0.3172
G01 X-0.3536 Y0.3536
G01 X-0.3172 Y0.3865
G01 X-0.2778 Y0.4157
G01 X-0.2357 Y0.4410
G01 X-0.1913 Y0.4619
G01 X-0.1451 Y0.4785
G01 X-0.0975 Y0.4904
G01 X-0.0490 Y0.4976
G01 X0.0000 Y0.5000
G01 X10.1000 Y0.5000
G01 X10.1490 Y0.4976
G01 X10.1975 Y0.4904
G01 X10.2451 Y0.4785
G01 X10.2913 Y0.4619
G01 X10.3357 Y0.4410
G01 X10.3778 Y0.4157
G01 X10.4172 Y0.3865
G01 X10.4536 Y0.3536
G01 X10.4865 Y0.3172
G01 X10.5157 Y0.2778
G01 X10.5410 Y0.2357
G01 X10.5619 Y0.1913
G01 X10.5785 Y0.1451
G01 X10.5904 Y0.0975
G01 X10.5976 Y0.0490
G01 X10.6000 Y-0.0000
G01 X10.6000 Y-16.1000
G01 X10.5976 Y-16.1490
G01 X10.5904 Y-16.1975
G01 X10.5785 Y-16.2451
G01 X10.5619 Y-16.2913
G01 X10.5410 Y-16.3357
G01 X10.5157 Y-16.3778
G01 X10.4865 Y-16.4172
G01 X10.4536 Y-16.4536
G01 X10.4172 Y-16.4865
G01 X10.3778 Y-16.5157
G01 X10.3357 Y-16.5410
G01 X10.2913 Y-16.5619
G01 X10.2451 Y-16.5785
G01 X10.1975 Y-16.5904
G01 X10.1490 Y-16.5976
G01 X10.1000 Y-16.6000
G00 X10.1000 Y-16.6000
G01 F70.00
G01 Z-0.6000
G01 F120.00
G01 X10.1490 Y-16.5976
G01 X10.1975 Y-16.5904
G01 X10.2451 Y-16.5785
G01 X10.2913 Y-16.5619
G01 X10.3357 Y-16.5410
G01 X10.3778 Y-16.5157
G01 X10.4172 Y-16.4865
G01 X10.4536 Y-16.4536
G01 X10.4865 Y-16.4172
G01 X10.5157 Y-16.3778
G01 X10.5410 Y-16.3357
G01 X10.5619 Y-16.2913
G01 X10.5785 Y-16.2451
G01 X10.5904 Y-16.1975
G01 X10.5976 Y-16.1490
G01 X10.6000 Y-16.1000
G01 X10.6000 Y-0.0000
G01 X10.5976 Y0.0490
G01 X10.5904 Y0.0975
G01 X10.5785 Y0.1451
G01 X10.5619 Y0.1913
G01 X10.5410 Y0.2357
G01 X10.5157 Y0.2778
G01 X10.4865 Y0.3172
G01 X10.4536 Y0.3536
G01 X10.4172 Y0.3865
G01 X10.3778 Y0.4157
G01 X10.3357 Y0.4410
G01 X10.2913 Y0.4619
G01 X10.2451 Y0.4785
G01 X10.1975 Y0.4904
G01 X10.1490 Y0.4976
G01 X10.1000 Y0.5000
G01 X0.0000 Y0.5000
G01 X-0.0490 Y0.4976
G01 X-0.0975 Y0.4904
G01 X-0.1451 Y0.4785
G01 X-0.1913 Y0.4619
G01 X-0.2357 Y0.4410
G01 X-0.2778 Y0.4157
G01 X-0.3172 Y0.3865
G01 X-0.3536 Y0.3536
G01 X-0.3865 Y0.3172
G01 X-0.4157 Y0.2778
G01 X-0.4410 Y0.2357
G01 X-0.4619 Y0.1913
G01 X-0.4785 Y0.1451
G01 X-0.4904 Y0.0975
G01 X-0.4976 Y0.0490
G01 X-0.5000 Y-0.0000
G01 X-0.5000 Y-16.1000
G01 X-0.4976 Y-16.1490
G01 X-0.4904 Y-16.1975
G01 X-0.4785 Y-16.2451
G01 X-0.4619 Y-16.2913
G01 X-0.4410 Y-16.3357
G01 X-0.4157 Y-16.3778
G01 X-0.3865 Y-16.4172
G01 X-0.3536 Y-16.4536
G01 X-0.3172 Y-16.4865
G01 X-0.2778 Y-16.5157
G01 X-0.2357 Y-16.5410
G01 X-0.1913 Y-16.5619
G01 X-0.1451 Y-16.5785
G01 X-0.0975 Y-16.5904
G01 X-0.0490 Y-16.5976
G01 X0.0000 Y-16.6000
G01 X10.1000 Y-16.6000
G00 X10.1000 Y-16.6000
G01 F70.00
G01 Z-0.7000
G01 F120.00
G01 X0.0000 Y-16.6000
G01 X-0.0490 Y-16.5976
G01 X-0.0975 Y-16.5904
G01 X-0.1451 Y-16.5785
G01 X-0.1913 Y-16.5619
G01 X-0.2357 Y-16.5410
G01 X-0.2778 Y-16.5157
G01 X-0.3172 Y-16.4865
G01 X-0.3536 Y-16.4536
G01 X-0.3865 Y-16.4172
G01 X-0.4157 Y-16.3778
G01 X-0.4410 Y-16.3357
G01 X-0.4619 Y-16.2913
G01 X-0.4785 Y-16.2451
G01 X-0.4904 Y-16.1975
G01 X-0.4976 Y-16.1490
G01 X-0.5000 Y-16.1000
G01 X-0.5000 Y-0.0000
G01 X-0.4976 Y0.0490
G01 X-0.4904 Y0.0975
G01 X-0.4785 Y0.1451
G01 X-0.4619 Y0.1913
G01 X-0.4410 Y0.2357
G01 X-0.4157 Y0.2778
G01 X-0.3865 Y0.3172
G01 X-0.3536 Y0.3536
G01 X-0.3172 Y0.3865
G01 X-0.2778 Y0.4157
G01 X-0.2357 Y0.4410
G01 X-0.1913 Y0.4619
G01 X-0.1451 Y0.4785
G01 X-0.0975 Y0.4904
G01 X-0.0490 Y0.4976
G01 X0.0000 Y0.5000
G01 X10.1000 Y0.5000
G01 X10.1490 Y0.4976
G01 X10.1975 Y0.4904
G01 X10.2451 Y0.4785
G01 X10.2913 Y0.4619
G01 X10.3357 Y0.4410
G01 X10.3778 Y0.4157
G01 X10.4172 Y0.3865
G01 X10.4536 Y0.3536
G01 X10.4865 Y0.3172
G01 X10.5157 Y0.2778
G01 X10.5410 Y0.2357
G01 X10.5619 Y0.1913
G01 X10.5785 Y0.1451
G01 X10.5904 Y0.0975
G01 X10.5976 Y0.0490
G01 X10.6000 Y-0.0000
G01 X10.6000 Y-16.1000
G01 X10.5976 Y-16.1490
G01 X10.5904 Y-16.1975
G01 X10.5785 Y-16.2451
G01 X10.5619 Y-16.2913
G01 X10.5410 Y-16.3357
G01 X10.5157 Y-16.3778
G01 X10.4865 Y-16.4172
G01 X10.4536 Y-16.4536
G01 X10.4172 Y-16.4865
G01 X10.3778 Y-16.5157
G01 X10.3357 Y-16.5410
G01 X10.2913 Y-16.5619
G01 X10.2451 Y-16.5785
G01 X10.1975 Y-16.5904
G01 X10.1490 Y-16.5976
G01 X10.1000 Y-16.6000
G00 X10.1000 Y-16.6000
G01 F70.00
G01 Z-0.8000
G01 F120.00
G01 X10.1490 Y-16.5976
G01 X10.1975 Y-16.5904
G01 X10.2451 Y-16.5785
G01 X10.2913 Y-16.5619
G01 X10.3357 Y-16.5410
G01 X10.3778 Y-16.5157
G01 X10.4172 Y-16.4865
G01 X10.4536 Y-16.4536
G01 X10.4865 Y-16.4172
G01 X10.5157 Y-16.3778
G01 X10.5410 Y-16.3357
G01 X10.5619 Y-16.2913
G01 X10.5785 Y-16.2451
G01 X10.5904 Y-16.1975
G01 X10.5976 Y-16.1490
G01 X10.6000 Y-16.1000
G01 X10.6000 Y-0.0000
G01 X10.5976 Y0.0490
G01 X10.5904 Y0.0975
G01 X10.5785 Y0.1451
G01 X10.5619 Y0.1913
G01 X10.5410 Y0.2357
G01 X10.5157 Y0.2778
G01 X10.4865 Y0.3172
G01 X10.4536 Y0.3536
G01 X10.4172 Y0.3865
G01 X10.3778 Y0.4157
G01 X10.3357 Y0.4410
G01 X10.2913 Y0.4619
G01 X10.2451 Y0.4785
G01 X10.1975 Y0.4904
G01 X10.1490 Y0.4976
G01 X10.1000 Y0.5000
G01 X0.0000 Y0.5000
G01 X-0.0490 Y0.4976
G01 X-0.0975 Y0.4904
G01 X-0.1451 Y0.4785
G01 X-0.1913 Y0.4619
G01 X-0.2357 Y0.4410
G01 X-0.2778 Y0.4157
G01 X-0.3172 Y0.3865
G01 X-0.3536 Y0.3536
G01 X-0.3865 Y0.3172
G01 X-0.4157 Y0.2778
G01 X-0.4410 Y0.2357
G01 X-0.4619 Y0.1913
G01 X-0.4785 Y0.1451
G01 X-0.4904 Y0.0975
G01 X-0.4976 Y0.0490
G01 X-0.5000 Y-0.0000
G01 X-0.5000 Y-16.1000
G01 X-0.4976 Y-16.1490
G01 X-0.4904 Y-16.1975
G01 X-0.4785 Y-16.2451
G01 X-0.4619 Y-16.2913
G01 X-0.4410 Y-16.3357
G01 X-0.4157 Y-16.3778
G01 X-0.3865 Y-16.4172
G01 X-0.3536 Y-16.4536
G01 X-0.3172 Y-16.4865
G01 X-0.2778 Y-16.5157
G01 X-0.2357 Y-16.5410
G01 X-0.1913 Y-16.5619
G01 X-0.1451 Y-16.5785
G01 X-0.0975 Y-16.5904
G01 X-0.0490 Y-16.5976
G01 X0.0000 Y-16.6000
G01 X10.1000 Y-16.6000
G00 X10.1000 Y-16.6000
G01 F70.00
G01 Z-0.9000
G01 F120.00
G01 X0.0000 Y-16.6000
G01 X-0.0490 Y-16.5976
G01 X-0.0975 Y-16.5904
G01 X-0.1451 Y-16.5785
G01 X-0.1913 Y-16.5619
G01 X-0.2357 Y-16.5410
G01 X-0.2778 Y-16.5157
G01 X-0.3172 Y-16.4865
G01 X-0.3536 Y-16.4536
G01 X-0.3865 Y-16.4172
G01 X-0.4157 Y-16.3778
G01 X-0.4410 Y-16.3357
G01 X-0.4619 Y-16.2913
G01 X-0.4785 Y-16.2451
G01 X-0.4904 Y-16.1975
G01 X-0.4976 Y-16.1490
G01 X-0.5000 Y-16.1000
G01 X-0.5000 Y-0.0000
G01 X-0.4976 Y0.0490
G01 X-0.4904 Y0.0975
G01 X-0.4785 Y0.1451
G01 X-0.4619 Y0.1913
G01 X-0.4410 Y0.2357
G01 X-0.4157 Y0.2778
G01 X-0.3865 Y0.3172
G01 X-0.3536 Y0.3536
G01 X-0.3172 Y0.3865
G01 X-0.2778 Y0.4157
G01 X-0.2357 Y0.4410
G01 X-0.1913 Y0.4619
G01 X-0.1451 Y0.4785
G01 X-0.0975 Y0.4904
G01 X-0.0490 Y0.4976
G01 X0.0000 Y0.5000
G01 X10.1000 Y0.5000
G01 X10.1490 Y0.4976
G01 X10.1975 Y0.4904
G01 X10.2451 Y0.4785
G01 X10.2913 Y0.4619
G01 X10.3357 Y0.4410
G01 X10.3778 Y0.4157
G01 X10.4172 Y0.3865
G01 X10.4536 Y0.3536
G01 X10.4865 Y0.3172
G01 X10.5157 Y0.2778
G01 X10.5410 Y0.2357
G01 X10.5619 Y0.1913
G01 X10.5785 Y0.1451
G01 X10.5904 Y0.0975
G01 X10.5976 Y0.0490
G01 X10.6000 Y-0.0000
G01 X10.6000 Y-16.1000
G01 X10.5976 Y-16.1490
G01 X10.5904 Y-16.1975
G01 X10.5785 Y-16.2451
G01 X10.5619 Y-16.2913
G01 X10.5410 Y-16.3357
G01 X10.5157 Y-16.3778
G01 X10.4865 Y-16.4172
G01 X10.4536 Y-16.4536
G01 X10.4172 Y-16.4865
G01 X10.3778 Y-16.5157
G01 X10.3357 Y-16.5410
G01 X10.2913 Y-16.5619
G01 X10.2451 Y-16.5785
G01 X10.1975 Y-16.5904
G01 X10.1490 Y-16.5976
G01 X10.1000 Y-16.6000
G00 X10.1000 Y-16.6000
G01 F70.00
G01 Z-1.0000
G01 F120.00
G01 X10.1490 Y-16.5976
G01 X10.1975 Y-16.5904
G01 X10.2451 Y-16.5785
G01 X10.2913 Y-16.5619
G01 X10.3357 Y-16.5410
G01 X10.3778 Y-16.5157
G01 X10.4172 Y-16.4865
G01 X10.4536 Y-16.4536
G01 X10.4865 Y-16.4172
G01 X10.5157 Y-16.3778
G01 X10.5410 Y-16.3357
G01 X10.5619 Y-16.2913
G01 X10.5785 Y-16.2451
G01 X10.5904 Y-16.1975
G01 X10.5976 Y-16.1490
G01 X10.6000 Y-16.1000
G01 X10.6000 Y-0.0000
G01 X10.5976 Y0.0490
G01 X10.5904 Y0.0975
G01 X10.5785 Y0.1451
G01 X10.5619 Y0.1913
G01 X10.5410 Y0.2357
G01 X10.5157 Y0.2778
G01 X10.4865 Y0.3172
G01 X10.4536 Y0.3536
G01 X10.4172 Y0.3865
G01 X10.3778 Y0.4157
G01 X10.3357 Y0.4410
G01 X10.2913 Y0.4619
G01 X10.2451 Y0.4785
G01 X10.1975 Y0.4904
G01 X10.1490 Y0.4976
G01 X10.1000 Y0.5000
G01 X0.0000 Y0.5000
G01 X-0.0490 Y0.4976
G01 X-0.0975 Y0.4904
G01 X-0.1451 Y0.4785
G01 X-0.1913 Y0.4619
G01 X-0.2357 Y0.4410
G01 X-0.2778 Y0.4157
G01 X-0.3172 Y0.3865
G01 X-0.3536 Y0.3536
G01 X-0.3865 Y0.3172
G01 X-0.4157 Y0.2778
G01 X-0.4410 Y0.2357
G01 X-0.4619 Y0.1913
G01 X-0.4785 Y0.1451
G01 X-0.4904 Y0.0975
G01 X-0.4976 Y0.0490
G01 X-0.5000 Y-0.0000
G01 X-0.5000 Y-16.1000
G01 X-0.4976 Y-16.1490
G01 X-0.4904 Y-16.1975
G01 X-0.4785 Y-16.2451
G01 X-0.4619 Y-16.2913
G01 X-0.4410 Y-16.3357
G01 X-0.4157 Y-16.3778
G01 X-0.3865 Y-16.4172
G01 X-0.3536 Y-16.4536
G01 X-0.3172 Y-16.4865
G01 X-0.2778 Y-16.5157
G01 X-0.2357 Y-16.5410
G01 X-0.1913 Y-16.5619
G01 X-0.1451 Y-16.5785
G01 X-0.0975 Y-16.5904
G01 X-0.0490 Y-16.5976
G01 X0.0000 Y-16.6000
G01 X10.1000 Y-16.6000
G00 X10.1000 Y-16.6000
G01 F70.00
G01 Z-1.1000
G01 F120.00
G01 X0.0000 Y-16.6000
G01 X-0.0490 Y-16.5976
G01 X-0.0975 Y-16.5904
G01 X-0.1451 Y-16.5785
G01 X-0.1913 Y-16.5619
G01 X-0.2357 Y-16.5410
G01 X-0.2778 Y-16.5157
G01 X-0.3172 Y-16.4865
G01 X-0.3536 Y-16.4536
G01 X-0.3865 Y-16.4172
G01 X-0.4157 Y-16.3778
G01 X-0.4410 Y-16.3357
G01 X-0.4619 Y-16.2913
G01 X-0.4785 Y-16.2451
G01 X-0.4904 Y-16.1975
G01 X-0.4976 Y-16.1490
G01 X-0.5000 Y-16.1000
G01 X-0.5000 Y-0.0000
G01 X-0.4976 Y0.0490
G01 X-0.4904 Y0.0975
G01 X-0.4785 Y0.1451
G01 X-0.4619 Y0.1913
G01 X-0.4410 Y0.2357
G01 X-0.4157 Y0.2778
G01 X-0.3865 Y0.3172
G01 X-0.3536 Y0.3536
G01 X-0.3172 Y0.3865
G01 X-0.2778 Y0.4157
G01 X-0.2357 Y0.4410
G01 X-0.1913 Y0.4619
G01 X-0.1451 Y0.4785
G01 X-0.0975 Y0.4904
G01 X-0.0490 Y0.4976
G01 X0.0000 Y0.5000
G01 X10.1000 Y0.5000
G01 X10.1490 Y0.4976
G01 X10.1975 Y0.4904
G01 X10.2451 Y0.4785
G01 X10.2913 Y0.4619
G01 X10.3357 Y0.4410
G01 X10.3778 Y0.4157
G01 X10.4172 Y0.3865
G01 X10.4536 Y0.3536
G01 X10.4865 Y0.3172
G01 X10.5157 Y0.2778
G01 X10.5410 Y0.2357
G01 X10.5619 Y0.1913
G01 X10.5785 Y0.1451
G01 X10.5904 Y0.0975
G01 X10.5976 Y0.0490
G01 X10.6000 Y-0.0000
G01 X10.6000 Y-16.1000
G01 X10.5976 Y-16.1490
G01 X10.5904 Y-16.1975
G01 X10.5785 Y-16.2451
G01 X10.5619 Y-16.2913
G01 X10.5410 Y-16.3357
G01 X10.5157 Y-16.3778
G01 X10.4865 Y-16.4172
G01 X10.4536 Y-16.4536
G01 X10.4172 Y-16.4865
G01 X10.3778 Y-16.5157
G01 X10.3357 Y-16.5410
G01 X10.2913 Y-16.5619
G01 X10.2451 Y-16.5785
G01 X10.1975 Y-16.5904
G01 X10.1490 Y-16.5976
G01 X10.1000 Y-16.6000
G00 X10.1000 Y-16.6000
G01 F70.00
G01 Z-1.2000
G01 F120.00
G01 X10.1490 Y-16.5976
G01 X10.1975 Y-16.5904
G01 X10.2451 Y-16.5785
G01 X10.2913 Y-16.5619
G01 X10.3357 Y-16.5410
G01 X10.3778 Y-16.5157
G01 X10.4172 Y-16.4865
G01 X10.4536 Y-16.4536
G01 X10.4865 Y-16.4172
G01 X10.5157 Y-16.3778
G01 X10.5410 Y-16.3357
G01 X10.5619 Y-16.2913
G01 X10.5785 Y-16.2451
G01 X10.5904 Y-16.1975
G01 X10.5976 Y-16.1490
G01 X10.6000 Y-16.1000
G01 X10.6000 Y-0.0000
G01 X10.5976 Y0.0490
G01 X10.5904 Y0.0975
G01 X10.5785 Y0.1451
G01 X10.5619 Y0.1913
G01 X10.5410 Y0.2357
G01 X10.5157 Y0.2778
G01 X10.4865 Y0.3172
G01 X10.4536 Y0.3536
G01 X10.4172 Y0.3865
G01 X10.3778 Y0.4157
G01 X10.3357 Y0.4410
G01 X10.2913 Y0.4619
G01 X10.2451 Y0.4785
G01 X10.1975 Y0.4904
G01 X10.1490 Y0.4976
G01 X10.1000 Y0.5000
G01 X0.0000 Y0.5000
G01 X-0.0490 Y0.4976
G01 X-0.0975 Y0.4904
G01 X-0.1451 Y0.4785
G01 X-0.1913 Y0.4619
G01 X-0.2357 Y0.4410
G01 X-0.2778 Y0.4157
G01 X-0.3172 Y0.3865
G01 X-0.3536 Y0.3536
G01 X-0.3865 Y0.3172
G01 X-0.4157 Y0.2778
G01 X-0.4410 Y0.2357
G01 X-0.4619 Y0.1913
G01 X-0.4785 Y0.1451
G01 X-0.4904 Y0.0975
G01 X-0.4976 Y0.0490
G01 X-0.5000 Y-0.0000
G01 X-0.5000 Y-16.1000
G01 X-0.4976 Y-16.1490
G01 X-0.4904 Y-16.1975
G01 X-0.4785 Y-16.2451
G01 X-0.4619 Y-16.2913
G01 X-0.4410 Y-16.3357
G01 X-0.4157 Y-16.3778
G01 X-0.3865 Y-16.4172
G01 X-0.3536 Y-16.4536
G01 X-0.3172 Y-16.4865
G01 X-0.2778 Y-16.5157
G01 X-0.2357 Y-16.5410
G01 X-0.1913 Y-16.5619
G01 X-0.1451 Y-16.5785
G01 X-0.0975 Y-16.5904
G01 X-0.0490 Y-16.5976
G01 X0.0000 Y-16.6000
G01 X10.1000 Y-16.6000
G00 X10.1000 Y-16.6000
G01 F70.00
G01 Z-1.3000
G01 F120.00
G01 X0.0000 Y-16.6000
G01 X-0.0490 Y-16.5976
G01 X-0.0975 Y-16.5904
G01 X-0.1451 Y-16.5785
G01 X-0.1913 Y-16.5619
G01 X-0.2357 Y-16.5410
G01 X-0.2778 Y-16.5157
G01 X-0.3172 Y-16.4865
G01 X-0.3536 Y-16.4536
G01 X-0.3865 Y-16.4172
G01 X-0.4157 Y-16.3778
G01 X-0.4410 Y-16.3357
G01 X-0.4619 Y-16.2913
G01 X-0.4785 Y-16.2451
G01 X-0.4904 Y-16.1975
G01 X-0.4976 Y-16.1490
G01 X-0.5000 Y-16.1000
G01 X-0.5000 Y-0.0000
G01 X-0.4976 Y0.0490
G01 X-0.4904 Y0.0975
G01 X-0.4785 Y0.1451
G01 X-0.4619 Y0.1913
G01 X-0.4410 Y0.2357
G01 X-0.4157 Y0.2778
G01 X-0.3865 Y0.3172
G01 X-0.3536 Y0.3536
G01 X-0.3172 Y0.3865
G01 X-0.2778 Y0.4157
G01 X-0.2357 Y0.4410
G01 X-0.1913 Y0.4619
G01 X-0.1451 Y0.4785
G01 X-0.0975 Y0.4904
G01 X-0.0490 Y0.4976
G01 X0.0000 Y0.5000
G01 X10.1000 Y0.5000
G01 X10.1490 Y0.4976
G01 X10.1975 Y0.4904
G01 X10.2451 Y0.4785
G01 X10.2913 Y0.4619
G01 X10.3357 Y0.4410
G01 X10.3778 Y0.4157
G01 X10.4172 Y0.3865
G01 X10.4536 Y0.3536
G01 X10.4865 Y0.3172
G01 X10.5157 Y0.2778
G01 X10.5410 Y0.2357
G01 X10.5619 Y0.1913
G01 X10.5785 Y0.1451
G01 X10.5904 Y0.0975
G01 X10.5976 Y0.0490
G01 X10.6000 Y-0.0000
G01 X10.6000 Y-16.1000
G01 X10.5976 Y-16.1490
G01 X10.5904 Y-16.1975
G01 X10.5785 Y-16.2451
G01 X10.5619 Y-16.2913
G01 X10.5410 Y-16.3357
G01 X10.5157 Y-16.3778
G01 X10.4865 Y-16.4172
G01 X10.4536 Y-16.4536
G01 X10.4172 Y-16.4865
G01 X10.3778 Y-16.5157
G01 X10.3357 Y-16.5410
G01 X10.2913 Y-16.5619
G01 X10.2451 Y-16.5785
G01 X10.1975 Y-16.5904
G01 X10.1490 Y-16.5976
G01 X10.1000 Y-16.6000
G00 X10.1000 Y-16.6000
G01 F70.00
G01 Z-1.4000
G01 F120.00
G01 X10.1490 Y-16.5976
G01 X10.1975 Y-16.5904
G01 X10.2451 Y-16.5785
G01 X10.2913 Y-16.5619
G01 X10.3357 Y-16.5410
G01 X10.3778 Y-16.5157
G01 X10.4172 Y-16.4865
G01 X10.4536 Y-16.4536
G01 X10.4865 Y-16.4172
G01 X10.5157 Y-16.3778
G01 X10.5410 Y-16.3357
G01 X10.5619 Y-16.2913
G01 X10.5785 Y-16.2451
G01 X10.5904 Y-16.1975
G01 X10.5976 Y-16.1490
G01 X10.6000 Y-16.1000
G01 X10.6000 Y-0.0000
G01 X10.5976 Y0.0490
G01 X10.5904 Y0.0975
G01 X10.5785 Y0.1451
G01 X10.5619 Y0.1913
G01 X10.5410 Y0.2357
G01 X10.5157 Y0.2778
G01 X10.4865 Y0.3172
G01 X10.4536 Y0.3536
G01 X10.4172 Y0.3865
G01 X10.3778 Y0.4157
G01 X10.3357 Y0.4410
G01 X10.2913 Y0.4619
G01 X10.2451 Y0.4785
G01 X10.1975 Y0.4904
G01 X10.1490 Y0.4976
G01 X10.1000 Y0.5000
G01 X0.0000 Y0.5000
G01 X-0.0490 Y0.4976
G01 X-0.0975 Y0.4904
G01 X-0.1451 Y0.4785
G01 X-0.1913 Y0.4619
G01 X-0.2357 Y0.4410
G01 X-0.2778 Y0.4157
G01 X-0.3172 Y0.3865
G01 X-0.3536 Y0.3536
G01 X-0.3865 Y0.3172
G01 X-0.4157 Y0.2778
G01 X-0.4410 Y0.2357
G01 X-0.4619 Y0.1913
G01 X-0.4785 Y0.1451
G01 X-0.4904 Y0.0975
G01 X-0.4976 Y0.0490
G01 X-0.5000 Y-0.0000
G01 X-0.5000 Y-16.1000
G01 X-0.4976 Y-16.1490
G01 X-0.4904 Y-16.1975
G01 X-0.4785 Y-16.2451
G01 X-0.4619 Y-16.2913
G01 X-0.4410 Y-16.3357
G01 X-0.4157 Y-16.3778
G01 X-0.3865 Y-16.4172
G01 X-0.3536 Y-16.4536
G01 X-0.3172 Y-16.4865
G01 X-0.2778 Y-16.5157
G01 X-0.2357 Y-16.5410
G01 X-0.1913 Y-16.5619
G01 X-0.1451 Y-16.5785
G01 X-0.0975 Y-16.5904
G01 X-0.0490 Y-16.5976
G01 X0.0000 Y-16.6000
G01 X10.1000 Y-16.6000
G00 X10.1000 Y-16.6000
G01 F70.00
G01 Z-1.5000
G01 F120.00
G01 X0.0000 Y-16.6000
G01 X-0.0490 Y-16.5976
G01 X-0.0975 Y-16.5904
G01 X-0.1451 Y-16.5785
G01 X-0.1913 Y-16.5619
G01 X-0.2357 Y-16.5410
G01 X-0.2778 Y-16.5157
G01 X-0.3172 Y-16.4865
G01 X-0.3536 Y-16.4536
G01 X-0.3865 Y-16.4172
G01 X-0.4157 Y-16.3778
G01 X-0.4410 Y-16.3357
G01 X-0.4619 Y-16.2913
G01 X-0.4785 Y-16.2451
G01 X-0.4904 Y-16.1975
G01 X-0.4976 Y-16.1490
G01 X-0.5000 Y-16.1000
G01 X-0.5000 Y-0.0000
G01 X-0.4976 Y0.0490
G01 X-0.4904 Y0.0975
G01 X-0.4785 Y0.1451
G01 X-0.4619 Y0.1913
G01 X-0.4410 Y0.2357
G01 X-0.4157 Y0.2778
G01 X-0.3865 Y0.3172
G01 X-0.3536 Y0.3536
G01 X-0.3172 Y0.3865
G01 X-0.2778 Y0.4157
G01 X-0.2357 Y0.4410
G01 X-0.1913 Y0.4619
G01 X-0.1451 Y0.4785
G01 X-0.0975 Y0.4904
G01 X-0.0490 Y0.4976
G01 X0.0000 Y0.5000
G01 X10.1000 Y0.5000
G01 X10.1490 Y0.4976
G01 X10.1975 Y0.4904
G01 X10.2451 Y0.4785
G01 X10.2913 Y0.4619
G01 X10.3357 Y0.4410
G01 X10.3778 Y0.4157
G01 X10.4172 Y0.3865
G01 X10.4536 Y0.3536
G01 X10.4865 Y0.3172
G01 X10.5157 Y0.2778
G01 X10.5410 Y0.2357
G01 X10.5619 Y0.1913
G01 X10.5785 Y0.1451
G01 X10.5904 Y0.0975
G01 X10.5976 Y0.0490
G01 X10.6000 Y-0.0000
G01 X10.6000 Y-16.1000
G01 X10.5976 Y-16.1490
G01 X10.5904 Y-16.1975
G01 X10.5785 Y-16.2451
G01 X10.5619 Y-16.2913
G01 X10.5410 Y-16.3357
G01 X10.5157 Y-16.3778
G01 X10.4865 Y-16.4172
G01 X10.4536 Y-16.4536
G01 X10.4172 Y-16.4865
G01 X10.3778 Y-16.5157
G01 X10.3357 Y-16.5410
G01 X10.2913 Y-16.5619
G01 X10.2451 Y-16.5785
G01 X10.1975 Y-16.5904
G01 X10.1490 Y-16.5976
G01 X10.1000 Y-16.6000
G00 X10.1000 Y-16.6000
G01 F70.00
G01 Z-1.6000
G01 F120.00
G01 X10.1490 Y-16.5976
G01 X10.1975 Y-16.5904
G01 X10.2451 Y-16.5785
G01 X10.2913 Y-16.5619
G01 X10.3357 Y-16.5410
G01 X10.3778 Y-16.5157
G01 X10.4172 Y-16.4865
G01 X10.4536 Y-16.4536
G01 X10.4865 Y-16.4172
G01 X10.5157 Y-16.3778
G01 X10.5410 Y-16.3357
G01 X10.5619 Y-16.2913
G01 X10.5785 Y-16.2451
G01 X10.5904 Y-16.1975
G01 X10.5976 Y-16.1490
G01 X10.6000 Y-16.1000
G01 X10.6000 Y-0.0000
G01 X10.5976 Y0.0490
G01 X10.5904 Y0.0975
G01 X10.5785 Y0.1451
G01 X10.5619 Y0.1913
G01 X10.5410 Y0.2357
G01 X10.5157 Y0.2778
G01 X10.4865 Y0.3172
G01 X10.4536 Y0.3536
G01 X10.4172 Y0.3865
G01 X10.3778 Y0.4157
G01 X10.3357 Y0.4410
G01 X10.2913 Y0.4619
G01 X10.2451 Y0.4785
G01 X10.1975 Y0.4904
G01 X10.1490 Y0.4976
G01 X10.1000 Y0.5000
G01 X0.0000 Y0.5000
G01 X-0.0490 Y0.4976
G01 X-0.0975 Y0.4904
G01 X-0.1451 Y0.4785
G01 X-0.1913 Y0.4619
G01 X-0.2357 Y0.4410
G01 X-0.2778 Y0.4157
G01 X-0.3172 Y0.3865
G01 X-0.3536 Y0.3536
G01 X-0.3865 Y0.3172
G01 X-0.4157 Y0.2778
G01 X-0.4410 Y0.2357
G01 X-0.4619 Y0.1913
G01 X-0.4785 Y0.1451
G01 X-0.4904 Y0.0975
G01 X-0.4976 Y0.0490
G01 X-0.5000 Y-0.0000
G01 X-0.5000 Y-16.1000
G01 X-0.4976 Y-16.1490
G01 X-0.4904 Y-16.1975
G01 X-0.4785 Y-16.2451
G01 X-0.4619 Y-16.2913
G01 X-0.4410 Y-16.3357
G01 X-0.4157 Y-16.3778
G01 X-0.3865 Y-16.4172
G01 X-0.3536 Y-16.4536
G01 X-0.3172 Y-16.4865
G01 X-0.2778 Y-16.5157
G01 X-0.2357 Y-16.5410
G01 X-0.1913 Y-16.5619
G01 X-0.1451 Y-16.5785
G01 X-0.0975 Y-16.5904
G01 X-0.0490 Y-16.5976
G01 X0.0000 Y-16.6000
G01 X10.1000 Y-16.6000
G00 X10.1000 Y-16.6000
G01 F70.00
G01 Z-1.7000
G01 F120.00
G01 X0.0000 Y-16.6000
G01 X-0.0490 Y-16.5976
G01 X-0.0975 Y-16.5904
G01 X-0.1451 Y-16.5785
G01 X-0.1913 Y-16.5619
G01 X-0.2357 Y-16.5410
G01 X-0.2778 Y-16.5157
G01 X-0.3172 Y-16.4865
G01 X-0.3536 Y-16.4536
G01 X-0.3865 Y-16.4172
G01 X-0.4157 Y-16.3778
G01 X-0.4410 Y-16.3357
G01 X-0.4619 Y-16.2913
G01 X-0.4785 Y-16.2451
G01 X-0.4904 Y-16.1975
G01 X-0.4976 Y-16.1490
G01 X-0.5000 Y-16.1000
G01 X-0.5000 Y-0.0000
G01 X-0.4976 Y0.0490
G01 X-0.4904 Y0.0975
G01 X-0.4785 Y0.1451
G01 X-0.4619 Y0.1913
G01 X-0.4410 Y0.2357
G01 X-0.4157 Y0.2778
G01 X-0.3865 Y0.3172
G01 X-0.3536 Y0.3536
G01 X-0.3172 Y0.3865
G01 X-0.2778 Y0.4157
G01 X-0.2357 Y0.4410
G01 X-0.1913 Y0.4619
G01 X-0.1451 Y0.4785
G01 X-0.0975 Y0.4904
G01 X-0.0490 Y0.4976
G01 X0.0000 Y0.5000
G01 X10.1000 Y0.5000
G01 X10.1490 Y0.4976
G01 X10.1975 Y0.4904
G01 X10.2451 Y0.4785
G01 X10.2913 Y0.4619
G01 X10.3357 Y0.4410
G01 X10.3778 Y0.4157
G01 X10.4172 Y0.3865
G01 X10.4536 Y0.3536
G01 X10.4865 Y0.3172
G01 X10.5157 Y0.2778
G01 X10.5410 Y0.2357
G01 X10.5619 Y0.1913
G01 X10.5785 Y0.1451
G01 X10.5904 Y0.0975
G01 X10.5976 Y0.0490
G01 X10.6000 Y-0.0000
G01 X10.6000 Y-16.1000
G01 X10.5976 Y-16.1490
G01 X10.5904 Y-16.1975
G01 X10.5785 Y-16.2451
G01 X10.5619 Y-16.2913
G01 X10.5410 Y-16.3357
G01 X10.5157 Y-16.3778
G01 X10.4865 Y-16.4172
G01 X10.4536 Y-16.4536
G01 X10.4172 Y-16.4865
G01 X10.3778 Y-16.5157
G01 X10.3357 Y-16.5410
G01 X10.2913 Y-16.5619
G01 X10.2451 Y-16.5785
G01 X10.1975 Y-16.5904
G01 X10.1490 Y-16.5976
G01 X10.1000 Y-16.6000
G00 Z2.0000
M05
G00 Z2.0000
G00 Z25.00

