(G-CODE GENERATED BY FLATCAM v8.993 - www.flatcam.org - Version Date: 2020/06/05)

(Name: 18B20_Ф1_верх.gbr_iso_combined_cnc)
(Type: G-code from Geometry)
(Units: MM)

(Created on Saturday, 28 November 2020 at 22:03)

(This preprocessor is the default preprocessor used by FlatCAM.)
(It is made to work with MACH3 compatible motion controllers.)

(TOOL DIAMETER: 0.14 mm)
(Feedrate_XY: 120.0 mm/min)
(Feedrate_Z: 70.0 mm/min)
(Feedrate rapids 1500.0 mm/min)

(Z_Cut: -0.09 mm)
(Z_Move: 2.0 mm)
(Z Start: None mm)
(Z End: 25.0 mm)
(Steps per circle: 128)
(Preprocessor Geometry: default)

(X range:   -0.2800 ...   10.3800  mm)
(Y range:  -16.3800 ...    0.2800  mm)

(Spindle Speed: 10000 RPM)
G21
G90
G94



G01 F120.00
G00 Z2.0000

M03 S10000
G00 X-0.0700 Y-0.0000
G01 F70.00
G01 Z-0.0900
G01 F120.00
G01 X-0.0700 Y-16.1000
G01 X-0.0692 Y-16.1103
G01 X-0.0672 Y-16.1195
G01 X-0.0640 Y-16.1284
G01 X-0.0591 Y-16.1374
G01 X-0.0541 Y-16.1444
G01 X-0.0483 Y-16.1507
G01 X-0.0417 Y-16.1562
G01 X-0.0338 Y-16.1613
G01 X-0.0260 Y-16.1650
G01 X-0.0170 Y-16.1679
G01 X-0.0086 Y-16.1695
G01 X0.0000 Y-16.1700
G01 X10.1000 Y-16.1700
G01 X10.1103 Y-16.1692
G01 X10.1195 Y-16.1672
G01 X10.1284 Y-16.1640
G01 X10.1374 Y-16.1591
G01 X10.1444 Y-16.1541
G01 X10.1507 Y-16.1483
G01 X10.1562 Y-16.1417
G01 X10.1613 Y-16.1338
G01 X10.1650 Y-16.1260
G01 X10.1677 Y-16.1178
G01 X10.1694 Y-16.1094
G01 X10.1700 Y-16.1000
G01 X10.1700 Y-0.0000
G01 X10.1694 Y0.0094
G01 X10.1672 Y0.0195
G01 X10.1640 Y0.0284
G01 X10.1591 Y0.0374
G01 X10.1541 Y0.0444
G01 X10.1483 Y0.0507
G01 X10.1417 Y0.0562
G01 X10.1338 Y0.0613
G01 X10.1260 Y0.0650
G01 X10.1178 Y0.0677
G01 X10.1094 Y0.0694
G01 X10.1000 Y0.0700
G01 X0.0000 Y0.0700
G01 X-0.0137 Y0.0687
G01 X-0.0268 Y0.0647
G01 X-0.0389 Y0.0582
G01 X-0.0495 Y0.0495
G01 X-0.0582 Y0.0389
G01 X-0.0647 Y0.0268
G01 X-0.0687 Y0.0137
G01 X-0.0700 Y-0.0000
G00 Z2.0000
G00 X-0.1400 Y-0.0000
G01 F70.00
G01 Z-0.0900
G01 F120.00
G01 X-0.1400 Y-16.1000
G01 X-0.1387 Y-16.1188
G01 X-0.1345 Y-16.1390
G01 X-0.1273 Y-16.1583
G01 X-0.1183 Y-16.1749
G01 X-0.1071 Y-16.1901
G01 X-0.0953 Y-16.2026
G01 X-0.0820 Y-16.2135
G01 X-0.0675 Y-16.2226
G01 X-0.0520 Y-16.2300
G01 X-0.0357 Y-16.2354
G01 X-0.0188 Y-16.2387
G01 X0.0000 Y-16.2400
G01 X10.1000 Y-16.2400
G01 X10.1205 Y-16.2385
G01 X10.1390 Y-16.2345
G01 X10.1567 Y-16.2280
G01 X10.1749 Y-16.2183
G01 X10.1901 Y-16.2071
G01 X10.2026 Y-16.1953
G01 X10.2135 Y-16.1820
G01 X10.2226 Y-16.1675
G01 X10.2300 Y-16.1520
G01 X10.2354 Y-16.1357
G01 X10.2389 Y-16.1171
G01 X10.2400 Y-16.1000
G01 X10.2400 Y-0.0000
G01 X10.2385 Y0.0205
G01 X10.2345 Y0.0390
G01 X10.2273 Y0.0583
G01 X10.2183 Y0.0749
G01 X10.2071 Y0.0901
G01 X10.1953 Y0.1026
G01 X10.1820 Y0.1135
G01 X10.1675 Y0.1226
G01 X10.1520 Y0.1300
G01 X10.1357 Y0.1354
G01 X10.1188 Y0.1387
G01 X10.1017 Y0.1400
G01 X-0.0017 Y0.1400
G01 X-0.0154 Y0.1391
G01 X-0.0290 Y0.1370
G01 X-0.0423 Y0.1335
G01 X-0.0552 Y0.1287
G01 X-0.0675 Y0.1226
G01 X-0.0792 Y0.1154
G01 X-0.0901 Y0.1071
G01 X-0.1002 Y0.0978
G01 X-0.1093 Y0.0875
G01 X-0.1174 Y0.0763
G01 X-0.1243 Y0.0645
G01 X-0.1300 Y0.0520
G01 X-0.1345 Y0.0390
G01 X-0.1373 Y0.0273
G01 X-0.1393 Y0.0137
G01 X-0.1400 Y-0.0000
G00 Z2.0000
G00 X-0.2100 Y-0.0000
G01 F70.00
G01 Z-0.0900
G01 F120.00
G01 X-0.2100 Y-16.1000
G01 X-0.2081 Y-16.1283
G01 X-0.2054 Y-16.1435
G01 X-0.2017 Y-16.1585
G01 X-0.1968 Y-16.1732
G01 X-0.1909 Y-16.1875
G01 X-0.1774 Y-16.2123
G01 X-0.1623 Y-16.2332
G01 X-0.1448 Y-16.2521
G01 X-0.1251 Y-16.2687
G01 X-0.1035 Y-16.2827
G01 X-0.0804 Y-16.2940
G01 X-0.0560 Y-16.3024
G01 X-0.0283 Y-16.3081
G01 X-0.0026 Y-16.3100
G01 X10.1000 Y-16.3100
G01 X10.1283 Y-16.3081
G01 X10.1435 Y-16.3054
G01 X10.1585 Y-16.3017
G01 X10.1732 Y-16.2968
G01 X10.1875 Y-16.2909
G01 X10.2123 Y-16.2774
G01 X10.2332 Y-16.2623
G01 X10.2539 Y-16.2429
G01 X10.2702 Y-16.2230
G01 X10.2840 Y-16.2013
G01 X10.2950 Y-16.1780
G01 X10.3031 Y-16.1535
G01 X10.3081 Y-16.1283
G01 X10.3100 Y-16.1000
G01 X10.3100 Y-0.0000
G01 X10.3081 Y0.0283
G01 X10.3054 Y0.0435
G01 X10.3017 Y0.0585
G01 X10.2920 Y0.0851
G01 X10.2852 Y0.0990
G01 X10.2774 Y0.1123
G01 X10.2623 Y0.1332
G01 X10.2448 Y0.1521
G01 X10.2251 Y0.1687
G01 X10.2035 Y0.1827
G01 X10.1780 Y0.1950
G01 X10.1535 Y0.2031
G01 X10.1283 Y0.2081
G01 X10.1026 Y0.2100
G01 X-0.0026 Y0.2100
G01 X-0.0231 Y0.2087
G01 X-0.0435 Y0.2054
G01 X-0.0634 Y0.2002
G01 X-0.0827 Y0.1930
G01 X-0.1013 Y0.1840
G01 X-0.1188 Y0.1732
G01 X-0.1352 Y0.1607
G01 X-0.1503 Y0.1467
G01 X-0.1640 Y0.1312
G01 X-0.1760 Y0.1145
G01 X-0.1852 Y0.0990
G01 X-0.1940 Y0.0804
G01 X-0.2010 Y0.0610
G01 X-0.2060 Y0.0410
G01 X-0.2090 Y0.0206
G01 X-0.2100 Y-0.0000
G00 Z2.0000
G00 X-0.2800 Y-0.0000
G01 F70.00
G01 Z-0.0900
G01 F120.00
G01 X-0.2800 Y-16.1000
G01 X-0.2792 Y-16.1206
G01 X-0.2770 Y-16.1411
G01 X-0.2739 Y-16.1580
G01 X-0.2689 Y-16.1780
G01 X-0.2625 Y-16.1976
G01 X-0.2546 Y-16.2166
G01 X-0.2453 Y-16.2350
G01 X-0.2347 Y-16.2527
G01 X-0.2249 Y-16.2668
G01 X-0.2142 Y-16.2803
G01 X-0.2028 Y-16.2931
G01 X-0.1906 Y-16.3051
G01 X-0.1776 Y-16.3164
G01 X-0.1640 Y-16.3269
G01 X-0.1498 Y-16.3366
G01 X-0.1350 Y-16.3453
G01 X-0.1197 Y-16.3531
G01 X-0.1040 Y-16.3600
G01 X-0.0878 Y-16.3659
G01 X-0.0714 Y-16.3708
G01 X-0.0546 Y-16.3746
G01 X-0.0377 Y-16.3775
G01 X-0.0206 Y-16.3792
G01 X-0.0034 Y-16.3800
G01 X10.1000 Y-16.3800
G01 X10.1206 Y-16.3792
G01 X10.1411 Y-16.3770
G01 X10.1613 Y-16.3732
G01 X10.1813 Y-16.3679
G01 X10.2008 Y-16.3612
G01 X10.2197 Y-16.3531
G01 X10.2380 Y-16.3436
G01 X10.2527 Y-16.3347
G01 X10.2668 Y-16.3249
G01 X10.2803 Y-16.3142
G01 X10.2931 Y-16.3028
G01 X10.3051 Y-16.2906
G01 X10.3164 Y-16.2776
G01 X10.3269 Y-16.2640
G01 X10.3366 Y-16.2498
G01 X10.3453 Y-16.2350
G01 X10.3531 Y-16.2197
G01 X10.3600 Y-16.2040
G01 X10.3659 Y-16.1878
G01 X10.3708 Y-16.1714
G01 X10.3753 Y-16.1513
G01 X10.3779 Y-16.1343
G01 X10.3795 Y-16.1172
G01 X10.3800 Y-16.1000
G01 X10.3800 Y-0.0000
G01 X10.3792 Y0.0206
G01 X10.3770 Y0.0411
G01 X10.3732 Y0.0613
G01 X10.3689 Y0.0780
G01 X10.3625 Y0.0976
G01 X10.3546 Y0.1166
G01 X10.3453 Y0.1350
G01 X10.3347 Y0.1527
G01 X10.3249 Y0.1668
G01 X10.3142 Y0.1803
G01 X10.3028 Y0.1931
G01 X10.2906 Y0.2051
G01 X10.2776 Y0.2164
G01 X10.2640 Y0.2269
G01 X10.2498 Y0.2366
G01 X10.2350 Y0.2453
G01 X10.2197 Y0.2531
G01 X10.2040 Y0.2600
G01 X10.1878 Y0.2659
G01 X10.1714 Y0.2708
G01 X10.1546 Y0.2746
G01 X10.1377 Y0.2775
G01 X10.1206 Y0.2792
G01 X10.1034 Y0.2800
G01 X-0.0034 Y0.2800
G01 X-0.0309 Y0.2783
G01 X-0.0580 Y0.2739
G01 X-0.0846 Y0.2669
G01 X-0.1103 Y0.2574
G01 X-0.1350 Y0.2453
G01 X-0.1584 Y0.2309
G01 X-0.1803 Y0.2142
G01 X-0.2004 Y0.1955
G01 X-0.2186 Y0.1750
G01 X-0.2347 Y0.1527
G01 X-0.2485 Y0.1290
G01 X-0.2600 Y0.1040
G01 X-0.2679 Y0.0813
G01 X-0.2746 Y0.0546
G01 X-0.2787 Y0.0274
G01 X-0.2800 Y-0.0000
G00 Z2.0000
G00 X6.6999 Y-5.0800
G01 F70.00
G01 Z-0.0900
G01 F120.00
G01 X6.6980 Y-5.0005
G01 X6.6921 Y-4.9212
G01 X6.6824 Y-4.8423
G01 X6.6688 Y-4.7640
G01 X6.6514 Y-4.6864
G01 X6.6302 Y-4.6098
G01 X6.6052 Y-4.5343
G01 X6.5766 Y-4.4601
G01 X6.5444 Y-4.3874
G01 X6.5086 Y-4.3164
G01 X6.4694 Y-4.2472
G01 X6.4269 Y-4.1800
G01 X6.3811 Y-4.1150
G01 X6.3322 Y-4.0523
G01 X6.2803 Y-3.9921
G01 X6.2255 Y-3.9345
G01 X6.1679 Y-3.8797
G01 X6.1077 Y-3.8278
G01 X6.0450 Y-3.7789
G01 X5.9800 Y-3.7331
G01 X5.9128 Y-3.6906
G01 X5.8436 Y-3.6514
G01 X5.7726 Y-3.6156
G01 X5.6999 Y-3.5834
G01 X5.6257 Y-3.5548
G01 X5.5502 Y-3.5298
G01 X5.4736 Y-3.5086
G01 X5.3960 Y-3.4912
G01 X5.3177 Y-3.4776
G01 X5.2388 Y-3.4679
G01 X5.1595 Y-3.4620
G01 X5.0800 Y-3.4601
G01 X5.0005 Y-3.4620
G01 X4.9212 Y-3.4679
G01 X4.8423 Y-3.4776
G01 X4.7640 Y-3.4912
G01 X4.6864 Y-3.5086
G01 X4.6098 Y-3.5298
G01 X4.5343 Y-3.5548
G01 X4.4601 Y-3.5834
G01 X4.3874 Y-3.6156
G01 X4.3164 Y-3.6514
G01 X4.2472 Y-3.6906
G01 X4.1800 Y-3.7331
G01 X4.1150 Y-3.7789
G01 X4.0523 Y-3.8278
G01 X3.9921 Y-3.8797
G01 X3.9345 Y-3.9345
G01 X3.8797 Y-3.9921
G01 X3.8278 Y-4.0523
G01 X3.7789 Y-4.1150
G01 X3.7331 Y-4.1800
G01 X3.6906 Y-4.2472
G01 X3.6514 Y-4.3164
G01 X3.6156 Y-4.3874
G01 X3.5834 Y-4.4601
G01 X3.5548 Y-4.5343
G01 X3.5298 Y-4.6098
G01 X3.5086 Y-4.6864
G01 X3.4912 Y-4.7640
G01 X3.4776 Y-4.8423
G01 X3.4679 Y-4.9212
G01 X3.4620 Y-5.0005
G01 X3.4601 Y-5.0800
G01 X3.4620 Y-5.1595
G01 X3.4679 Y-5.2388
G01 X3.4776 Y-5.3177
G01 X3.4912 Y-5.3960
G01 X3.5086 Y-5.4736
G01 X3.5298 Y-5.5502
G01 X3.5548 Y-5.6257
G01 X3.5834 Y-5.6999
G01 X3.6156 Y-5.7726
G01 X3.6514 Y-5.8436
G01 X3.6906 Y-5.9128
G01 X3.7331 Y-5.9800
G01 X3.7789 Y-6.0450
G01 X3.8278 Y-6.1077
G01 X3.8797 Y-6.1679
G01 X3.9345 Y-6.2255
G01 X3.9921 Y-6.2803
G01 X4.0523 Y-6.3322
G01 X4.1150 Y-6.3811
G01 X4.1800 Y-6.4269
G01 X4.2472 Y-6.4694
G01 X4.3164 Y-6.5086
G01 X4.3874 Y-6.5444
G01 X4.4601 Y-6.5766
G01 X4.5343 Y-6.6052
G01 X4.6098 Y-6.6302
G01 X4.6864 Y-6.6514
G01 X4.7640 Y-6.6688
G01 X4.8423 Y-6.6824
G01 X4.9212 Y-6.6921
G01 X5.0005 Y-6.6980
G01 X5.0800 Y-6.6999
G01 X5.1595 Y-6.6980
G01 X5.2388 Y-6.6921
G01 X5.3177 Y-6.6824
G01 X5.3960 Y-6.6688
G01 X5.4736 Y-6.6514
G01 X5.5502 Y-6.6302
G01 X5.6257 Y-6.6052
G01 X5.6999 Y-6.5766
G01 X5.7726 Y-6.5444
G01 X5.8436 Y-6.5086
G01 X5.9128 Y-6.4694
G01 X5.9800 Y-6.4269
G01 X6.0450 Y-6.3811
G01 X6.1077 Y-6.3322
G01 X6.1679 Y-6.2803
G01 X6.2255 Y-6.2255
G01 X6.2803 Y-6.1679
G01 X6.3322 Y-6.1077
G01 X6.3811 Y-6.0450
G01 X6.4269 Y-5.9800
G01 X6.4694 Y-5.9128
G01 X6.5086 Y-5.8436
G01 X6.5444 Y-5.7726
G01 X6.5766 Y-5.6999
G01 X6.6052 Y-5.6257
G01 X6.6302 Y-5.5502
G01 X6.6514 Y-5.4736
G01 X6.6688 Y-5.3960
G01 X6.6824 Y-5.3177
G01 X6.6921 Y-5.2388
G01 X6.6980 Y-5.1595
G01 X6.6999 Y-5.0800
G00 Z2.0000
G00 X6.7699 Y-5.0800
G01 F70.00
G01 Z-0.0900
G01 F120.00
G01 X6.7679 Y-4.9971
G01 X6.7618 Y-4.9144
G01 X6.7516 Y-4.8320
G01 X6.7375 Y-4.7503
G01 X6.7193 Y-4.6694
G01 X6.6972 Y-4.5894
G01 X6.6712 Y-4.5107
G01 X6.6413 Y-4.4333
G01 X6.6077 Y-4.3575
G01 X6.5704 Y-4.2834
G01 X6.5295 Y-4.2112
G01 X6.4851 Y-4.1411
G01 X6.4374 Y-4.0733
G01 X6.3863 Y-4.0079
G01 X6.3322 Y-3.9451
G01 X6.2750 Y-3.8850
G01 X6.2149 Y-3.8278
G01 X6.1521 Y-3.7737
G01 X6.0867 Y-3.7226
G01 X6.0189 Y-3.6749
G01 X5.9488 Y-3.6305
G01 X5.8766 Y-3.5896
G01 X5.8025 Y-3.5523
G01 X5.7267 Y-3.5187
G01 X5.6493 Y-3.4888
G01 X5.5706 Y-3.4628
G01 X5.4906 Y-3.4407
G01 X5.4097 Y-3.4225
G01 X5.3280 Y-3.4084
G01 X5.2456 Y-3.3982
G01 X5.1629 Y-3.3921
G01 X5.0800 Y-3.3901
G01 X4.9971 Y-3.3921
G01 X4.9144 Y-3.3982
G01 X4.8320 Y-3.4084
G01 X4.7503 Y-3.4225
G01 X4.6694 Y-3.4407
G01 X4.5894 Y-3.4628
G01 X4.5107 Y-3.4888
G01 X4.4333 Y-3.5187
G01 X4.3575 Y-3.5523
G01 X4.2834 Y-3.5896
G01 X4.2112 Y-3.6305
G01 X4.1411 Y-3.6749
G01 X4.0733 Y-3.7226
G01 X4.0079 Y-3.7737
G01 X3.9451 Y-3.8278
G01 X3.8850 Y-3.8850
G01 X3.8278 Y-3.9451
G01 X3.7737 Y-4.0079
G01 X3.7226 Y-4.0733
G01 X3.6749 Y-4.1411
G01 X3.6305 Y-4.2112
G01 X3.5896 Y-4.2834
G01 X3.5523 Y-4.3575
G01 X3.5187 Y-4.4333
G01 X3.4888 Y-4.5107
G01 X3.4628 Y-4.5894
G01 X3.4407 Y-4.6694
G01 X3.4225 Y-4.7503
G01 X3.4084 Y-4.8320
G01 X3.3982 Y-4.9144
G01 X3.3921 Y-4.9971
G01 X3.3901 Y-5.0800
G01 X3.3921 Y-5.1629
G01 X3.3982 Y-5.2456
G01 X3.4084 Y-5.3280
G01 X3.4225 Y-5.4097
G01 X3.4407 Y-5.4906
G01 X3.4628 Y-5.5706
G01 X3.4888 Y-5.6493
G01 X3.5187 Y-5.7267
G01 X3.5523 Y-5.8025
G01 X3.5896 Y-5.8766
G01 X3.6305 Y-5.9488
G01 X3.6749 Y-6.0189
G01 X3.7226 Y-6.0867
G01 X3.7737 Y-6.1521
G01 X3.8278 Y-6.2149
G01 X3.8850 Y-6.2750
G01 X3.9451 Y-6.3322
G01 X4.0079 Y-6.3863
G01 X4.0733 Y-6.4374
G01 X4.1411 Y-6.4851
G01 X4.2112 Y-6.5295
G01 X4.2834 Y-6.5704
G01 X4.3575 Y-6.6077
G01 X4.4333 Y-6.6413
G01 X4.5107 Y-6.6712
G01 X4.5894 Y-6.6972
G01 X4.6694 Y-6.7193
G01 X4.7503 Y-6.7375
G01 X4.8320 Y-6.7516
G01 X4.9144 Y-6.7618
G01 X4.9971 Y-6.7679
G01 X5.0800 Y-6.7699
G01 X5.1629 Y-6.7679
G01 X5.2456 Y-6.7618
G01 X5.3280 Y-6.7516
G01 X5.4097 Y-6.7375
G01 X5.4906 Y-6.7193
G01 X5.5706 Y-6.6972
G01 X5.6493 Y-6.6712
G01 X5.7267 Y-6.6413
G01 X5.8025 Y-6.6077
G01 X5.8766 Y-6.5704
G01 X5.9488 Y-6.5295
G01 X6.0189 Y-6.4851
G01 X6.0867 Y-6.4374
G01 X6.1521 Y-6.3863
G01 X6.2149 Y-6.3322
G01 X6.2750 Y-6.2750
G01 X6.3322 Y-6.2149
G01 X6.3863 Y-6.1521
G01 X6.4374 Y-6.0867
G01 X6.4851 Y-6.0189
G01 X6.5295 Y-5.9488
G01 X6.5704 Y-5.8766
G01 X6.6077 Y-5.8025
G01 X6.6413 Y-5.7267
G01 X6.6712 Y-5.6493
G01 X6.6972 Y-5.5706
G01 X6.7193 Y-5.4906
G01 X6.7375 Y-5.4097
G01 X6.7516 Y-5.3280
G01 X6.7618 Y-5.2456
G01 X6.7679 Y-5.1629
G01 X6.7699 Y-5.0800
G00 Z2.0000
G00 X6.8400 Y-5.0800
G01 F70.00
G01 Z-0.0900
G01 F120.00
G01 X6.8378 Y-4.9936
G01 X6.8315 Y-4.9075
G01 X6.8209 Y-4.8218
G01 X6.8061 Y-4.7366
G01 X6.7872 Y-4.6524
G01 X6.7642 Y-4.5691
G01 X6.7371 Y-4.4871
G01 X6.7060 Y-4.4065
G01 X6.6710 Y-4.3275
G01 X6.6321 Y-4.2504
G01 X6.5896 Y-4.1752
G01 X6.5434 Y-4.1022
G01 X6.4936 Y-4.0316
G01 X6.4405 Y-3.9635
G01 X6.3840 Y-3.8981
G01 X6.3245 Y-3.8355
G01 X6.2619 Y-3.7760
G01 X6.1965 Y-3.7195
G01 X6.1284 Y-3.6664
G01 X6.0578 Y-3.6166
G01 X5.9848 Y-3.5704
G01 X5.9096 Y-3.5279
G01 X5.8325 Y-3.4890
G01 X5.7535 Y-3.4540
G01 X5.6729 Y-3.4229
G01 X5.5909 Y-3.3958
G01 X5.5076 Y-3.3728
G01 X5.4234 Y-3.3539
G01 X5.3382 Y-3.3391
G01 X5.2525 Y-3.3285
G01 X5.1664 Y-3.3222
G01 X5.0800 Y-3.3200
G01 X4.9936 Y-3.3222
G01 X4.9075 Y-3.3285
G01 X4.8218 Y-3.3391
G01 X4.7366 Y-3.3539
G01 X4.6524 Y-3.3728
G01 X4.5691 Y-3.3958
G01 X4.4871 Y-3.4229
G01 X4.4065 Y-3.4540
G01 X4.3275 Y-3.4890
G01 X4.2504 Y-3.5279
G01 X4.1752 Y-3.5704
G01 X4.1022 Y-3.6166
G01 X4.0316 Y-3.6664
G01 X3.9635 Y-3.7195
G01 X3.8981 Y-3.7760
G01 X3.8355 Y-3.8355
G01 X3.7760 Y-3.8981
G01 X3.7195 Y-3.9635
G01 X3.6664 Y-4.0316
G01 X3.6166 Y-4.1022
G01 X3.5704 Y-4.1752
G01 X3.5279 Y-4.2504
G01 X3.4890 Y-4.3275
G01 X3.4540 Y-4.4065
G01 X3.4229 Y-4.4871
G01 X3.3958 Y-4.5691
G01 X3.3728 Y-4.6524
G01 X3.3539 Y-4.7366
G01 X3.3391 Y-4.8218
G01 X3.3285 Y-4.9075
G01 X3.3222 Y-4.9936
G01 X3.3200 Y-5.0800
G01 X3.3222 Y-5.1664
G01 X3.3285 Y-5.2525
G01 X3.3391 Y-5.3382
G01 X3.3539 Y-5.4234
G01 X3.3728 Y-5.5076
G01 X3.3958 Y-5.5909
G01 X3.4229 Y-5.6729
G01 X3.4540 Y-5.7535
G01 X3.4890 Y-5.8325
G01 X3.5279 Y-5.9096
G01 X3.5704 Y-5.9848
G01 X3.6166 Y-6.0578
G01 X3.6664 Y-6.1284
G01 X3.7195 Y-6.1965
G01 X3.7760 Y-6.2619
G01 X3.8355 Y-6.3245
G01 X3.8981 Y-6.3840
G01 X3.9635 Y-6.4405
G01 X4.0316 Y-6.4936
G01 X4.1022 Y-6.5434
G01 X4.1752 Y-6.5896
G01 X4.2504 Y-6.6321
G01 X4.3275 Y-6.6710
G01 X4.4065 Y-6.7060
G01 X4.4871 Y-6.7371
G01 X4.5691 Y-6.7642
G01 X4.6524 Y-6.7872
G01 X4.7366 Y-6.8061
G01 X4.8218 Y-6.8209
G01 X4.9075 Y-6.8315
G01 X4.9936 Y-6.8378
G01 X5.0800 Y-6.8400
G01 X5.1664 Y-6.8378
G01 X5.2525 Y-6.8315
G01 X5.3382 Y-6.8209
G01 X5.4234 Y-6.8061
G01 X5.5076 Y-6.7872
G01 X5.5909 Y-6.7642
G01 X5.6729 Y-6.7371
G01 X5.7535 Y-6.7060
G01 X5.8325 Y-6.6710
G01 X5.9096 Y-6.6321
G01 X5.9848 Y-6.5896
G01 X6.0578 Y-6.5434
G01 X6.1284 Y-6.4936
G01 X6.1965 Y-6.4405
G01 X6.2619 Y-6.3840
G01 X6.3245 Y-6.3245
G01 X6.3840 Y-6.2619
G01 X6.4405 Y-6.1965
G01 X6.4936 Y-6.1284
G01 X6.5434 Y-6.0578
G01 X6.5896 Y-5.9848
G01 X6.6321 Y-5.9096
G01 X6.6710 Y-5.8325
G01 X6.7060 Y-5.7535
G01 X6.7371 Y-5.6729
G01 X6.7642 Y-5.5909
G01 X6.7872 Y-5.5076
G01 X6.8061 Y-5.4234
G01 X6.8209 Y-5.3382
G01 X6.8315 Y-5.2525
G01 X6.8378 Y-5.1664
G01 X6.8400 Y-5.0800
G00 Z2.0000
G00 X6.9100 Y-5.0800
G01 F70.00
G01 Z-0.0900
G01 F120.00
G01 X6.9078 Y-4.9902
G01 X6.9012 Y-4.9006
G01 X6.8902 Y-4.8115
G01 X6.8748 Y-4.7230
G01 X6.8551 Y-4.6354
G01 X6.8312 Y-4.5488
G01 X6.8030 Y-4.4635
G01 X6.7707 Y-4.3797
G01 X6.7343 Y-4.2976
G01 X6.6939 Y-4.2174
G01 X6.6496 Y-4.1392
G01 X6.6016 Y-4.0633
G01 X6.5499 Y-3.9899
G01 X6.4946 Y-3.9191
G01 X6.4359 Y-3.8511
G01 X6.3740 Y-3.7860
G01 X6.3089 Y-3.7241
G01 X6.2409 Y-3.6654
G01 X6.1701 Y-3.6101
G01 X6.0967 Y-3.5584
G01 X6.0208 Y-3.5104
G01 X5.9426 Y-3.4661
G01 X5.8624 Y-3.4257
G01 X5.7803 Y-3.3893
G01 X5.6965 Y-3.3570
G01 X5.6112 Y-3.3288
G01 X5.5246 Y-3.3049
G01 X5.4370 Y-3.2852
G01 X5.3485 Y-3.2698
G01 X5.2594 Y-3.2588
G01 X5.1698 Y-3.2522
G01 X5.0800 Y-3.2500
G01 X4.9902 Y-3.2522
G01 X4.9006 Y-3.2588
G01 X4.8115 Y-3.2698
G01 X4.7230 Y-3.2852
G01 X4.6354 Y-3.3049
G01 X4.5488 Y-3.3288
G01 X4.4635 Y-3.3570
G01 X4.3797 Y-3.3893
G01 X4.2976 Y-3.4257
G01 X4.2174 Y-3.4661
G01 X4.1392 Y-3.5104
G01 X4.0633 Y-3.5584
G01 X3.9899 Y-3.6101
G01 X3.9191 Y-3.6654
G01 X3.8511 Y-3.7241
G01 X3.7860 Y-3.7860
G01 X3.7241 Y-3.8511
G01 X3.6654 Y-3.9191
G01 X3.6101 Y-3.9899
G01 X3.5584 Y-4.0633
G01 X3.5104 Y-4.1392
G01 X3.4661 Y-4.2174
G01 X3.4257 Y-4.2976
G01 X3.3893 Y-4.3797
G01 X3.3570 Y-4.4635
G01 X3.3288 Y-4.5488
G01 X3.3049 Y-4.6354
G01 X3.2852 Y-4.7230
G01 X3.2698 Y-4.8115
G01 X3.2588 Y-4.9006
G01 X3.2522 Y-4.9902
G01 X3.2500 Y-5.0800
G01 X3.2522 Y-5.1698
G01 X3.2588 Y-5.2594
G01 X3.2698 Y-5.3485
G01 X3.2852 Y-5.4370
G01 X3.3049 Y-5.5246
G01 X3.3288 Y-5.6112
G01 X3.3570 Y-5.6965
G01 X3.3893 Y-5.7803
G01 X3.4257 Y-5.8624
G01 X3.4661 Y-5.9426
G01 X3.5104 Y-6.0208
G01 X3.5584 Y-6.0967
G01 X3.6101 Y-6.1701
G01 X3.6654 Y-6.2409
G01 X3.7241 Y-6.3089
G01 X3.7860 Y-6.3740
G01 X3.8511 Y-6.4359
G01 X3.9191 Y-6.4946
G01 X3.9899 Y-6.5499
G01 X4.0633 Y-6.6016
G01 X4.1392 Y-6.6496
G01 X4.2174 Y-6.6939
G01 X4.2976 Y-6.7343
G01 X4.3797 Y-6.7707
G01 X4.4635 Y-6.8030
G01 X4.5488 Y-6.8312
G01 X4.6354 Y-6.8551
G01 X4.7230 Y-6.8748
G01 X4.8115 Y-6.8902
G01 X4.9006 Y-6.9012
G01 X4.9902 Y-6.9078
G01 X5.0800 Y-6.9100
G01 X5.1698 Y-6.9078
G01 X5.2594 Y-6.9012
G01 X5.3485 Y-6.8902
G01 X5.4370 Y-6.8748
G01 X5.5246 Y-6.8551
G01 X5.6112 Y-6.8312
G01 X5.6965 Y-6.8030
G01 X5.7803 Y-6.7707
G01 X5.8624 Y-6.7343
G01 X5.9426 Y-6.6939
G01 X6.0208 Y-6.6496
G01 X6.0967 Y-6.6016
G01 X6.1701 Y-6.5499
G01 X6.2409 Y-6.4946
G01 X6.3089 Y-6.4359
G01 X6.3740 Y-6.3740
G01 X6.4359 Y-6.3089
G01 X6.4946 Y-6.2409
G01 X6.5499 Y-6.1701
G01 X6.6016 Y-6.0967
G01 X6.6496 Y-6.0208
G01 X6.6939 Y-5.9426
G01 X6.7343 Y-5.8624
G01 X6.7707 Y-5.7803
G01 X6.8030 Y-5.6965
G01 X6.8312 Y-5.6112
G01 X6.8551 Y-5.5246
G01 X6.8748 Y-5.4370
G01 X6.8902 Y-5.3485
G01 X6.9012 Y-5.2594
G01 X6.9078 Y-5.1698
G01 X6.9100 Y-5.0800
G00 Z2.0000
G00 X6.3220 Y-11.3882
G01 F70.00
G01 Z-0.0900
G01 F120.00
G01 X6.3365 Y-11.4536
G01 X6.3461 Y-11.5087
G01 X6.3500 Y-11.5387
G01 X6.3539 Y-11.5087
G01 X6.3635 Y-11.4536
G01 X6.3780 Y-11.3882
G01 X6.3500 Y-11.3897
G01 X6.3220 Y-11.3882
G00 Z2.0000
G00 X6.2205 Y-13.7000
G01 F70.00
G01 Z-0.0900
G01 F120.00
G01 X6.2205 Y-11.7000
G01 X6.2190 Y-11.6423
G01 X6.2146 Y-11.5848
G01 X6.2082 Y-11.5327
G01 X6.1992 Y-11.4809
G01 X6.1863 Y-11.4229
G01 X6.1714 Y-11.3689
G01 X6.1538 Y-11.3158
G01 X6.1323 Y-11.2604
G01 X6.1110 Y-11.2124
G01 X6.0874 Y-11.1654
G01 X6.0591 Y-11.1151
G01 X6.0283 Y-11.0664
G01 X5.9961 Y-11.0206
G01 X5.9616 Y-10.9765
G01 X5.9251 Y-10.9341
G01 X5.8865 Y-10.8935
G01 X5.8459 Y-10.8549
G01 X5.8035 Y-10.8184
G01 X5.7594 Y-10.7839
G01 X5.7136 Y-10.7517
G01 X5.6663 Y-10.7218
G01 X5.6176 Y-10.6942
G01 X5.5676 Y-10.6690
G01 X5.5165 Y-10.6463
G01 X5.4642 Y-10.6262
G01 X5.4111 Y-10.6086
G01 X5.3571 Y-10.5937
G01 X5.3025 Y-10.5814
G01 X5.2473 Y-10.5718
G01 X5.1918 Y-10.5650
G01 X5.1360 Y-10.5609
G01 X5.0800 Y-10.5595
G01 X5.0240 Y-10.5609
G01 X4.9682 Y-10.5650
G01 X4.9127 Y-10.5718
G01 X4.8575 Y-10.5814
G01 X4.8029 Y-10.5937
G01 X4.7489 Y-10.6086
G01 X4.6958 Y-10.6262
G01 X4.6435 Y-10.6463
G01 X4.5924 Y-10.6690
G01 X4.5424 Y-10.6942
G01 X4.4951 Y-10.7209
G01 X4.4464 Y-10.7517
G01 X4.3979 Y-10.7860
G01 X4.3565 Y-10.8184
G01 X4.3167 Y-10.8527
G01 X4.2760 Y-10.8911
G01 X4.2349 Y-10.9341
G01 X4.1984 Y-10.9765
G01 X4.1639 Y-11.0206
G01 X4.1298 Y-11.0693
G01 X4.1000 Y-11.1166
G01 X4.0742 Y-11.1624
G01 X4.0505 Y-11.2093
G01 X4.0263 Y-11.2635
G01 X4.0062 Y-11.3158
G01 X3.9886 Y-11.3689
G01 X3.9729 Y-11.4262
G01 X3.9614 Y-11.4775
G01 X3.9524 Y-11.5293
G01 X3.9452 Y-11.5865
G01 X3.9409 Y-11.6440
G01 X3.9395 Y-11.7000
G01 X3.9395 Y-13.7000
G01 X3.9410 Y-13.7577
G01 X3.9454 Y-13.8152
G01 X3.9518 Y-13.8673
G01 X3.9608 Y-13.9191
G01 X3.9737 Y-13.9771
G01 X3.9886 Y-14.0311
G01 X4.0062 Y-14.0842
G01 X4.0277 Y-14.1396
G01 X4.0490 Y-14.1876
G01 X4.0726 Y-14.2346
G01 X4.1009 Y-14.2849
G01 X4.1337 Y-14.3365
G01 X4.1639 Y-14.3794
G01 X4.1984 Y-14.4235
G01 X4.2349 Y-14.4659
G01 X4.2711 Y-14.5040
G01 X4.3167 Y-14.5473
G01 X4.3565 Y-14.5816
G01 X4.4006 Y-14.6161
G01 X4.4464 Y-14.6483
G01 X4.4907 Y-14.6764
G01 X4.5454 Y-14.7074
G01 X4.5924 Y-14.7310
G01 X4.6435 Y-14.7537
G01 X4.6958 Y-14.7738
G01 X4.7457 Y-14.7904
G01 X4.8062 Y-14.8071
G01 X4.8575 Y-14.8186
G01 X4.9127 Y-14.8282
G01 X4.9682 Y-14.8350
G01 X5.0206 Y-14.8389
G01 X5.0834 Y-14.8405
G01 X5.1360 Y-14.8391
G01 X5.1918 Y-14.8350
G01 X5.2473 Y-14.8282
G01 X5.2991 Y-14.8192
G01 X5.3604 Y-14.8054
G01 X5.4111 Y-14.7914
G01 X5.4642 Y-14.7738
G01 X5.5165 Y-14.7537
G01 X5.5645 Y-14.7324
G01 X5.6206 Y-14.7042
G01 X5.6663 Y-14.6782
G01 X5.7136 Y-14.6483
G01 X5.7594 Y-14.6161
G01 X5.8008 Y-14.5838
G01 X5.8484 Y-14.5427
G01 X5.8865 Y-14.5065
G01 X5.9251 Y-14.4659
G01 X5.9616 Y-14.4235
G01 X5.9940 Y-14.3821
G01 X6.0302 Y-14.3307
G01 X6.0582 Y-14.2863
G01 X6.0858 Y-14.2376
G01 X6.1110 Y-14.1876
G01 X6.1323 Y-14.1396
G01 X6.1549 Y-14.0810
G01 X6.1714 Y-14.0311
G01 X6.1863 Y-13.9771
G01 X6.1986 Y-13.9225
G01 X6.2076 Y-13.8707
G01 X6.2153 Y-13.8084
G01 X6.2191 Y-13.7560
G01 X6.2205 Y-13.7000
G00 Z2.0000
G00 X6.1505 Y-13.7000
G01 F70.00
G01 Z-0.0900
G01 F120.00
G01 X6.1505 Y-11.7000
G01 X6.1492 Y-11.6475
G01 X6.1453 Y-11.5951
G01 X6.1386 Y-11.5412
G01 X6.1296 Y-11.4895
G01 X6.1184 Y-11.4399
G01 X6.1049 Y-11.3909
G01 X6.0879 Y-11.3394
G01 X6.0690 Y-11.2903
G01 X6.0477 Y-11.2423
G01 X6.0241 Y-11.1954
G01 X5.9982 Y-11.1497
G01 X5.9701 Y-11.1053
G01 X5.9398 Y-11.0623
G01 X5.9075 Y-11.0209
G01 X5.8732 Y-10.9811
G01 X5.8370 Y-10.9430
G01 X5.7989 Y-10.9068
G01 X5.7591 Y-10.8725
G01 X5.7177 Y-10.8402
G01 X5.6747 Y-10.8099
G01 X5.6303 Y-10.7818
G01 X5.5846 Y-10.7559
G01 X5.5377 Y-10.7323
G01 X5.4897 Y-10.7110
G01 X5.4406 Y-10.6921
G01 X5.3907 Y-10.6756
G01 X5.3401 Y-10.6616
G01 X5.2888 Y-10.6501
G01 X5.2371 Y-10.6411
G01 X5.1849 Y-10.6347
G01 X5.1325 Y-10.6308
G01 X5.0800 Y-10.6295
G01 X5.0275 Y-10.6308
G01 X4.9751 Y-10.6347
G01 X4.9229 Y-10.6411
G01 X4.8712 Y-10.6501
G01 X4.8199 Y-10.6616
G01 X4.7693 Y-10.6756
G01 X4.7194 Y-10.6921
G01 X4.6703 Y-10.7110
G01 X4.6223 Y-10.7323
G01 X4.5754 Y-10.7559
G01 X4.5282 Y-10.7827
G01 X4.4853 Y-10.8099
G01 X4.4437 Y-10.8392
G01 X4.4009 Y-10.8725
G01 X4.3611 Y-10.9068
G01 X4.3230 Y-10.9430
G01 X4.2857 Y-10.9824
G01 X4.2514 Y-11.0222
G01 X4.2202 Y-11.0623
G01 X4.1909 Y-11.1038
G01 X4.1618 Y-11.1497
G01 X4.1359 Y-11.1954
G01 X4.1123 Y-11.2423
G01 X4.0903 Y-11.2919
G01 X4.0721 Y-11.3394
G01 X4.0561 Y-11.3876
G01 X4.0420 Y-11.4382
G01 X4.0301 Y-11.4912
G01 X4.0209 Y-11.5446
G01 X4.0147 Y-11.5951
G01 X4.0109 Y-11.6458
G01 X4.0095 Y-11.7000
G01 X4.0095 Y-13.7000
G01 X4.0108 Y-13.7525
G01 X4.0147 Y-13.8049
G01 X4.0214 Y-13.8588
G01 X4.0304 Y-13.9105
G01 X4.0416 Y-13.9601
G01 X4.0551 Y-14.0091
G01 X4.0721 Y-14.0606
G01 X4.0910 Y-14.1097
G01 X4.1123 Y-14.1577
G01 X4.1359 Y-14.2046
G01 X4.1618 Y-14.2503
G01 X4.1899 Y-14.2947
G01 X4.2202 Y-14.3377
G01 X4.2514 Y-14.3778
G01 X4.2880 Y-14.4202
G01 X4.3230 Y-14.4570
G01 X4.3611 Y-14.4932
G01 X4.4009 Y-14.5275
G01 X4.4409 Y-14.5588
G01 X4.4867 Y-14.5910
G01 X4.5297 Y-14.6182
G01 X4.5754 Y-14.6441
G01 X4.6223 Y-14.6677
G01 X4.6688 Y-14.6883
G01 X4.7210 Y-14.7085
G01 X4.7693 Y-14.7244
G01 X4.8199 Y-14.7384
G01 X4.8712 Y-14.7499
G01 X4.9212 Y-14.7586
G01 X4.9768 Y-14.7655
G01 X5.0275 Y-14.7692
G01 X5.0800 Y-14.7705
G01 X5.1325 Y-14.7692
G01 X5.1832 Y-14.7655
G01 X5.2388 Y-14.7586
G01 X5.2888 Y-14.7499
G01 X5.3401 Y-14.7384
G01 X5.3907 Y-14.7244
G01 X5.4406 Y-14.7079
G01 X5.4897 Y-14.6890
G01 X5.5361 Y-14.6684
G01 X5.5861 Y-14.6433
G01 X5.6303 Y-14.6182
G01 X5.6747 Y-14.5901
G01 X5.7177 Y-14.5598
G01 X5.7578 Y-14.5286
G01 X5.8002 Y-14.4920
G01 X5.8370 Y-14.4570
G01 X5.8732 Y-14.4189
G01 X5.9075 Y-14.3791
G01 X5.9388 Y-14.3391
G01 X5.9710 Y-14.2933
G01 X5.9982 Y-14.2503
G01 X6.0241 Y-14.2046
G01 X6.0477 Y-14.1577
G01 X6.0683 Y-14.1112
G01 X6.0885 Y-14.0590
G01 X6.1044 Y-14.0107
G01 X6.1184 Y-13.9601
G01 X6.1299 Y-13.9088
G01 X6.1386 Y-13.8588
G01 X6.1455 Y-13.8032
G01 X6.1492 Y-13.7525
G01 X6.1505 Y-13.7000
G00 Z2.0000
G00 X6.3780 Y-14.0118
G01 F70.00
G01 Z-0.0900
G01 F120.00
G01 X6.3635 Y-13.9464
G01 X6.3539 Y-13.8913
G01 X6.3500 Y-13.8613
G01 X6.3461 Y-13.8913
G01 X6.3365 Y-13.9464
G01 X6.3220 Y-14.0118
G01 X6.3500 Y-14.0103
G01 X6.3780 Y-14.0118
G00 Z2.0000
G00 X6.4904 Y-14.1341
G01 F70.00
G01 Z-0.0900
G01 F120.00
G01 X6.4794 Y-14.1054
G01 X6.4609 Y-14.0489
G01 X6.4458 Y-13.9941
G01 X6.4323 Y-13.9336
G01 X6.4226 Y-13.8776
G01 X6.4153 Y-13.8186
G01 X6.4110 Y-13.7594
G01 X6.4095 Y-13.7000
G01 X6.4095 Y-11.7000
G01 X6.4108 Y-11.6432
G01 X6.4153 Y-11.5814
G01 X6.4219 Y-11.5275
G01 X6.4333 Y-11.4613
G01 X6.4458 Y-11.4059
G01 X6.4609 Y-11.3511
G01 X6.4794 Y-11.2946
G01 X6.4904 Y-11.2659
G01 X6.4751 Y-11.2783
G01 X6.4602 Y-11.2884
G01 X6.4444 Y-11.2972
G01 X6.4256 Y-11.3056
G01 X6.4060 Y-11.3120
G01 X6.3884 Y-11.3161
G01 X6.3706 Y-11.3186
G01 X6.3500 Y-11.3197
G01 X6.3320 Y-11.3189
G01 X6.3116 Y-11.3161
G01 X6.2915 Y-11.3113
G01 X6.2744 Y-11.3056
G01 X6.2579 Y-11.2984
G01 X6.2398 Y-11.2884
G01 X6.2249 Y-11.2783
G01 X6.2096 Y-11.2659
G01 X6.2206 Y-11.2946
G01 X6.2391 Y-11.3511
G01 X6.2542 Y-11.4059
G01 X6.2677 Y-11.4664
G01 X6.2774 Y-11.5224
G01 X6.2847 Y-11.5814
G01 X6.2890 Y-11.6406
G01 X6.2905 Y-11.7000
G01 X6.2905 Y-13.7000
G01 X6.2892 Y-13.7568
G01 X6.2847 Y-13.8186
G01 X6.2781 Y-13.8725
G01 X6.2667 Y-13.9387
G01 X6.2542 Y-13.9941
G01 X6.2391 Y-14.0489
G01 X6.2206 Y-14.1054
G01 X6.2096 Y-14.1341
G01 X6.2249 Y-14.1217
G01 X6.2398 Y-14.1116
G01 X6.2556 Y-14.1028
G01 X6.2744 Y-14.0944
G01 X6.2940 Y-14.0880
G01 X6.3116 Y-14.0839
G01 X6.3294 Y-14.0814
G01 X6.3500 Y-14.0803
G01 X6.3680 Y-14.0811
G01 X6.3884 Y-14.0839
G01 X6.4085 Y-14.0887
G01 X6.4256 Y-14.0944
G01 X6.4421 Y-14.1016
G01 X6.4602 Y-14.1116
G01 X6.4751 Y-14.1217
G01 X6.4904 Y-14.1341
G00 Z2.0000
G00 X6.2860 Y-14.2620
G01 F70.00
G01 Z-0.0900
G01 F120.00
G01 X6.2943 Y-14.2480
G01 X6.3056 Y-14.2362
G01 X6.3193 Y-14.2274
G01 X6.3347 Y-14.2220
G01 X6.3509 Y-14.2204
G01 X6.3670 Y-14.2224
G01 X6.3752 Y-14.2250
G01 X6.3830 Y-14.2286
G01 X6.3964 Y-14.2379
G01 X6.4041 Y-14.2459
G01 X6.4105 Y-14.2551
G01 X6.4464 Y-14.3273
G01 X6.4786 Y-14.3841
G01 X6.5136 Y-14.4393
G01 X6.5512 Y-14.4927
G01 X6.5914 Y-14.5442
G01 X6.6340 Y-14.5936
G01 X6.6791 Y-14.6409
G01 X6.7264 Y-14.6860
G01 X6.7758 Y-14.7286
G01 X6.8273 Y-14.7688
G01 X6.8807 Y-14.8064
G01 X6.9359 Y-14.8414
G01 X6.9927 Y-14.8736
G01 X7.0511 Y-14.9029
G01 X7.1108 Y-14.9294
G01 X7.1717 Y-14.9529
G01 X7.2337 Y-14.9734
G01 X7.2967 Y-14.9908
G01 X7.3604 Y-15.0051
G01 X7.4247 Y-15.0163
G01 X7.4896 Y-15.0243
G01 X7.5547 Y-15.0291
G01 X7.6200 Y-15.0307
G01 X7.6853 Y-15.0291
G01 X7.7504 Y-15.0243
G01 X7.8153 Y-15.0163
G01 X7.8796 Y-15.0051
G01 X7.9433 Y-14.9908
G01 X8.0063 Y-14.9734
G01 X8.0683 Y-14.9529
G01 X8.1292 Y-14.9294
G01 X8.1889 Y-14.9029
G01 X8.2473 Y-14.8736
G01 X8.3041 Y-14.8414
G01 X8.3593 Y-14.8064
G01 X8.4127 Y-14.7688
G01 X8.4642 Y-14.7286
G01 X8.5136 Y-14.6860
G01 X8.5609 Y-14.6409
G01 X8.6060 Y-14.5936
G01 X8.6486 Y-14.5442
G01 X8.6888 Y-14.4927
G01 X8.7264 Y-14.4393
G01 X8.7614 Y-14.3841
G01 X8.7936 Y-14.3273
G01 X8.8229 Y-14.2689
G01 X8.8494 Y-14.2092
G01 X8.8729 Y-14.1483
G01 X8.8934 Y-14.0863
G01 X8.9108 Y-14.0233
G01 X8.9251 Y-13.9596
G01 X8.9363 Y-13.8953
G01 X8.9443 Y-13.8304
G01 X8.9491 Y-13.7653
G01 X8.9507 Y-13.6991
G01 X8.9507 Y-11.7009
G01 X8.9491 Y-11.6347
G01 X8.9443 Y-11.5696
G01 X8.9363 Y-11.5047
G01 X8.9251 Y-11.4404
G01 X8.9108 Y-11.3767
G01 X8.8934 Y-11.3137
G01 X8.8729 Y-11.2517
G01 X8.8494 Y-11.1908
G01 X8.8229 Y-11.1311
G01 X8.7936 Y-11.0727
G01 X8.7614 Y-11.0159
G01 X8.7264 Y-10.9607
G01 X8.6888 Y-10.9073
G01 X8.6486 Y-10.8558
G01 X8.6060 Y-10.8064
G01 X8.5609 Y-10.7591
G01 X8.5136 Y-10.7140
G01 X8.4642 Y-10.6714
G01 X8.4127 Y-10.6312
G01 X8.3593 Y-10.5936
G01 X8.3041 Y-10.5586
G01 X8.2473 Y-10.5264
G01 X8.1889 Y-10.4971
G01 X8.1292 Y-10.4706
G01 X8.0683 Y-10.4471
G01 X8.0063 Y-10.4266
G01 X7.9433 Y-10.4092
G01 X7.8796 Y-10.3949
G01 X7.8153 Y-10.3837
G01 X7.7504 Y-10.3757
G01 X7.6853 Y-10.3709
G01 X7.6200 Y-10.3693
G01 X7.5547 Y-10.3709
G01 X7.4896 Y-10.3757
G01 X7.4247 Y-10.3837
G01 X7.3604 Y-10.3949
G01 X7.2967 Y-10.4092
G01 X7.2337 Y-10.4266
G01 X7.1717 Y-10.4471
G01 X7.1108 Y-10.4706
G01 X7.0511 Y-10.4971
G01 X6.9927 Y-10.5264
G01 X6.9359 Y-10.5586
G01 X6.8807 Y-10.5936
G01 X6.8273 Y-10.6312
G01 X6.7758 Y-10.6714
G01 X6.7264 Y-10.7140
G01 X6.6791 Y-10.7591
G01 X6.6340 Y-10.8064
G01 X6.5914 Y-10.8558
G01 X6.5512 Y-10.9073
G01 X6.5136 Y-10.9607
G01 X6.4786 Y-11.0159
G01 X6.4464 Y-11.0727
G01 X6.4117 Y-11.1427
G01 X6.4036 Y-11.1547
G01 X6.3917 Y-11.1659
G01 X6.3776 Y-11.1740
G01 X6.3620 Y-11.1786
G01 X6.3457 Y-11.1795
G01 X6.3313 Y-11.1771
G01 X6.3170 Y-11.1714
G01 X6.3049 Y-11.1632
G01 X6.2948 Y-11.1527
G01 X6.2879 Y-11.1419
G01 X6.2536 Y-11.0727
G01 X6.2214 Y-11.0159
G01 X6.1864 Y-10.9607
G01 X6.1488 Y-10.9073
G01 X6.1086 Y-10.8558
G01 X6.0660 Y-10.8064
G01 X6.0209 Y-10.7591
G01 X5.9736 Y-10.7140
G01 X5.9242 Y-10.6714
G01 X5.8727 Y-10.6312
G01 X5.8193 Y-10.5936
G01 X5.7641 Y-10.5586
G01 X5.7073 Y-10.5264
G01 X5.6489 Y-10.4971
G01 X5.5892 Y-10.4706
G01 X5.5283 Y-10.4471
G01 X5.4663 Y-10.4266
G01 X5.4033 Y-10.4092
G01 X5.3396 Y-10.3949
G01 X5.2753 Y-10.3837
G01 X5.2104 Y-10.3757
G01 X5.1453 Y-10.3709
G01 X5.0800 Y-10.3693
G01 X5.0147 Y-10.3709
G01 X4.9496 Y-10.3757
G01 X4.8847 Y-10.3837
G01 X4.8204 Y-10.3949
G01 X4.7567 Y-10.4092
G01 X4.6937 Y-10.4266
G01 X4.6317 Y-10.4471
G01 X4.5708 Y-10.4706
G01 X4.5111 Y-10.4971
G01 X4.4527 Y-10.5264
G01 X4.3959 Y-10.5586
G01 X4.3407 Y-10.5936
G01 X4.2873 Y-10.6312
G01 X4.2358 Y-10.6714
G01 X4.1864 Y-10.7140
G01 X4.1391 Y-10.7591
G01 X4.0940 Y-10.8064
G01 X4.0514 Y-10.8558
G01 X4.0112 Y-10.9073
G01 X3.9736 Y-10.9607
G01 X3.9386 Y-11.0159
G01 X3.9064 Y-11.0727
G01 X3.8721 Y-11.1419
G01 X3.8657 Y-11.1520
G01 X3.8544 Y-11.1638
G01 X3.8474 Y-11.1688
G01 X3.8399 Y-11.1729
G01 X3.8320 Y-11.1761
G01 X3.8237 Y-11.1783
G01 X3.8074 Y-11.1796
G01 X3.7922 Y-11.1773
G01 X3.7778 Y-11.1718
G01 X3.7649 Y-11.1632
G01 X3.7543 Y-11.1520
G01 X3.7479 Y-11.1419
G01 X3.7136 Y-11.0727
G01 X3.6814 Y-11.0159
G01 X3.6464 Y-10.9607
G01 X3.6088 Y-10.9073
G01 X3.5686 Y-10.8558
G01 X3.5260 Y-10.8064
G01 X3.4809 Y-10.7591
G01 X3.4336 Y-10.7140
G01 X3.3842 Y-10.6714
G01 X3.3327 Y-10.6312
G01 X3.2793 Y-10.5936
G01 X3.2241 Y-10.5586
G01 X3.1673 Y-10.5264
G01 X3.1089 Y-10.4971
G01 X3.0492 Y-10.4706
G01 X2.9883 Y-10.4471
G01 X2.9263 Y-10.4266
G01 X2.8633 Y-10.4092
G01 X2.7996 Y-10.3949
G01 X2.7353 Y-10.3837
G01 X2.6704 Y-10.3757
G01 X2.6053 Y-10.3709
G01 X2.5400 Y-10.3693
G01 X2.4747 Y-10.3709
G01 X2.4096 Y-10.3757
G01 X2.3447 Y-10.3837
G01 X2.2804 Y-10.3949
G01 X2.2167 Y-10.4092
G01 X2.1537 Y-10.4266
G01 X2.0917 Y-10.4471
G01 X2.0308 Y-10.4706
G01 X1.9711 Y-10.4971
G01 X1.9127 Y-10.5264
G01 X1.8559 Y-10.5586
G01 X1.8007 Y-10.5936
G01 X1.7473 Y-10.6312
G01 X1.6958 Y-10.6714
G01 X1.6464 Y-10.7140
G01 X1.5991 Y-10.7591
G01 X1.5540 Y-10.8064
G01 X1.5114 Y-10.8558
G01 X1.4712 Y-10.9073
G01 X1.4336 Y-10.9607
G01 X1.3986 Y-11.0159
G01 X1.3664 Y-11.0727
G01 X1.3371 Y-11.1311
G01 X1.3106 Y-11.1908
G01 X1.2871 Y-11.2517
G01 X1.2666 Y-11.3137
G01 X1.2492 Y-11.3767
G01 X1.2349 Y-11.4404
G01 X1.2237 Y-11.5047
G01 X1.2157 Y-11.5696
G01 X1.2109 Y-11.6347
G01 X1.2093 Y-11.7009
G01 X1.2093 Y-13.6991
G01 X1.2109 Y-13.7653
G01 X1.2157 Y-13.8304
G01 X1.2237 Y-13.8953
G01 X1.2349 Y-13.9596
G01 X1.2492 Y-14.0233
G01 X1.2666 Y-14.0863
G01 X1.2871 Y-14.1483
G01 X1.3106 Y-14.2092
G01 X1.3371 Y-14.2689
G01 X1.3664 Y-14.3273
G01 X1.3986 Y-14.3841
G01 X1.4336 Y-14.4393
G01 X1.4712 Y-14.4927
G01 X1.5114 Y-14.5442
G01 X1.5540 Y-14.5936
G01 X1.5991 Y-14.6409
G01 X1.6464 Y-14.6860
G01 X1.6958 Y-14.7286
G01 X1.7473 Y-14.7688
G01 X1.8007 Y-14.8064
G01 X1.8559 Y-14.8414
G01 X1.9127 Y-14.8736
G01 X1.9711 Y-14.9029
G01 X2.0308 Y-14.9294
G01 X2.0917 Y-14.9529
G01 X2.1537 Y-14.9734
G01 X2.2167 Y-14.9908
G01 X2.2804 Y-15.0051
G01 X2.3447 Y-15.0163
G01 X2.4096 Y-15.0243
G01 X2.4747 Y-15.0291
G01 X2.5400 Y-15.0307
G01 X2.6053 Y-15.0291
G01 X2.6704 Y-15.0243
G01 X2.7353 Y-15.0163
G01 X2.7996 Y-15.0051
G01 X2.8633 Y-14.9908
G01 X2.9263 Y-14.9734
G01 X2.9883 Y-14.9529
G01 X3.0492 Y-14.9294
G01 X3.1089 Y-14.9029
G01 X3.1673 Y-14.8736
G01 X3.2241 Y-14.8414
G01 X3.2793 Y-14.8064
G01 X3.3327 Y-14.7688
G01 X3.3842 Y-14.7286
G01 X3.4336 Y-14.6860
G01 X3.4809 Y-14.6409
G01 X3.5260 Y-14.5936
G01 X3.5686 Y-14.5442
G01 X3.6088 Y-14.4927
G01 X3.6464 Y-14.4393
G01 X3.6814 Y-14.3841
G01 X3.7136 Y-14.3273
G01 X3.7483 Y-14.2573
G01 X3.7564 Y-14.2453
G01 X3.7683 Y-14.2341
G01 X3.7824 Y-14.2260
G01 X3.7980 Y-14.2214
G01 X3.8143 Y-14.2205
G01 X3.8295 Y-14.2231
G01 X3.8438 Y-14.2290
G01 X3.8557 Y-14.2373
G01 X3.8662 Y-14.2486
G01 X3.8721 Y-14.2581
G01 X3.9064 Y-14.3273
G01 X3.9386 Y-14.3841
G01 X3.9736 Y-14.4393
G01 X4.0112 Y-14.4927
G01 X4.0514 Y-14.5442
G01 X4.0940 Y-14.5936
G01 X4.1391 Y-14.6409
G01 X4.1864 Y-14.6860
G01 X4.2358 Y-14.7286
G01 X4.2873 Y-14.7688
G01 X4.3407 Y-14.8064
G01 X4.3959 Y-14.8414
G01 X4.4527 Y-14.8736
G01 X4.5111 Y-14.9029
G01 X4.5708 Y-14.9294
G01 X4.6317 Y-14.9529
G01 X4.6937 Y-14.9734
G01 X4.7567 Y-14.9908
G01 X4.8204 Y-15.0051
G01 X4.8847 Y-15.0163
G01 X4.9496 Y-15.0243
G01 X5.0147 Y-15.0291
G01 X5.0800 Y-15.0307
G01 X5.1453 Y-15.0291
G01 X5.2104 Y-15.0243
G01 X5.2753 Y-15.0163
G01 X5.3396 Y-15.0051
G01 X5.4033 Y-14.9908
G01 X5.4663 Y-14.9734
G01 X5.5283 Y-14.9529
G01 X5.5892 Y-14.9294
G01 X5.6489 Y-14.9029
G01 X5.7073 Y-14.8736
G01 X5.7641 Y-14.8414
G01 X5.8193 Y-14.8064
G01 X5.8727 Y-14.7688
G01 X5.9242 Y-14.7286
G01 X5.9736 Y-14.6860
G01 X6.0209 Y-14.6409
G01 X6.0660 Y-14.5936
G01 X6.1086 Y-14.5442
G01 X6.1488 Y-14.4927
G01 X6.1864 Y-14.4393
G01 X6.2214 Y-14.3841
G01 X6.2536 Y-14.3273
G01 X6.2860 Y-14.2620
G00 Z2.0000
G00 X6.2220 Y-14.2336
G01 F70.00
G01 Z-0.0900
G01 F120.00
G01 X6.2282 Y-14.2213
G01 X6.2365 Y-14.2083
G01 X6.2463 Y-14.1963
G01 X6.2560 Y-14.1866
G01 X6.2680 Y-14.1769
G01 X6.2795 Y-14.1694
G01 X6.2933 Y-14.1624
G01 X6.3061 Y-14.1574
G01 X6.3210 Y-14.1534
G01 X6.3346 Y-14.1512
G01 X6.3483 Y-14.1504
G01 X6.3637 Y-14.1510
G01 X6.3773 Y-14.1530
G01 X6.3906 Y-14.1564
G01 X6.4052 Y-14.1617
G01 X6.4175 Y-14.1677
G01 X6.4306 Y-14.1759
G01 X6.4427 Y-14.1855
G01 X6.4537 Y-14.1963
G01 X6.4645 Y-14.2097
G01 X6.4743 Y-14.2259
G01 X6.5082 Y-14.2943
G01 X6.5387 Y-14.3481
G01 X6.5718 Y-14.4004
G01 X6.6074 Y-14.4510
G01 X6.6455 Y-14.4998
G01 X6.6859 Y-14.5466
G01 X6.7286 Y-14.5914
G01 X6.7734 Y-14.6341
G01 X6.8202 Y-14.6745
G01 X6.8690 Y-14.7126
G01 X6.9196 Y-14.7482
G01 X6.9719 Y-14.7813
G01 X7.0257 Y-14.8118
G01 X7.0810 Y-14.8396
G01 X7.1376 Y-14.8647
G01 X7.1953 Y-14.8870
G01 X7.2541 Y-14.9064
G01 X7.3137 Y-14.9229
G01 X7.3741 Y-14.9364
G01 X7.4350 Y-14.9470
G01 X7.4964 Y-14.9546
G01 X7.5581 Y-14.9591
G01 X7.6200 Y-14.9607
G01 X7.6819 Y-14.9591
G01 X7.7436 Y-14.9546
G01 X7.8050 Y-14.9470
G01 X7.8659 Y-14.9364
G01 X7.9263 Y-14.9229
G01 X7.9859 Y-14.9064
G01 X8.0447 Y-14.8870
G01 X8.1024 Y-14.8647
G01 X8.1590 Y-14.8396
G01 X8.2143 Y-14.8118
G01 X8.2681 Y-14.7813
G01 X8.3204 Y-14.7482
G01 X8.3710 Y-14.7126
G01 X8.4198 Y-14.6745
G01 X8.4666 Y-14.6341
G01 X8.5114 Y-14.5914
G01 X8.5541 Y-14.5466
G01 X8.5945 Y-14.4998
G01 X8.6326 Y-14.4510
G01 X8.6682 Y-14.4004
G01 X8.7013 Y-14.3481
G01 X8.7318 Y-14.2943
G01 X8.7596 Y-14.2390
G01 X8.7847 Y-14.1824
G01 X8.8070 Y-14.1247
G01 X8.8264 Y-14.0659
G01 X8.8429 Y-14.0063
G01 X8.8564 Y-13.9459
G01 X8.8670 Y-13.8850
G01 X8.8746 Y-13.8236
G01 X8.8791 Y-13.7619
G01 X8.8807 Y-13.6983
G01 X8.8807 Y-11.7017
G01 X8.8791 Y-11.6381
G01 X8.8746 Y-11.5764
G01 X8.8670 Y-11.5150
G01 X8.8564 Y-11.4541
G01 X8.8429 Y-11.3937
G01 X8.8264 Y-11.3341
G01 X8.8070 Y-11.2753
G01 X8.7847 Y-11.2176
G01 X8.7596 Y-11.1610
G01 X8.7318 Y-11.1057
G01 X8.7013 Y-11.0519
G01 X8.6682 Y-10.9996
G01 X8.6326 Y-10.9490
G01 X8.5945 Y-10.9002
G01 X8.5541 Y-10.8534
G01 X8.5114 Y-10.8086
G01 X8.4666 Y-10.7659
G01 X8.4198 Y-10.7255
G01 X8.3710 Y-10.6874
G01 X8.3204 Y-10.6518
G01 X8.2681 Y-10.6187
G01 X8.2143 Y-10.5882
G01 X8.1590 Y-10.5604
G01 X8.1024 Y-10.5353
G01 X8.0447 Y-10.5130
G01 X7.9859 Y-10.4936
G01 X7.9263 Y-10.4771
G01 X7.8659 Y-10.4636
G01 X7.8050 Y-10.4530
G01 X7.7436 Y-10.4454
G01 X7.6819 Y-10.4409
G01 X7.6200 Y-10.4393
G01 X7.5581 Y-10.4409
G01 X7.4964 Y-10.4454
G01 X7.4350 Y-10.4530
G01 X7.3741 Y-10.4636
G01 X7.3137 Y-10.4771
G01 X7.2541 Y-10.4936
G01 X7.1953 Y-10.5130
G01 X7.1376 Y-10.5353
G01 X7.0810 Y-10.5604
G01 X7.0257 Y-10.5882
G01 X6.9719 Y-10.6187
G01 X6.9196 Y-10.6518
G01 X6.8690 Y-10.6874
G01 X6.8202 Y-10.7255
G01 X6.7734 Y-10.7659
G01 X6.7286 Y-10.8086
G01 X6.6859 Y-10.8534
G01 X6.6455 Y-10.9002
G01 X6.6074 Y-10.9490
G01 X6.5718 Y-10.9996
G01 X6.5387 Y-11.0519
G01 X6.5082 Y-11.1057
G01 X6.4718 Y-11.1787
G01 X6.4635 Y-11.1917
G01 X6.4537 Y-11.2037
G01 X6.4427 Y-11.2145
G01 X6.4306 Y-11.2241
G01 X6.4175 Y-11.2323
G01 X6.4020 Y-11.2396
G01 X6.3873 Y-11.2446
G01 X6.3722 Y-11.2479
G01 X6.3569 Y-11.2495
G01 X6.3414 Y-11.2494
G01 X6.3261 Y-11.2476
G01 X6.3127 Y-11.2446
G01 X6.2996 Y-11.2403
G01 X6.2871 Y-11.2347
G01 X6.2737 Y-11.2270
G01 X6.2625 Y-11.2190
G01 X6.2522 Y-11.2099
G01 X6.2429 Y-11.1998
G01 X6.2346 Y-11.1889
G01 X6.2274 Y-11.1772
G01 X6.1918 Y-11.1057
G01 X6.1613 Y-11.0519
G01 X6.1282 Y-10.9996
G01 X6.0926 Y-10.9490
G01 X6.0545 Y-10.9002
G01 X6.0141 Y-10.8534
G01 X5.9714 Y-10.8086
G01 X5.9266 Y-10.7659
G01 X5.8798 Y-10.7255
G01 X5.8310 Y-10.6874
G01 X5.7804 Y-10.6518
G01 X5.7281 Y-10.6187
G01 X5.6743 Y-10.5882
G01 X5.6190 Y-10.5604
G01 X5.5624 Y-10.5353
G01 X5.5047 Y-10.5130
G01 X5.4459 Y-10.4936
G01 X5.3863 Y-10.4771
G01 X5.3259 Y-10.4636
G01 X5.2650 Y-10.4530
G01 X5.2036 Y-10.4454
G01 X5.1419 Y-10.4409
G01 X5.0800 Y-10.4393
G01 X5.0181 Y-10.4409
G01 X4.9564 Y-10.4454
G01 X4.8950 Y-10.4530
G01 X4.8341 Y-10.4636
G01 X4.7737 Y-10.4771
G01 X4.7141 Y-10.4936
G01 X4.6553 Y-10.5130
G01 X4.5976 Y-10.5353
G01 X4.5410 Y-10.5604
G01 X4.4857 Y-10.5882
G01 X4.4319 Y-10.6187
G01 X4.3796 Y-10.6518
G01 X4.3290 Y-10.6874
G01 X4.2802 Y-10.7255
G01 X4.2334 Y-10.7659
G01 X4.1886 Y-10.8086
G01 X4.1459 Y-10.8534
G01 X4.1055 Y-10.9002
G01 X4.0674 Y-10.9490
G01 X4.0318 Y-10.9996
G01 X3.9987 Y-11.0519
G01 X3.9682 Y-11.1057
G01 X3.9318 Y-11.1787
G01 X3.9235 Y-11.1917
G01 X3.9126 Y-11.2049
G01 X3.9027 Y-11.2145
G01 X3.8906 Y-11.2241
G01 X3.8775 Y-11.2323
G01 X3.8636 Y-11.2390
G01 X3.8506 Y-11.2436
G01 X3.8356 Y-11.2473
G01 X3.8203 Y-11.2493
G01 X3.8048 Y-11.2496
G01 X3.7912 Y-11.2484
G01 X3.7760 Y-11.2455
G01 X3.7612 Y-11.2409
G01 X3.7486 Y-11.2355
G01 X3.7366 Y-11.2288
G01 X3.7239 Y-11.2200
G01 X3.7122 Y-11.2099
G01 X3.7029 Y-11.1998
G01 X3.6946 Y-11.1889
G01 X3.6874 Y-11.1772
G01 X3.6518 Y-11.1057
G01 X3.6213 Y-11.0519
G01 X3.5882 Y-10.9996
G01 X3.5526 Y-10.9490
G01 X3.5145 Y-10.9002
G01 X3.4741 Y-10.8534
G01 X3.4314 Y-10.8086
G01 X3.3866 Y-10.7659
G01 X3.3398 Y-10.7255
G01 X3.2910 Y-10.6874
G01 X3.2404 Y-10.6518
G01 X3.1881 Y-10.6187
G01 X3.1343 Y-10.5882
G01 X3.0790 Y-10.5604
G01 X3.0224 Y-10.5353
G01 X2.9647 Y-10.5130
G01 X2.9059 Y-10.4936
G01 X2.8463 Y-10.4771
G01 X2.7859 Y-10.4636
G01 X2.7250 Y-10.4530
G01 X2.6636 Y-10.4454
G01 X2.6019 Y-10.4409
G01 X2.5400 Y-10.4393
G01 X2.4781 Y-10.4409
G01 X2.4164 Y-10.4454
G01 X2.3550 Y-10.4530
G01 X2.2941 Y-10.4636
G01 X2.2337 Y-10.4771
G01 X2.1741 Y-10.4936
G01 X2.1153 Y-10.5130
G01 X2.0576 Y-10.5353
G01 X2.0010 Y-10.5604
G01 X1.9457 Y-10.5882
G01 X1.8919 Y-10.6187
G01 X1.8396 Y-10.6518
G01 X1.7890 Y-10.6874
G01 X1.7402 Y-10.7255
G01 X1.6934 Y-10.7659
G01 X1.6486 Y-10.8086
G01 X1.6059 Y-10.8534
G01 X1.5655 Y-10.9002
G01 X1.5274 Y-10.9490
G01 X1.4918 Y-10.9996
G01 X1.4587 Y-11.0519
G01 X1.4282 Y-11.1057
G01 X1.4004 Y-11.1610
G01 X1.3753 Y-11.2176
G01 X1.3530 Y-11.2753
G01 X1.3336 Y-11.3341
G01 X1.3171 Y-11.3937
G01 X1.3036 Y-11.4541
G01 X1.2930 Y-11.5150
G01 X1.2854 Y-11.5764
G01 X1.2809 Y-11.6381
G01 X1.2793 Y-11.7017
G01 X1.2793 Y-13.6983
G01 X1.2809 Y-13.7619
G01 X1.2854 Y-13.8236
G01 X1.2930 Y-13.8850
G01 X1.3036 Y-13.9459
G01 X1.3171 Y-14.0063
G01 X1.3336 Y-14.0659
G01 X1.3530 Y-14.1247
G01 X1.3753 Y-14.1824
G01 X1.4004 Y-14.2390
G01 X1.4282 Y-14.2943
G01 X1.4587 Y-14.3481
G01 X1.4918 Y-14.4004
G01 X1.5274 Y-14.4510
G01 X1.5655 Y-14.4998
G01 X1.6059 Y-14.5466
G01 X1.6486 Y-14.5914
G01 X1.6934 Y-14.6341
G01 X1.7402 Y-14.6745
G01 X1.7890 Y-14.7126
G01 X1.8396 Y-14.7482
G01 X1.8919 Y-14.7813
G01 X1.9457 Y-14.8118
G01 X2.0010 Y-14.8396
G01 X2.0576 Y-14.8647
G01 X2.1153 Y-14.8870
G01 X2.1741 Y-14.9064
G01 X2.2337 Y-14.9229
G01 X2.2941 Y-14.9364
G01 X2.3550 Y-14.9470
G01 X2.4164 Y-14.9546
G01 X2.4781 Y-14.9591
G01 X2.5400 Y-14.9607
G01 X2.6019 Y-14.9591
G01 X2.6636 Y-14.9546
G01 X2.7250 Y-14.9470
G01 X2.7859 Y-14.9364
G01 X2.8463 Y-14.9229
G01 X2.9059 Y-14.9064
G01 X2.9647 Y-14.8870
G01 X3.0224 Y-14.8647
G01 X3.0790 Y-14.8396
G01 X3.1343 Y-14.8118
G01 X3.1881 Y-14.7813
G01 X3.2404 Y-14.7482
G01 X3.2910 Y-14.7126
G01 X3.3398 Y-14.6745
G01 X3.3866 Y-14.6341
G01 X3.4314 Y-14.5914
G01 X3.4741 Y-14.5466
G01 X3.5145 Y-14.4998
G01 X3.5526 Y-14.4510
G01 X3.5882 Y-14.4004
G01 X3.6213 Y-14.3481
G01 X3.6518 Y-14.2943
G01 X3.6882 Y-14.2213
G01 X3.6965 Y-14.2083
G01 X3.7063 Y-14.1963
G01 X3.7173 Y-14.1855
G01 X3.7294 Y-14.1759
G01 X3.7425 Y-14.1677
G01 X3.7564 Y-14.1610
G01 X3.7710 Y-14.1559
G01 X3.7878 Y-14.1521
G01 X3.8031 Y-14.1505
G01 X3.8186 Y-14.1506
G01 X3.8322 Y-14.1521
G01 X3.8457 Y-14.1550
G01 X3.8588 Y-14.1591
G01 X3.8729 Y-14.1653
G01 X3.8849 Y-14.1721
G01 X3.8961 Y-14.1800
G01 X3.9078 Y-14.1901
G01 X3.9171 Y-14.2002
G01 X3.9254 Y-14.2111
G01 X3.9326 Y-14.2228
G01 X3.9682 Y-14.2943
G01 X3.9987 Y-14.3481
G01 X4.0318 Y-14.4004
G01 X4.0674 Y-14.4510
G01 X4.1055 Y-14.4998
G01 X4.1459 Y-14.5466
G01 X4.1886 Y-14.5914
G01 X4.2334 Y-14.6341
G01 X4.2802 Y-14.6745
G01 X4.3290 Y-14.7126
G01 X4.3796 Y-14.7482
G01 X4.4319 Y-14.7813
G01 X4.4857 Y-14.8118
G01 X4.5410 Y-14.8396
G01 X4.5976 Y-14.8647
G01 X4.6553 Y-14.8870
G01 X4.7141 Y-14.9064
G01 X4.7737 Y-14.9229
G01 X4.8341 Y-14.9364
G01 X4.8950 Y-14.9470
G01 X4.9564 Y-14.9546
G01 X5.0181 Y-14.9591
G01 X5.0800 Y-14.9607
G01 X5.1419 Y-14.9591
G01 X5.2036 Y-14.9546
G01 X5.2650 Y-14.9470
G01 X5.3259 Y-14.9364
G01 X5.3863 Y-14.9229
G01 X5.4459 Y-14.9064
G01 X5.5047 Y-14.8870
G01 X5.5624 Y-14.8647
G01 X5.6190 Y-14.8396
G01 X5.6743 Y-14.8118
G01 X5.7281 Y-14.7813
G01 X5.7804 Y-14.7482
G01 X5.8310 Y-14.7126
G01 X5.8798 Y-14.6745
G01 X5.9266 Y-14.6341
G01 X5.9714 Y-14.5914
G01 X6.0141 Y-14.5466
G01 X6.0545 Y-14.4998
G01 X6.0926 Y-14.4510
G01 X6.1282 Y-14.4004
G01 X6.1613 Y-14.3481
G01 X6.1918 Y-14.2943
G01 X6.2220 Y-14.2336
G00 Z2.0000
G00 X3.9504 Y-14.1341
G01 F70.00
G01 Z-0.0900
G01 F120.00
G01 X3.9394 Y-14.1054
G01 X3.9209 Y-14.0489
G01 X3.9058 Y-13.9941
G01 X3.8923 Y-13.9336
G01 X3.8826 Y-13.8776
G01 X3.8753 Y-13.8186
G01 X3.8710 Y-13.7594
G01 X3.8695 Y-13.7000
G01 X3.8695 Y-11.7000
G01 X3.8708 Y-11.6432
G01 X3.8753 Y-11.5814
G01 X3.8819 Y-11.5275
G01 X3.8933 Y-11.4613
G01 X3.9058 Y-11.4059
G01 X3.9209 Y-11.3511
G01 X3.9394 Y-11.2946
G01 X3.9504 Y-11.2659
G01 X3.9351 Y-11.2783
G01 X3.9202 Y-11.2884
G01 X3.9021 Y-11.2984
G01 X3.8856 Y-11.3056
G01 X3.8660 Y-11.3120
G01 X3.8484 Y-11.3161
G01 X3.8280 Y-11.3189
G01 X3.8100 Y-11.3197
G01 X3.7894 Y-11.3186
G01 X3.7716 Y-11.3161
G01 X3.7515 Y-11.3113
G01 X3.7344 Y-11.3056
G01 X3.7156 Y-11.2972
G01 X3.6998 Y-11.2884
G01 X3.6849 Y-11.2783
G01 X3.6696 Y-11.2659
G01 X3.6806 Y-11.2946
G01 X3.6991 Y-11.3511
G01 X3.7142 Y-11.4059
G01 X3.7277 Y-11.4664
G01 X3.7374 Y-11.5224
G01 X3.7447 Y-11.5814
G01 X3.7490 Y-11.6406
G01 X3.7505 Y-11.7000
G01 X3.7505 Y-13.7000
G01 X3.7492 Y-13.7568
G01 X3.7447 Y-13.8186
G01 X3.7381 Y-13.8725
G01 X3.7267 Y-13.9387
G01 X3.7142 Y-13.9941
G01 X3.6991 Y-14.0489
G01 X3.6806 Y-14.1054
G01 X3.6696 Y-14.1341
G01 X3.6849 Y-14.1217
G01 X3.6998 Y-14.1116
G01 X3.7179 Y-14.1016
G01 X3.7344 Y-14.0944
G01 X3.7540 Y-14.0880
G01 X3.7716 Y-14.0839
G01 X3.7920 Y-14.0811
G01 X3.8100 Y-14.0803
G01 X3.8306 Y-14.0814
G01 X3.8484 Y-14.0839
G01 X3.8685 Y-14.0887
G01 X3.8856 Y-14.0944
G01 X3.9044 Y-14.1028
G01 X3.9202 Y-14.1116
G01 X3.9351 Y-14.1217
G01 X3.9504 Y-14.1341
G00 Z2.0000
G00 X3.8380 Y-14.0118
G01 F70.00
G01 Z-0.0900
G01 F120.00
G01 X3.8235 Y-13.9464
G01 X3.8139 Y-13.8913
G01 X3.8100 Y-13.8613
G01 X3.8061 Y-13.8913
G01 X3.7965 Y-13.9464
G01 X3.7820 Y-14.0118
G01 X3.8100 Y-14.0103
G01 X3.8380 Y-14.0118
G00 Z2.0000
G00 X3.6805 Y-13.7000
G01 F70.00
G01 Z-0.0900
G01 F120.00
G01 X3.6805 Y-11.7000
G01 X3.6790 Y-11.6423
G01 X3.6746 Y-11.5848
G01 X3.6682 Y-11.5327
G01 X3.6592 Y-11.4809
G01 X3.6463 Y-11.4229
G01 X3.6314 Y-11.3689
G01 X3.6138 Y-11.3158
G01 X3.5923 Y-11.2604
G01 X3.5710 Y-11.2124
G01 X3.5474 Y-11.1654
G01 X3.5191 Y-11.1151
G01 X3.4883 Y-11.0664
G01 X3.4561 Y-11.0206
G01 X3.4216 Y-10.9765
G01 X3.3851 Y-10.9341
G01 X3.3465 Y-10.8935
G01 X3.3059 Y-10.8549
G01 X3.2635 Y-10.8184
G01 X3.2194 Y-10.7839
G01 X3.1736 Y-10.7517
G01 X3.1263 Y-10.7218
G01 X3.0776 Y-10.6942
G01 X3.0276 Y-10.6690
G01 X2.9765 Y-10.6463
G01 X2.9242 Y-10.6262
G01 X2.8711 Y-10.6086
G01 X2.8171 Y-10.5937
G01 X2.7625 Y-10.5814
G01 X2.7073 Y-10.5718
G01 X2.6518 Y-10.5650
G01 X2.5960 Y-10.5609
G01 X2.5400 Y-10.5595
G01 X2.4840 Y-10.5609
G01 X2.4282 Y-10.5650
G01 X2.3727 Y-10.5718
G01 X2.3175 Y-10.5814
G01 X2.2629 Y-10.5937
G01 X2.2089 Y-10.6086
G01 X2.1558 Y-10.6262
G01 X2.1035 Y-10.6463
G01 X2.0524 Y-10.6690
G01 X2.0024 Y-10.6942
G01 X1.9551 Y-10.7209
G01 X1.9064 Y-10.7517
G01 X1.8579 Y-10.7860
G01 X1.8165 Y-10.8184
G01 X1.7767 Y-10.8527
G01 X1.7360 Y-10.8911
G01 X1.6949 Y-10.9341
G01 X1.6584 Y-10.9765
G01 X1.6239 Y-11.0206
G01 X1.5898 Y-11.0693
G01 X1.5618 Y-11.1137
G01 X1.5358 Y-11.1594
G01 X1.5105 Y-11.2093
G01 X1.4863 Y-11.2635
G01 X1.4662 Y-11.3158
G01 X1.4486 Y-11.3689
G01 X1.4329 Y-11.4262
G01 X1.4214 Y-11.4775
G01 X1.4124 Y-11.5293
G01 X1.4052 Y-11.5865
G01 X1.4009 Y-11.6440
G01 X1.3995 Y-11.7000
G01 X1.3995 Y-13.7000
G01 X1.4010 Y-13.7577
G01 X1.4054 Y-13.8152
G01 X1.4118 Y-13.8673
G01 X1.4208 Y-13.9191
G01 X1.4337 Y-13.9771
G01 X1.4486 Y-14.0311
G01 X1.4662 Y-14.0842
G01 X1.4877 Y-14.1396
G01 X1.5090 Y-14.1876
G01 X1.5326 Y-14.2346
G01 X1.5609 Y-14.2849
G01 X1.5937 Y-14.3365
G01 X1.6239 Y-14.3794
G01 X1.6584 Y-14.4235
G01 X1.6949 Y-14.4659
G01 X1.7311 Y-14.5040
G01 X1.7767 Y-14.5473
G01 X1.8165 Y-14.5816
G01 X1.8606 Y-14.6161
G01 X1.9064 Y-14.6483
G01 X1.9507 Y-14.6764
G01 X2.0054 Y-14.7074
G01 X2.0524 Y-14.7310
G01 X2.1035 Y-14.7537
G01 X2.1558 Y-14.7738
G01 X2.2057 Y-14.7904
G01 X2.2662 Y-14.8071
G01 X2.3175 Y-14.8186
G01 X2.3727 Y-14.8282
G01 X2.4282 Y-14.8350
G01 X2.4806 Y-14.8389
G01 X2.5434 Y-14.8405
G01 X2.5960 Y-14.8391
G01 X2.6518 Y-14.8350
G01 X2.7073 Y-14.8282
G01 X2.7591 Y-14.8192
G01 X2.8204 Y-14.8054
G01 X2.8711 Y-14.7914
G01 X2.9242 Y-14.7738
G01 X2.9765 Y-14.7537
G01 X3.0245 Y-14.7324
G01 X3.0806 Y-14.7042
G01 X3.1263 Y-14.6782
G01 X3.1736 Y-14.6483
G01 X3.2194 Y-14.6161
G01 X3.2608 Y-14.5838
G01 X3.3084 Y-14.5427
G01 X3.3465 Y-14.5065
G01 X3.3851 Y-14.4659
G01 X3.4216 Y-14.4235
G01 X3.4540 Y-14.3821
G01 X3.4902 Y-14.3307
G01 X3.5182 Y-14.2863
G01 X3.5458 Y-14.2376
G01 X3.5710 Y-14.1876
G01 X3.5923 Y-14.1396
G01 X3.6149 Y-14.0810
G01 X3.6314 Y-14.0311
G01 X3.6463 Y-13.9771
G01 X3.6586 Y-13.9225
G01 X3.6676 Y-13.8707
G01 X3.6753 Y-13.8084
G01 X3.6791 Y-13.7560
G01 X3.6805 Y-13.7000
G00 Z2.0000
G00 X3.6105 Y-13.7000
G01 F70.00
G01 Z-0.0900
G01 F120.00
G01 X3.6105 Y-11.7000
G01 X3.6092 Y-11.6475
G01 X3.6053 Y-11.5951
G01 X3.5986 Y-11.5412
G01 X3.5899 Y-11.4912
G01 X3.5788 Y-11.4416
G01 X3.5649 Y-11.3909
G01 X3.5479 Y-11.3394
G01 X3.5290 Y-11.2903
G01 X3.5077 Y-11.2423
G01 X3.4841 Y-11.1954
G01 X3.4582 Y-11.1497
G01 X3.4301 Y-11.1053
G01 X3.3998 Y-11.0623
G01 X3.3675 Y-11.0209
G01 X3.3332 Y-10.9811
G01 X3.2970 Y-10.9430
G01 X3.2589 Y-10.9068
G01 X3.2191 Y-10.8725
G01 X3.1777 Y-10.8402
G01 X3.1347 Y-10.8099
G01 X3.0903 Y-10.7818
G01 X3.0446 Y-10.7559
G01 X2.9977 Y-10.7323
G01 X2.9497 Y-10.7110
G01 X2.9006 Y-10.6921
G01 X2.8507 Y-10.6756
G01 X2.8001 Y-10.6616
G01 X2.7488 Y-10.6501
G01 X2.6971 Y-10.6411
G01 X2.6449 Y-10.6347
G01 X2.5925 Y-10.6308
G01 X2.5400 Y-10.6295
G01 X2.4875 Y-10.6308
G01 X2.4351 Y-10.6347
G01 X2.3829 Y-10.6411
G01 X2.3312 Y-10.6501
G01 X2.2799 Y-10.6616
G01 X2.2293 Y-10.6756
G01 X2.1794 Y-10.6921
G01 X2.1303 Y-10.7110
G01 X2.0823 Y-10.7323
G01 X2.0354 Y-10.7559
G01 X1.9897 Y-10.7818
G01 X1.9438 Y-10.8109
G01 X1.9023 Y-10.8402
G01 X1.8622 Y-10.8714
G01 X1.8211 Y-10.9068
G01 X1.7830 Y-10.9430
G01 X1.7457 Y-10.9824
G01 X1.7125 Y-11.0209
G01 X1.6812 Y-11.0609
G01 X1.6509 Y-11.1038
G01 X1.6218 Y-11.1497
G01 X1.5959 Y-11.1954
G01 X1.5723 Y-11.2423
G01 X1.5503 Y-11.2919
G01 X1.5315 Y-11.3410
G01 X1.5156 Y-11.3893
G01 X1.5020 Y-11.4382
G01 X1.4901 Y-11.4912
G01 X1.4809 Y-11.5446
G01 X1.4747 Y-11.5951
G01 X1.4709 Y-11.6458
G01 X1.4695 Y-11.7000
G01 X1.4695 Y-13.7000
G01 X1.4708 Y-13.7525
G01 X1.4747 Y-13.8049
G01 X1.4814 Y-13.8588
G01 X1.4904 Y-13.9105
G01 X1.5016 Y-13.9601
G01 X1.5151 Y-14.0091
G01 X1.5321 Y-14.0606
G01 X1.5510 Y-14.1097
G01 X1.5723 Y-14.1577
G01 X1.5959 Y-14.2046
G01 X1.6218 Y-14.2503
G01 X1.6499 Y-14.2947
G01 X1.6802 Y-14.3377
G01 X1.7114 Y-14.3778
G01 X1.7480 Y-14.4202
G01 X1.7830 Y-14.4570
G01 X1.8211 Y-14.4932
G01 X1.8609 Y-14.5275
G01 X1.9009 Y-14.5588
G01 X1.9467 Y-14.5910
G01 X1.9897 Y-14.6182
G01 X2.0354 Y-14.6441
G01 X2.0823 Y-14.6677
G01 X2.1288 Y-14.6883
G01 X2.1810 Y-14.7085
G01 X2.2293 Y-14.7244
G01 X2.2799 Y-14.7384
G01 X2.3312 Y-14.7499
G01 X2.3812 Y-14.7586
G01 X2.4368 Y-14.7655
G01 X2.4875 Y-14.7692
G01 X2.5400 Y-14.7705
G01 X2.5925 Y-14.7692
G01 X2.6432 Y-14.7655
G01 X2.6988 Y-14.7586
G01 X2.7488 Y-14.7499
G01 X2.8001 Y-14.7384
G01 X2.8507 Y-14.7244
G01 X2.9006 Y-14.7079
G01 X2.9497 Y-14.6890
G01 X2.9961 Y-14.6684
G01 X3.0461 Y-14.6433
G01 X3.0903 Y-14.6182
G01 X3.1347 Y-14.5901
G01 X3.1777 Y-14.5598
G01 X3.2178 Y-14.5286
G01 X3.2602 Y-14.4920
G01 X3.2970 Y-14.4570
G01 X3.3332 Y-14.4189
G01 X3.3675 Y-14.3791
G01 X3.3988 Y-14.3391
G01 X3.4310 Y-14.2933
G01 X3.4582 Y-14.2503
G01 X3.4841 Y-14.2046
G01 X3.5077 Y-14.1577
G01 X3.5283 Y-14.1112
G01 X3.5485 Y-14.0590
G01 X3.5644 Y-14.0107
G01 X3.5784 Y-13.9601
G01 X3.5899 Y-13.9088
G01 X3.5986 Y-13.8588
G01 X3.6055 Y-13.8032
G01 X3.6092 Y-13.7525
G01 X3.6105 Y-13.7000
G00 Z2.0000
G00 X3.8100 Y-11.5387
G01 F70.00
G01 Z-0.0900
G01 F120.00
G01 X3.8139 Y-11.5087
G01 X3.8235 Y-11.4536
G01 X3.8380 Y-11.3882
G01 X3.8100 Y-11.3897
G01 X3.7820 Y-11.3882
G01 X3.7965 Y-11.4536
G01 X3.8061 Y-11.5087
G01 X3.8100 Y-11.5387
G00 Z2.0000
G00 X8.6905 Y-13.7000
G01 F70.00
G01 Z-0.0900
G01 F120.00
G01 X8.6905 Y-11.7000
G01 X8.6892 Y-11.6475
G01 X8.6853 Y-11.5951
G01 X8.6789 Y-11.5429
G01 X8.6699 Y-11.4912
G01 X8.6580 Y-11.4382
G01 X8.6444 Y-11.3893
G01 X8.6285 Y-11.3410
G01 X8.6097 Y-11.2919
G01 X8.5877 Y-11.2423
G01 X8.5641 Y-11.1954
G01 X8.5382 Y-11.1497
G01 X8.5101 Y-11.1053
G01 X8.4798 Y-11.0623
G01 X8.4475 Y-11.0209
G01 X8.4132 Y-10.9811
G01 X8.3770 Y-10.9430
G01 X8.3389 Y-10.9068
G01 X8.2991 Y-10.8725
G01 X8.2577 Y-10.8402
G01 X8.2147 Y-10.8099
G01 X8.1703 Y-10.7818
G01 X8.1246 Y-10.7559
G01 X8.0777 Y-10.7323
G01 X8.0297 Y-10.7110
G01 X7.9806 Y-10.6921
G01 X7.9307 Y-10.6756
G01 X7.8801 Y-10.6616
G01 X7.8288 Y-10.6501
G01 X7.7771 Y-10.6411
G01 X7.7249 Y-10.6347
G01 X7.6725 Y-10.6308
G01 X7.6200 Y-10.6295
G01 X7.5675 Y-10.6308
G01 X7.5151 Y-10.6347
G01 X7.4629 Y-10.6411
G01 X7.4112 Y-10.6501
G01 X7.3599 Y-10.6616
G01 X7.3093 Y-10.6756
G01 X7.2594 Y-10.6921
G01 X7.2103 Y-10.7110
G01 X7.1623 Y-10.7323
G01 X7.1154 Y-10.7559
G01 X7.0682 Y-10.7827
G01 X7.0253 Y-10.8099
G01 X6.9837 Y-10.8392
G01 X6.9409 Y-10.8725
G01 X6.9011 Y-10.9068
G01 X6.8630 Y-10.9430
G01 X6.8257 Y-10.9824
G01 X6.7914 Y-11.0222
G01 X6.7602 Y-11.0623
G01 X6.7309 Y-11.1038
G01 X6.7018 Y-11.1497
G01 X6.6759 Y-11.1954
G01 X6.6523 Y-11.2423
G01 X6.6303 Y-11.2919
G01 X6.6121 Y-11.3394
G01 X6.5961 Y-11.3876
G01 X6.5820 Y-11.4382
G01 X6.5701 Y-11.4912
G01 X6.5609 Y-11.5446
G01 X6.5547 Y-11.5951
G01 X6.5509 Y-11.6458
G01 X6.5495 Y-11.7000
G01 X6.5495 Y-13.7000
G01 X6.5508 Y-13.7525
G01 X6.5547 Y-13.8049
G01 X6.5614 Y-13.8588
G01 X6.5704 Y-13.9105
G01 X6.5816 Y-13.9601
G01 X6.5951 Y-14.0091
G01 X6.6121 Y-14.0606
G01 X6.6310 Y-14.1097
G01 X6.6523 Y-14.1577
G01 X6.6759 Y-14.2046
G01 X6.7018 Y-14.2503
G01 X6.7299 Y-14.2947
G01 X6.7602 Y-14.3377
G01 X6.7914 Y-14.3778
G01 X6.8280 Y-14.4202
G01 X6.8630 Y-14.4570
G01 X6.9011 Y-14.4932
G01 X6.9409 Y-14.5275
G01 X6.9809 Y-14.5588
G01 X7.0267 Y-14.5910
G01 X7.0697 Y-14.6182
G01 X7.1154 Y-14.6441
G01 X7.1623 Y-14.6677
G01 X7.2088 Y-14.6883
G01 X7.2610 Y-14.7085
G01 X7.3093 Y-14.7244
G01 X7.3599 Y-14.7384
G01 X7.4112 Y-14.7499
G01 X7.4612 Y-14.7586
G01 X7.5168 Y-14.7655
G01 X7.5675 Y-14.7692
G01 X7.6200 Y-14.7705
G01 X7.6725 Y-14.7692
G01 X7.7232 Y-14.7655
G01 X7.7788 Y-14.7586
G01 X7.8288 Y-14.7499
G01 X7.8801 Y-14.7384
G01 X7.9307 Y-14.7244
G01 X7.9806 Y-14.7079
G01 X8.0297 Y-14.6890
G01 X8.0761 Y-14.6684
G01 X8.1261 Y-14.6433
G01 X8.1703 Y-14.6182
G01 X8.2147 Y-14.5901
G01 X8.2577 Y-14.5598
G01 X8.2978 Y-14.5286
G01 X8.3402 Y-14.4920
G01 X8.3770 Y-14.4570
G01 X8.4132 Y-14.4189
G01 X8.4475 Y-14.3791
G01 X8.4788 Y-14.3391
G01 X8.5110 Y-14.2933
G01 X8.5382 Y-14.2503
G01 X8.5641 Y-14.2046
G01 X8.5877 Y-14.1577
G01 X8.6083 Y-14.1112
G01 X8.6285 Y-14.0590
G01 X8.6444 Y-14.0107
G01 X8.6584 Y-13.9601
G01 X8.6699 Y-13.9088
G01 X8.6786 Y-13.8588
G01 X8.6855 Y-13.8032
G01 X8.6892 Y-13.7525
G01 X8.6905 Y-13.7000
G00 Z2.0000
G00 X8.7605 Y-13.7000
G01 F70.00
G01 Z-0.0900
G01 F120.00
G01 X8.7605 Y-11.7000
G01 X8.7590 Y-11.6423
G01 X8.7546 Y-11.5848
G01 X8.7482 Y-11.5327
G01 X8.7392 Y-11.4809
G01 X8.7263 Y-11.4229
G01 X8.7114 Y-11.3689
G01 X8.6938 Y-11.3158
G01 X8.6723 Y-11.2604
G01 X8.6510 Y-11.2124
G01 X8.6274 Y-11.1654
G01 X8.5991 Y-11.1151
G01 X8.5683 Y-11.0664
G01 X8.5361 Y-11.0206
G01 X8.5016 Y-10.9765
G01 X8.4651 Y-10.9341
G01 X8.4265 Y-10.8935
G01 X8.3859 Y-10.8549
G01 X8.3435 Y-10.8184
G01 X8.2994 Y-10.7839
G01 X8.2536 Y-10.7517
G01 X8.2063 Y-10.7218
G01 X8.1576 Y-10.6942
G01 X8.1076 Y-10.6690
G01 X8.0565 Y-10.6463
G01 X8.0042 Y-10.6262
G01 X7.9511 Y-10.6086
G01 X7.8971 Y-10.5937
G01 X7.8425 Y-10.5814
G01 X7.7873 Y-10.5718
G01 X7.7318 Y-10.5650
G01 X7.6760 Y-10.5609
G01 X7.6200 Y-10.5595
G01 X7.5640 Y-10.5609
G01 X7.5082 Y-10.5650
G01 X7.4527 Y-10.5718
G01 X7.3975 Y-10.5814
G01 X7.3429 Y-10.5937
G01 X7.2889 Y-10.6086
G01 X7.2358 Y-10.6262
G01 X7.1835 Y-10.6463
G01 X7.1324 Y-10.6690
G01 X7.0824 Y-10.6942
G01 X7.0351 Y-10.7209
G01 X6.9864 Y-10.7517
G01 X6.9379 Y-10.7860
G01 X6.8965 Y-10.8184
G01 X6.8567 Y-10.8527
G01 X6.8160 Y-10.8911
G01 X6.7749 Y-10.9341
G01 X6.7384 Y-10.9765
G01 X6.7039 Y-11.0206
G01 X6.6698 Y-11.0693
G01 X6.6400 Y-11.1166
G01 X6.6142 Y-11.1624
G01 X6.5905 Y-11.2093
G01 X6.5663 Y-11.2635
G01 X6.5462 Y-11.3158
G01 X6.5286 Y-11.3689
G01 X6.5129 Y-11.4262
G01 X6.5014 Y-11.4775
G01 X6.4924 Y-11.5293
G01 X6.4852 Y-11.5865
G01 X6.4809 Y-11.6440
G01 X6.4795 Y-11.7000
G01 X6.4795 Y-13.7000
G01 X6.4810 Y-13.7577
G01 X6.4854 Y-13.8152
G01 X6.4918 Y-13.8673
G01 X6.5008 Y-13.9191
G01 X6.5137 Y-13.9771
G01 X6.5286 Y-14.0311
G01 X6.5462 Y-14.0842
G01 X6.5677 Y-14.1396
G01 X6.5890 Y-14.1876
G01 X6.6126 Y-14.2346
G01 X6.6409 Y-14.2849
G01 X6.6737 Y-14.3365
G01 X6.7039 Y-14.3794
G01 X6.7384 Y-14.4235
G01 X6.7749 Y-14.4659
G01 X6.8111 Y-14.5040
G01 X6.8567 Y-14.5473
G01 X6.8965 Y-14.5816
G01 X6.9406 Y-14.6161
G01 X6.9864 Y-14.6483
G01 X7.0307 Y-14.6764
G01 X7.0854 Y-14.7074
G01 X7.1324 Y-14.7310
G01 X7.1835 Y-14.7537
G01 X7.2358 Y-14.7738
G01 X7.2857 Y-14.7904
G01 X7.3462 Y-14.8071
G01 X7.3975 Y-14.8186
G01 X7.4527 Y-14.8282
G01 X7.5082 Y-14.8350
G01 X7.5606 Y-14.8389
G01 X7.6234 Y-14.8405
G01 X7.6760 Y-14.8391
G01 X7.7318 Y-14.8350
G01 X7.7873 Y-14.8282
G01 X7.8391 Y-14.8192
G01 X7.9004 Y-14.8054
G01 X7.9511 Y-14.7914
G01 X8.0042 Y-14.7738
G01 X8.0565 Y-14.7537
G01 X8.1045 Y-14.7324
G01 X8.1606 Y-14.7042
G01 X8.2063 Y-14.6782
G01 X8.2536 Y-14.6483
G01 X8.2994 Y-14.6161
G01 X8.3408 Y-14.5838
G01 X8.3884 Y-14.5427
G01 X8.4265 Y-14.5065
G01 X8.4651 Y-14.4659
G01 X8.5016 Y-14.4235
G01 X8.5340 Y-14.3821
G01 X8.5702 Y-14.3307
G01 X8.5982 Y-14.2863
G01 X8.6258 Y-14.2376
G01 X8.6510 Y-14.1876
G01 X8.6723 Y-14.1396
G01 X8.6949 Y-14.0810
G01 X8.7114 Y-14.0311
G01 X8.7263 Y-13.9771
G01 X8.7386 Y-13.9225
G01 X8.7476 Y-13.8707
G01 X8.7553 Y-13.8084
G01 X8.7591 Y-13.7560
G01 X8.7605 Y-13.7000
G00 Z2.0000
M05
G00 Z2.0000
G00 Z25.00

