(G-CODE GENERATED BY FLATCAM v8.993 - www.flatcam.org - Version Date: 2020/06/05)

(Name: TL431_Ф2_низ.gbr_iso_combined_cnc)
(Type: G-code from Geometry)
(Units: MM)

(Created on Friday, 06 November 2020 at 01:11)

(This preprocessor is the default preprocessor used by FlatCAM.)
(It is made to work with MACH3 compatible motion controllers.)

(TOOL DIAMETER: 0.14 mm)
(Feedrate_XY: 120.0 mm/min)
(Feedrate_Z: 70.0 mm/min)
(Feedrate rapids 1500.0 mm/min)

(Z_Cut: -0.06 mm)
(Z_Move: 2.0 mm)
(Z Start: None mm)
(Z End: 25.0 mm)
(Steps per circle: 128)
(Preprocessor Geometry: default)

(X range:   -8.8500 ...   -1.3100  mm)
(Y range:  -14.0107 ...   -1.6000  mm)

(Spindle Speed: 10000 RPM)
G21
G90
G94



G01 F120.00
G00 Z2.0000

M03 S10000
G00 X-4.4806 Y-1.7400
G01 F70.00
G01 Z-0.0600
G01 F120.00
G01 X-4.3800 Y-1.7400
G01 X-4.3794 Y-1.7550
G01 X-4.3777 Y-1.7704
G01 X-4.3717 Y-1.7981
G01 X-4.3668 Y-1.8128
G01 X-4.3609 Y-1.8270
G01 X-4.3474 Y-1.8519
G01 X-4.3387 Y-1.8647
G01 X-4.3290 Y-1.8768
G01 X-4.3091 Y-1.8969
G01 X-4.2972 Y-1.9067
G01 X-4.2845 Y-1.9156
G01 X-4.2713 Y-1.9236
G01 X-4.2590 Y-1.9298
G01 X-4.3600 Y-1.9298
G01 X-4.3606 Y-1.9146
G01 X-4.3623 Y-1.8992
G01 X-4.3683 Y-1.8715
G01 X-4.3732 Y-1.8568
G01 X-4.3791 Y-1.8425
G01 X-4.3926 Y-1.8177
G01 X-4.4093 Y-1.7948
G01 X-4.4197 Y-1.7833
G01 X-4.4309 Y-1.7727
G01 X-4.4428 Y-1.7629
G01 X-4.4555 Y-1.7540
G01 X-4.4806 Y-1.7400
G00 Z2.0000
G00 X-5.7800 Y-1.8406
G01 F70.00
G01 Z-0.0600
G01 F120.00
G01 X-5.7800 Y-1.7400
G01 X-5.6794 Y-1.7400
G01 X-5.6957 Y-1.7486
G01 X-5.7109 Y-1.7583
G01 X-5.7252 Y-1.7693
G01 X-5.7385 Y-1.7815
G01 X-5.7507 Y-1.7948
G01 X-5.7617 Y-1.8091
G01 X-5.7714 Y-1.8243
G01 X-5.7800 Y-1.8406
G00 Z2.0000
G00 X-5.5900 Y-3.2200
G01 F70.00
G01 Z-0.0600
G01 F120.00
G01 X-4.5700 Y-3.2200
G01 X-4.5606 Y-3.2194
G01 X-4.5513 Y-3.2175
G01 X-4.5416 Y-3.2140
G01 X-4.5326 Y-3.2091
G01 X-4.5243 Y-3.2030
G01 X-4.5176 Y-3.1964
G01 X-4.5113 Y-3.1882
G01 X-4.5064 Y-3.1791
G01 X-4.5028 Y-3.1695
G01 X-4.5008 Y-3.1603
G01 X-4.5000 Y-3.1509
G01 X-4.5000 Y-3.0102
G01 X-4.0048 Y-3.0102
G01 X-3.0102 Y-4.0048
G01 X-3.0102 Y-6.7307
G01 X-3.4400 Y-6.7307
G01 X-3.4494 Y-6.7313
G01 X-3.4620 Y-6.7342
G01 X-3.4738 Y-6.7394
G01 X-3.4844 Y-6.7466
G01 X-3.4930 Y-6.7550
G01 X-3.5005 Y-6.7655
G01 X-3.5056 Y-6.7763
G01 X-3.5088 Y-6.7879
G01 X-3.5100 Y-6.8007
G01 X-3.5100 Y-8.6007
G01 X-3.5094 Y-8.6101
G01 X-3.5077 Y-8.6185
G01 X-3.5043 Y-8.6283
G01 X-3.4991 Y-8.6381
G01 X-3.4930 Y-8.6464
G01 X-3.4857 Y-8.6537
G01 X-3.4774 Y-8.6598
G01 X-3.4684 Y-8.6647
G01 X-3.4587 Y-8.6682
G01 X-3.4477 Y-8.6703
G01 X-3.0102 Y-8.6707
G01 X-3.0102 Y-11.8107
G01 X-3.4477 Y-11.8111
G01 X-3.4578 Y-11.8130
G01 X-3.4676 Y-11.8164
G01 X-3.4767 Y-11.8211
G01 X-3.4857 Y-11.8277
G01 X-3.4936 Y-11.8356
G01 X-3.4996 Y-11.8440
G01 X-3.5043 Y-11.8531
G01 X-3.5077 Y-11.8629
G01 X-3.5095 Y-11.8721
G01 X-3.5100 Y-11.8807
G01 X-3.5100 Y-13.6807
G01 X-3.5092 Y-13.6910
G01 X-3.5065 Y-13.7027
G01 X-3.5017 Y-13.7137
G01 X-3.4947 Y-13.7244
G01 X-3.4864 Y-13.7331
G01 X-3.4760 Y-13.7407
G01 X-3.4652 Y-13.7460
G01 X-3.4537 Y-13.7494
G01 X-3.4417 Y-13.7507
G01 X-1.6400 Y-13.7507
G01 X-1.6272 Y-13.7495
G01 X-1.6156 Y-13.7463
G01 X-1.6062 Y-13.7420
G01 X-1.5976 Y-13.7364
G01 X-1.5899 Y-13.7296
G01 X-1.5833 Y-13.7217
G01 X-1.5779 Y-13.7129
G01 X-1.5738 Y-13.7035
G01 X-1.5710 Y-13.6927
G01 X-1.5700 Y-13.6824
G01 X-1.5700 Y-11.8807
G01 X-1.5719 Y-11.8645
G01 X-1.5753 Y-11.8539
G01 X-1.5800 Y-11.8447
G01 X-1.5864 Y-11.8356
G01 X-1.5936 Y-11.8283
G01 X-1.6026 Y-11.8216
G01 X-1.6116 Y-11.8167
G01 X-1.6213 Y-11.8132
G01 X-1.6323 Y-11.8111
G01 X-2.0698 Y-11.8107
G01 X-2.0698 Y-8.6707
G01 X-1.6323 Y-8.6703
G01 X-1.6222 Y-8.6684
G01 X-1.6124 Y-8.6650
G01 X-1.6033 Y-8.6603
G01 X-1.5943 Y-8.6537
G01 X-1.5870 Y-8.6464
G01 X-1.5804 Y-8.6374
G01 X-1.5757 Y-8.6283
G01 X-1.5723 Y-8.6185
G01 X-1.5706 Y-8.6101
G01 X-1.5700 Y-8.6007
G01 X-1.5701 Y-6.7973
G01 X-1.5717 Y-6.7854
G01 X-1.5753 Y-6.7739
G01 X-1.5809 Y-6.7633
G01 X-1.5881 Y-6.7537
G01 X-1.5969 Y-6.7455
G01 X-1.6078 Y-6.7386
G01 X-1.6189 Y-6.7340
G01 X-1.6306 Y-6.7313
G01 X-1.6400 Y-6.7307
G01 X-2.0698 Y-6.7307
G01 X-2.0698 Y-3.8091
G01 X-2.0704 Y-3.7869
G01 X-2.0721 Y-3.7639
G01 X-2.0749 Y-3.7410
G01 X-2.0785 Y-3.7200
G01 X-2.0843 Y-3.6941
G01 X-2.0900 Y-3.6735
G01 X-2.0976 Y-3.6508
G01 X-2.1056 Y-3.6301
G01 X-2.1149 Y-3.6090
G01 X-2.1253 Y-3.5883
G01 X-2.1376 Y-3.5668
G01 X-2.1490 Y-3.5488
G01 X-2.1613 Y-3.5313
G01 X-2.1755 Y-3.5130
G01 X-2.1916 Y-3.4942
G01 X-2.2063 Y-3.4787
G01 X-3.4775 Y-2.2075
G01 X-3.4942 Y-2.1916
G01 X-3.5104 Y-2.1776
G01 X-3.5306 Y-2.1618
G01 X-3.5488 Y-2.1490
G01 X-3.5668 Y-2.1376
G01 X-3.5883 Y-2.1253
G01 X-3.6105 Y-2.1142
G01 X-3.6301 Y-2.1056
G01 X-3.6500 Y-2.0979
G01 X-3.6735 Y-2.0900
G01 X-3.6974 Y-2.0835
G01 X-3.7183 Y-2.0788
G01 X-3.7393 Y-2.0752
G01 X-3.7639 Y-2.0721
G01 X-3.7869 Y-2.0704
G01 X-3.8100 Y-2.0698
G01 X-4.5000 Y-2.0698
G01 X-4.5000 Y-1.9291
G01 X-4.5008 Y-1.9197
G01 X-4.5028 Y-1.9105
G01 X-4.5064 Y-1.9009
G01 X-4.5113 Y-1.8918
G01 X-4.5170 Y-1.8843
G01 X-4.5243 Y-1.8770
G01 X-4.5326 Y-1.8709
G01 X-4.5416 Y-1.8660
G01 X-4.5513 Y-1.8625
G01 X-4.5614 Y-1.8605
G01 X-4.5700 Y-1.8600
G01 X-5.5917 Y-1.8600
G01 X-5.6070 Y-1.8621
G01 X-5.6215 Y-1.8675
G01 X-5.6351 Y-1.8764
G01 X-5.6457 Y-1.8876
G01 X-5.6517 Y-1.8970
G01 X-5.6562 Y-1.9072
G01 X-5.6590 Y-1.9180
G01 X-5.6600 Y-1.9291
G01 X-5.6600 Y-3.1526
G01 X-5.6583 Y-3.1653
G01 X-5.6540 Y-3.1784
G01 X-5.6472 Y-3.1903
G01 X-5.6383 Y-3.2007
G01 X-5.6274 Y-3.2091
G01 X-5.6160 Y-3.2150
G01 X-5.6037 Y-3.2187
G01 X-5.5900 Y-3.2200
G00 Z2.0000
G00 X-5.5900 Y-3.2900
G01 F70.00
G01 Z-0.0600
G01 F120.00
G01 X-4.5700 Y-3.2900
G01 X-4.5512 Y-3.2887
G01 X-4.5360 Y-3.2858
G01 X-4.5212 Y-3.2812
G01 X-4.5055 Y-3.2743
G01 X-4.4922 Y-3.2664
G01 X-4.4786 Y-3.2560
G01 X-4.4674 Y-3.2453
G01 X-4.4576 Y-3.2334
G01 X-4.4490 Y-3.2205
G01 X-4.4427 Y-3.2083
G01 X-4.4376 Y-3.1955
G01 X-4.4338 Y-3.1823
G01 X-4.4313 Y-3.1688
G01 X-4.4300 Y-3.1517
G01 X-4.4300 Y-3.0802
G01 X-4.0338 Y-3.0802
G01 X-3.0802 Y-4.0338
G01 X-3.0802 Y-6.6607
G01 X-3.4417 Y-6.6607
G01 X-3.4588 Y-6.6620
G01 X-3.4773 Y-6.6658
G01 X-3.4888 Y-6.6695
G01 X-3.4999 Y-6.6741
G01 X-3.5192 Y-6.6853
G01 X-3.5365 Y-6.6993
G01 X-3.5514 Y-6.7159
G01 X-3.5635 Y-6.7347
G01 X-3.5724 Y-6.7552
G01 X-3.5779 Y-6.7768
G01 X-3.5795 Y-6.7887
G01 X-3.5800 Y-6.8007
G01 X-3.5800 Y-8.6007
G01 X-3.5789 Y-8.6178
G01 X-3.5754 Y-8.6364
G01 X-3.5687 Y-8.6559
G01 X-3.5601 Y-8.6727
G01 X-3.5493 Y-8.6882
G01 X-3.5365 Y-8.7021
G01 X-3.5220 Y-8.7142
G01 X-3.5060 Y-8.7242
G01 X-3.4888 Y-8.7319
G01 X-3.4690 Y-8.7377
G01 X-3.4554 Y-8.7398
G01 X-3.4417 Y-8.7407
G01 X-3.0802 Y-8.7407
G01 X-3.0802 Y-11.7407
G01 X-3.4417 Y-11.7407
G01 X-3.4554 Y-11.7416
G01 X-3.4690 Y-11.7437
G01 X-3.4888 Y-11.7495
G01 X-3.5060 Y-11.7572
G01 X-3.5220 Y-11.7672
G01 X-3.5378 Y-11.7805
G01 X-3.5504 Y-11.7946
G01 X-3.5610 Y-11.8102
G01 X-3.5693 Y-11.8271
G01 X-3.5758 Y-11.8467
G01 X-3.5789 Y-11.8636
G01 X-3.5800 Y-11.8807
G01 X-3.5800 Y-13.6807
G01 X-3.5785 Y-13.7012
G01 X-3.5735 Y-13.7230
G01 X-3.5693 Y-13.7343
G01 X-3.5643 Y-13.7452
G01 X-3.5583 Y-13.7556
G01 X-3.5514 Y-13.7655
G01 X-3.5437 Y-13.7747
G01 X-3.5353 Y-13.7833
G01 X-3.5261 Y-13.7911
G01 X-3.5163 Y-13.7981
G01 X-3.5060 Y-13.8042
G01 X-3.4952 Y-13.8094
G01 X-3.4839 Y-13.8136
G01 X-3.4723 Y-13.8169
G01 X-3.4605 Y-13.8192
G01 X-3.4486 Y-13.8204
G01 X-1.6400 Y-13.8207
G01 X-1.6280 Y-13.8202
G01 X-1.6144 Y-13.8183
G01 X-1.6010 Y-13.8152
G01 X-1.5896 Y-13.8113
G01 X-1.5710 Y-13.8025
G01 X-1.5539 Y-13.7911
G01 X-1.5386 Y-13.7772
G01 X-1.5265 Y-13.7627
G01 X-1.5165 Y-13.7467
G01 X-1.5082 Y-13.7279
G01 X-1.5027 Y-13.7080
G01 X-1.5002 Y-13.6876
G01 X-1.5000 Y-11.8807
G01 X-1.5005 Y-11.8687
G01 X-1.5042 Y-11.8467
G01 X-1.5113 Y-11.8255
G01 X-1.5208 Y-11.8073
G01 X-1.5340 Y-11.7893
G01 X-1.5499 Y-11.7736
G01 X-1.5666 Y-11.7615
G01 X-1.5848 Y-11.7520
G01 X-1.6060 Y-11.7449
G01 X-1.6212 Y-11.7420
G01 X-1.6383 Y-11.7407
G01 X-1.9998 Y-11.7407
G01 X-1.9998 Y-8.7407
G01 X-1.6383 Y-8.7407
G01 X-1.6246 Y-8.7398
G01 X-1.6110 Y-8.7377
G01 X-1.5912 Y-8.7319
G01 X-1.5740 Y-8.7242
G01 X-1.5566 Y-8.7131
G01 X-1.5422 Y-8.7009
G01 X-1.5296 Y-8.6868
G01 X-1.5190 Y-8.6712
G01 X-1.5100 Y-8.6527
G01 X-1.5042 Y-8.6347
G01 X-1.5011 Y-8.6178
G01 X-1.5000 Y-8.6007
G01 X-1.5002 Y-6.7938
G01 X-1.5030 Y-6.7717
G01 X-1.5094 Y-6.7503
G01 X-1.5182 Y-6.7317
G01 X-1.5307 Y-6.7132
G01 X-1.5460 Y-6.6970
G01 X-1.5637 Y-6.6833
G01 X-1.5833 Y-6.6727
G01 X-1.6043 Y-6.6653
G01 X-1.6212 Y-6.6620
G01 X-1.6383 Y-6.6607
G01 X-1.9998 Y-6.6607
G01 X-1.9998 Y-3.8083
G01 X-2.0005 Y-3.7835
G01 X-2.0024 Y-3.7571
G01 X-2.0056 Y-3.7307
G01 X-2.0096 Y-3.7080
G01 X-2.0169 Y-3.6754
G01 X-2.0236 Y-3.6515
G01 X-2.0326 Y-3.6248
G01 X-2.0423 Y-3.6001
G01 X-2.0517 Y-3.5790
G01 X-2.0620 Y-3.5584
G01 X-2.0758 Y-3.5338
G01 X-2.0890 Y-3.5128
G01 X-2.1061 Y-3.4882
G01 X-2.1213 Y-3.4686
G01 X-2.1397 Y-3.4472
G01 X-2.1556 Y-3.4305
G01 X-3.4280 Y-2.1580
G01 X-3.4472 Y-2.1397
G01 X-3.4647 Y-2.1246
G01 X-3.4896 Y-2.1051
G01 X-3.5128 Y-2.0890
G01 X-3.5323 Y-2.0767
G01 X-3.5523 Y-2.0652
G01 X-3.5790 Y-2.0517
G01 X-3.6065 Y-2.0396
G01 X-3.6280 Y-2.0314
G01 X-3.6499 Y-2.0241
G01 X-3.6787 Y-2.0160
G01 X-3.7080 Y-2.0096
G01 X-3.7307 Y-2.0056
G01 X-3.7553 Y-2.0026
G01 X-3.7835 Y-2.0005
G01 X-3.8100 Y-1.9998
G01 X-4.4300 Y-1.9998
G01 X-4.4300 Y-1.9283
G01 X-4.4313 Y-1.9112
G01 X-4.4338 Y-1.8977
G01 X-4.4376 Y-1.8845
G01 X-4.4427 Y-1.8717
G01 X-4.4499 Y-1.8580
G01 X-4.4596 Y-1.8439
G01 X-4.4698 Y-1.8322
G01 X-4.4825 Y-1.8207
G01 X-4.4951 Y-1.8117
G01 X-4.5086 Y-1.8042
G01 X-4.5245 Y-1.7976
G01 X-4.5393 Y-1.7934
G01 X-4.5563 Y-1.7907
G01 X-4.5700 Y-1.7900
G01 X-5.5969 Y-1.7902
G01 X-5.6122 Y-1.7918
G01 X-5.6273 Y-1.7951
G01 X-5.6420 Y-1.8000
G01 X-5.6575 Y-1.8074
G01 X-5.6720 Y-1.8165
G01 X-5.6840 Y-1.8263
G01 X-5.6949 Y-1.8373
G01 X-5.7054 Y-1.8508
G01 X-5.7158 Y-1.8686
G01 X-5.7235 Y-1.8877
G01 X-5.7282 Y-1.9078
G01 X-5.7300 Y-1.9283
G01 X-5.7300 Y-3.1500
G01 X-5.7295 Y-3.1620
G01 X-5.7276 Y-3.1756
G01 X-5.7249 Y-3.1873
G01 X-5.7206 Y-3.2004
G01 X-5.7158 Y-3.2114
G01 X-5.7092 Y-3.2234
G01 X-5.7024 Y-3.2334
G01 X-5.6937 Y-3.2440
G01 X-5.6840 Y-3.2537
G01 X-5.6748 Y-3.2614
G01 X-5.6634 Y-3.2692
G01 X-5.6514 Y-3.2758
G01 X-5.6404 Y-3.2806
G01 X-5.6273 Y-3.2849
G01 X-5.6156 Y-3.2876
G01 X-5.6020 Y-3.2895
G01 X-5.5900 Y-3.2900
G00 Z2.0000
G00 X-5.6794 Y-3.3400
G01 F70.00
G01 Z-0.0600
G01 F120.00
G01 X-5.7800 Y-3.3400
G01 X-5.7800 Y-3.2394
G01 X-5.7714 Y-3.2557
G01 X-5.7617 Y-3.2709
G01 X-5.7507 Y-3.2852
G01 X-5.7385 Y-3.2985
G01 X-5.7252 Y-3.3107
G01 X-5.7109 Y-3.3217
G01 X-5.6957 Y-3.3314
G01 X-5.6794 Y-3.3400
G00 Z2.0000
G00 X-5.5006 Y-4.0300
G01 F70.00
G01 Z-0.0600
G01 F120.00
G01 X-5.4000 Y-4.0300
G01 X-5.4000 Y-4.1306
G01 X-5.4086 Y-4.1143
G01 X-5.4183 Y-4.0991
G01 X-5.4293 Y-4.0848
G01 X-5.4415 Y-4.0715
G01 X-5.4548 Y-4.0593
G01 X-5.4691 Y-4.0483
G01 X-5.4843 Y-4.0386
G01 X-5.5006 Y-4.0300
G00 Z2.0000
G00 X-4.7600 Y-4.1306
G01 F70.00
G01 Z-0.0600
G01 F120.00
G01 X-4.7600 Y-4.0300
G01 X-4.6594 Y-4.0300
G01 X-4.6757 Y-4.0386
G01 X-4.6909 Y-4.0483
G01 X-4.7052 Y-4.0593
G01 X-4.7185 Y-4.0715
G01 X-4.7307 Y-4.0848
G01 X-4.7417 Y-4.0991
G01 X-4.7514 Y-4.1143
G01 X-4.7600 Y-4.1306
G00 Z2.0000
G00 X-4.2590 Y-3.1502
G01 F70.00
G01 Z-0.0600
G01 F120.00
G01 X-4.2713 Y-3.1564
G01 X-4.2845 Y-3.1644
G01 X-4.2972 Y-3.1733
G01 X-4.3091 Y-3.1831
G01 X-4.3290 Y-3.2032
G01 X-4.3387 Y-3.2153
G01 X-4.3474 Y-3.2281
G01 X-4.3552 Y-3.2414
G01 X-4.3620 Y-3.2553
G01 X-4.3717 Y-3.2819
G01 X-4.3777 Y-3.3096
G01 X-4.3794 Y-3.3250
G01 X-4.3800 Y-3.3400
G01 X-4.4806 Y-3.3400
G01 X-4.4555 Y-3.3260
G01 X-4.4428 Y-3.3171
G01 X-4.4309 Y-3.3073
G01 X-4.4110 Y-3.2872
G01 X-4.4013 Y-3.2751
G01 X-4.3926 Y-3.2623
G01 X-4.3848 Y-3.2490
G01 X-4.3780 Y-3.2351
G01 X-4.3683 Y-3.2085
G01 X-4.3623 Y-3.1808
G01 X-4.3606 Y-3.1654
G01 X-4.3600 Y-3.1502
G01 X-4.2590 Y-3.1502
G00 Z2.0000
G00 X-3.5725 Y-4.0100
G01 F70.00
G01 Z-0.0600
G01 F120.00
G01 X-3.5562 Y-4.0014
G01 X-3.5389 Y-3.9902
G01 X-3.5228 Y-3.9773
G01 X-3.5098 Y-3.9648
G01 X-3.4980 Y-3.9512
G01 X-3.4859 Y-3.9345
G01 X-3.4767 Y-3.9190
G01 X-3.4679 Y-3.9004
G01 X-3.4617 Y-3.8834
G01 X-3.4565 Y-3.8635
G01 X-3.4535 Y-3.8457
G01 X-3.4520 Y-3.8252
G01 X-3.4525 Y-3.8046
G01 X-3.4546 Y-3.7866
G01 X-3.4589 Y-3.7665
G01 X-3.4645 Y-3.7484
G01 X-3.1502 Y-4.0628
G01 X-3.1502 Y-5.7510
G01 X-3.1590 Y-5.7343
G01 X-3.1702 Y-5.7170
G01 X-3.1831 Y-5.7009
G01 X-3.1975 Y-5.6861
G01 X-3.2132 Y-5.6729
G01 X-3.2302 Y-5.6612
G01 X-3.2483 Y-5.6513
G01 X-3.2648 Y-5.6441
G01 X-3.2794 Y-5.6390
G01 X-3.2944 Y-5.6351
G01 X-3.3096 Y-5.6323
G01 X-3.3250 Y-5.6306
G01 X-3.3404 Y-5.6300
G01 X-3.4606 Y-5.6300
G01 X-3.4377 Y-5.6174
G01 X-3.4148 Y-5.6007
G01 X-3.3961 Y-5.5829
G01 X-3.3783 Y-5.5609
G01 X-3.3648 Y-5.5390
G01 X-3.3532 Y-5.5132
G01 X-3.3451 Y-5.4860
G01 X-3.3408 Y-5.4580
G01 X-3.3400 Y-5.4400
G01 X-3.3400 Y-4.2200
G01 X-3.3406 Y-4.2046
G01 X-3.3431 Y-4.1841
G01 X-3.3476 Y-4.1640
G01 X-3.3541 Y-4.1444
G01 X-3.3624 Y-4.1256
G01 X-3.3740 Y-4.1055
G01 X-3.3860 Y-4.0888
G01 X-3.3997 Y-4.0733
G01 X-3.4148 Y-4.0593
G01 X-3.4312 Y-4.0468
G01 X-3.4487 Y-4.0360
G01 X-3.4673 Y-4.0270
G01 X-3.4866 Y-4.0198
G01 X-3.5065 Y-4.0146
G01 X-3.5269 Y-4.0113
G01 X-3.5448 Y-4.0101
G01 X-3.5725 Y-4.0100
G00 Z2.0000
G00 X-3.4251 Y-3.9694
G01 F70.00
G01 Z-0.0600
G01 F120.00
G01 X-3.4103 Y-3.9428
G01 X-3.3981 Y-3.9138
G01 X-3.2202 Y-4.0917
G01 X-3.2202 Y-5.5871
G01 X-3.2396 Y-5.5788
G01 X-3.2591 Y-5.5721
G01 X-3.2791 Y-5.5668
G01 X-3.2985 Y-5.5632
G01 X-3.2875 Y-5.5376
G01 X-3.2784 Y-5.5080
G01 X-3.2725 Y-5.4777
G01 X-3.2701 Y-5.4469
G01 X-3.2700 Y-4.2200
G01 X-3.2705 Y-4.2028
G01 X-3.2721 Y-4.1857
G01 X-3.2747 Y-4.1687
G01 X-3.2784 Y-4.1520
G01 X-3.2831 Y-4.1354
G01 X-3.2888 Y-4.1192
G01 X-3.2954 Y-4.1034
G01 X-3.3031 Y-4.0880
G01 X-3.3116 Y-4.0731
G01 X-3.3211 Y-4.0588
G01 X-3.3314 Y-4.0450
G01 X-3.3425 Y-4.0320
G01 X-3.3545 Y-4.0196
G01 X-3.3671 Y-4.0080
G01 X-3.3805 Y-3.9972
G01 X-3.3944 Y-3.9872
G01 X-3.4090 Y-3.9781
G01 X-3.4251 Y-3.9694
G00 Z2.0000
G00 X-3.6589 Y-5.6500
G01 F70.00
G01 Z-0.0600
G01 F120.00
G01 X-3.6754 Y-5.6587
G01 X-3.6906 Y-5.6684
G01 X-3.7049 Y-5.6795
G01 X-3.7189 Y-5.6924
G01 X-3.7038 Y-5.6500
G01 X-3.6589 Y-5.6500
G00 Z2.0000
G00 X-3.6354 Y-5.8166
G01 F70.00
G01 Z-0.0600
G01 F120.00
G01 X-3.8354 Y-6.3797
G01 X-3.8383 Y-6.3931
G01 X-3.8384 Y-6.4068
G01 X-3.8361 Y-6.4195
G01 X-3.8312 Y-6.4323
G01 X-3.8263 Y-6.4404
G01 X-3.8211 Y-6.4471
G01 X-3.8150 Y-6.4532
G01 X-3.8075 Y-6.4589
G01 X-3.7993 Y-6.4636
G01 X-3.7914 Y-6.4669
G01 X-3.7823 Y-6.4694
G01 X-3.7730 Y-6.4706
G01 X-3.3395 Y-6.4707
G01 X-3.3234 Y-6.4686
G01 X-3.3089 Y-6.4632
G01 X-3.3015 Y-6.4589
G01 X-3.2940 Y-6.4531
G01 X-3.2874 Y-6.4464
G01 X-3.2817 Y-6.4389
G01 X-3.2771 Y-6.4306
G01 X-3.2737 Y-6.4218
G01 X-3.2716 Y-6.4135
G01 X-3.2705 Y-6.4041
G01 X-3.2704 Y-5.8391
G01 X-3.2725 Y-5.8230
G01 X-3.2779 Y-5.8085
G01 X-3.2822 Y-5.8011
G01 X-3.2874 Y-5.7943
G01 X-3.2934 Y-5.7881
G01 X-3.3001 Y-5.7828
G01 X-3.3144 Y-5.7750
G01 X-3.3226 Y-5.7723
G01 X-3.3310 Y-5.7706
G01 X-3.3404 Y-5.7700
G01 X-3.5712 Y-5.7700
G01 X-3.5814 Y-5.7710
G01 X-3.5914 Y-5.7735
G01 X-3.6010 Y-5.7775
G01 X-3.6105 Y-5.7833
G01 X-3.6190 Y-5.7906
G01 X-3.6257 Y-5.7984
G01 X-3.6312 Y-5.8071
G01 X-3.6354 Y-5.8166
G00 Z2.0000
G00 X-3.9777 Y-6.4209
G01 F70.00
G01 Z-0.0600
G01 F120.00
G01 X-3.9749 Y-6.4405
G01 X-3.9894 Y-6.4539
G01 X-3.9777 Y-6.4209
G00 Z2.0000
G00 X-3.9719 Y-6.5546
G01 F70.00
G01 Z-0.0600
G01 F120.00
G01 X-4.1165 Y-6.9619
G01 X-4.1207 Y-6.9785
G01 X-4.1227 Y-6.9955
G01 X-4.1228 Y-7.0109
G01 X-4.1209 Y-7.0280
G01 X-4.1159 Y-7.0479
G01 X-4.1080 Y-7.0669
G01 X-4.0851 Y-7.1044
G01 X-4.0570 Y-7.1539
G01 X-4.0314 Y-7.2048
G01 X-4.0083 Y-7.2568
G01 X-3.9878 Y-7.3099
G01 X-3.9693 Y-7.3647
G01 X-3.9618 Y-7.3802
G01 X-3.9535 Y-7.3932
G01 X-3.9402 Y-7.4089
G01 X-3.9261 Y-7.4215
G01 X-3.9090 Y-7.4330
G01 X-3.8920 Y-7.4411
G01 X-3.8740 Y-7.4470
G01 X-3.8537 Y-7.4505
G01 X-3.8348 Y-7.4511
G01 X-3.8161 Y-7.4491
G01 X-3.7945 Y-7.4435
G01 X-3.7740 Y-7.4346
G01 X-3.7552 Y-7.4226
G01 X-3.7386 Y-7.4077
G01 X-3.7246 Y-7.3904
G01 X-3.7134 Y-7.3710
G01 X-3.7055 Y-7.3501
G01 X-3.7027 Y-7.3385
G01 X-3.7009 Y-7.3266
G01 X-3.7000 Y-7.3112
G01 X-3.7000 Y-6.5997
G01 X-3.7011 Y-6.5843
G01 X-3.7038 Y-6.5691
G01 X-3.7082 Y-6.5543
G01 X-3.7139 Y-6.5407
G01 X-3.3404 Y-6.5407
G01 X-3.3284 Y-6.5402
G01 X-3.3148 Y-6.5383
G01 X-3.2965 Y-6.5336
G01 X-3.2790 Y-6.5265
G01 X-3.2641 Y-6.5181
G01 X-3.2490 Y-6.5067
G01 X-3.2355 Y-6.4934
G01 X-3.2240 Y-6.4785
G01 X-3.2146 Y-6.4621
G01 X-3.2075 Y-6.4446
G01 X-3.2022 Y-6.4229
G01 X-3.2004 Y-6.4024
G01 X-3.2007 Y-5.8314
G01 X-3.2022 Y-5.8178
G01 X-3.2050 Y-5.8043
G01 X-3.2092 Y-5.7912
G01 X-3.2146 Y-5.7786
G01 X-3.2212 Y-5.7666
G01 X-3.2290 Y-5.7552
G01 X-3.2378 Y-5.7447
G01 X-3.2477 Y-5.7351
G01 X-3.2641 Y-5.7226
G01 X-3.2837 Y-5.7120
G01 X-3.3047 Y-5.7046
G01 X-3.3250 Y-5.7009
G01 X-3.3404 Y-5.7000
G01 X-3.5729 Y-5.7000
G01 X-3.5883 Y-5.7013
G01 X-3.6018 Y-5.7038
G01 X-3.6151 Y-5.7076
G01 X-3.6278 Y-5.7128
G01 X-3.6401 Y-5.7191
G01 X-3.6530 Y-5.7276
G01 X-3.6636 Y-5.7364
G01 X-3.6745 Y-5.7474
G01 X-3.6830 Y-5.7582
G01 X-3.6897 Y-5.7682
G01 X-3.6954 Y-5.7788
G01 X-3.7008 Y-5.7915
G01 X-3.9027 Y-6.3603
G01 X-3.9064 Y-6.3754
G01 X-3.9082 Y-6.3890
G01 X-3.9087 Y-6.4027
G01 X-3.9078 Y-6.4164
G01 X-3.9052 Y-6.4316
G01 X-3.9015 Y-6.4448
G01 X-3.8966 Y-6.4576
G01 X-3.8899 Y-6.4707
G01 X-3.9031 Y-6.4765
G01 X-3.9165 Y-6.4842
G01 X-3.9290 Y-6.4934
G01 X-3.9404 Y-6.5039
G01 X-3.9505 Y-6.5155
G01 X-3.9593 Y-6.5283
G01 X-3.9659 Y-6.5403
G01 X-3.9719 Y-6.5546
G00 Z2.0000
G00 X-3.9060 Y-6.5780
G01 F70.00
G01 Z-0.0600
G01 F120.00
G01 X-4.0492 Y-6.9813
G01 X-4.0525 Y-6.9954
G01 X-4.0527 Y-7.0100
G01 X-4.0502 Y-7.0234
G01 X-4.0451 Y-7.0361
G01 X-4.0250 Y-7.0684
G01 X-3.9953 Y-7.1209
G01 X-3.9681 Y-7.1748
G01 X-3.9436 Y-7.2300
G01 X-3.9219 Y-7.2863
G01 X-3.9056 Y-7.3355
G01 X-3.9005 Y-7.3464
G01 X-3.8952 Y-7.3542
G01 X-3.8883 Y-7.3619
G01 X-3.8810 Y-7.3679
G01 X-3.8722 Y-7.3733
G01 X-3.8636 Y-7.3771
G01 X-3.8537 Y-7.3798
G01 X-3.8434 Y-7.3811
G01 X-3.8340 Y-7.3809
G01 X-3.8222 Y-7.3788
G01 X-3.8109 Y-7.3748
G01 X-3.7997 Y-7.3684
G01 X-3.7905 Y-7.3607
G01 X-3.7828 Y-7.3515
G01 X-3.7764 Y-7.3403
G01 X-3.7723 Y-7.3290
G01 X-3.7703 Y-7.3172
G01 X-3.7703 Y-6.5954
G01 X-3.7721 Y-6.5844
G01 X-3.7760 Y-6.5731
G01 X-3.7818 Y-6.5625
G01 X-3.7893 Y-6.5532
G01 X-3.7983 Y-6.5452
G01 X-3.8086 Y-6.5389
G01 X-3.8197 Y-6.5345
G01 X-3.8315 Y-6.5320
G01 X-3.8427 Y-6.5315
G01 X-3.8546 Y-6.5330
G01 X-3.8661 Y-6.5365
G01 X-3.8768 Y-6.5419
G01 X-3.8865 Y-6.5491
G01 X-3.8947 Y-6.5578
G01 X-3.9014 Y-6.5678
G01 X-3.9060 Y-6.5780
G00 Z2.0000
G00 X-3.6300 Y-6.7113
G01 F70.00
G01 Z-0.0600
G01 F120.00
G01 X-3.6300 Y-6.6107
G01 X-3.5294 Y-6.6107
G01 X-3.5457 Y-6.6193
G01 X-3.5609 Y-6.6290
G01 X-3.5752 Y-6.6400
G01 X-3.5885 Y-6.6522
G01 X-3.6007 Y-6.6655
G01 X-3.6117 Y-6.6798
G01 X-3.6214 Y-6.6950
G01 X-3.6300 Y-6.7113
G00 Z2.0000
G00 X-3.2510 Y-6.5907
G01 F70.00
G01 Z-0.0600
G01 F120.00
G01 X-3.2347 Y-6.5821
G01 X-3.2195 Y-6.5724
G01 X-3.2052 Y-6.5614
G01 X-3.1919 Y-6.5492
G01 X-3.1797 Y-6.5359
G01 X-3.1687 Y-6.5216
G01 X-3.1590 Y-6.5064
G01 X-3.1502 Y-6.4897
G01 X-3.1502 Y-6.5907
G01 X-3.2510 Y-6.5907
G00 Z2.0000
G00 X-4.1920 Y-7.0241
G01 F70.00
G01 Z-0.0600
G01 F120.00
G01 X-4.1914 Y-7.0298
G01 X-4.1904 Y-7.0369
G01 X-4.1946 Y-7.0314
G01 X-4.1920 Y-7.0241
G00 Z2.0000
G00 X-3.9994 Y-7.4478
G01 F70.00
G01 Z-0.0600
G01 F120.00
G01 X-3.9810 Y-7.4668
G01 X-3.9609 Y-7.4828
G01 X-3.9390 Y-7.4964
G01 X-3.9156 Y-7.5071
G01 X-3.8910 Y-7.5149
G01 X-3.8631 Y-7.5199
G01 X-3.8374 Y-7.5211
G01 X-3.8117 Y-7.5192
G01 X-3.7865 Y-7.5142
G01 X-3.7596 Y-7.5052
G01 X-3.7365 Y-7.4939
G01 X-3.7149 Y-7.4798
G01 X-3.6952 Y-7.4632
G01 X-3.6777 Y-7.4444
G01 X-3.6626 Y-7.4235
G01 X-3.6500 Y-7.4006
G01 X-3.6500 Y-8.0008
G01 X-3.6626 Y-7.9779
G01 X-3.6777 Y-7.9570
G01 X-3.6952 Y-7.9382
G01 X-3.7149 Y-7.9216
G01 X-3.7365 Y-7.9075
G01 X-3.7620 Y-7.8953
G01 X-3.7865 Y-7.8872
G01 X-3.8117 Y-7.8822
G01 X-3.8374 Y-7.8803
G01 X-3.8631 Y-7.8815
G01 X-3.8910 Y-7.8865
G01 X-3.9156 Y-7.8943
G01 X-3.9390 Y-7.9050
G01 X-3.9609 Y-7.9186
G01 X-3.9810 Y-7.9346
G01 X-3.9994 Y-7.9536
G01 X-3.9913 Y-7.9173
G01 X-3.9828 Y-7.8687
G01 X-3.9756 Y-7.8121
G01 X-3.9713 Y-7.7552
G01 X-3.9700 Y-7.7007
G01 X-3.9713 Y-7.6462
G01 X-3.9756 Y-7.5893
G01 X-3.9828 Y-7.5327
G01 X-3.9913 Y-7.4841
G01 X-3.9994 Y-7.4478
G00 Z2.0000
G00 X-3.9059 Y-7.5833
G01 F70.00
G01 Z-0.0600
G01 F120.00
G01 X-3.8845 Y-7.5876
G01 X-3.8606 Y-7.5904
G01 X-3.8366 Y-7.5911
G01 X-3.8126 Y-7.5898
G01 X-3.7887 Y-7.5864
G01 X-3.7653 Y-7.5810
G01 X-3.7424 Y-7.5736
G01 X-3.7200 Y-7.5641
G01 X-3.7200 Y-7.8373
G01 X-3.7424 Y-7.8278
G01 X-3.7653 Y-7.8204
G01 X-3.7887 Y-7.8150
G01 X-3.8126 Y-7.8116
G01 X-3.8366 Y-7.8103
G01 X-3.8606 Y-7.8110
G01 X-3.8845 Y-7.8138
G01 X-3.9059 Y-7.8181
G01 X-3.9014 Y-7.7586
G01 X-3.9000 Y-7.7007
G01 X-3.9014 Y-7.6428
G01 X-3.9059 Y-7.5833
G00 Z2.0000
G00 X-3.6300 Y-8.6901
G01 F70.00
G01 Z-0.0600
G01 F120.00
G01 X-3.6214 Y-8.7064
G01 X-3.6117 Y-8.7216
G01 X-3.6007 Y-8.7359
G01 X-3.5885 Y-8.7492
G01 X-3.5752 Y-8.7614
G01 X-3.5609 Y-8.7724
G01 X-3.5457 Y-8.7821
G01 X-3.5294 Y-8.7907
G01 X-3.6300 Y-8.7907
G01 X-3.6300 Y-8.6901
G00 Z2.0000
G00 X-3.2510 Y-8.8107
G01 F70.00
G01 Z-0.0600
G01 F120.00
G01 X-3.1502 Y-8.8107
G01 X-3.1502 Y-8.9117
G01 X-3.1590 Y-8.8950
G01 X-3.1687 Y-8.8798
G01 X-3.1797 Y-8.8655
G01 X-3.1919 Y-8.8522
G01 X-3.2052 Y-8.8400
G01 X-3.2195 Y-8.8290
G01 X-3.2347 Y-8.8193
G01 X-3.2510 Y-8.8107
G00 Z2.0000
G00 X-4.3496 Y-8.7246
G01 F70.00
G01 Z-0.0600
G01 F120.00
G01 X-4.3496 Y-11.7568
G01 X-4.3490 Y-11.7662
G01 X-4.3468 Y-11.7763
G01 X-4.3432 Y-11.7860
G01 X-4.3383 Y-11.7950
G01 X-4.3315 Y-11.8038
G01 X-4.3247 Y-11.8104
G01 X-4.2997 Y-11.8299
G01 X-4.2540 Y-11.8693
G01 X-4.2103 Y-11.9110
G01 X-4.1686 Y-11.9547
G01 X-4.1292 Y-12.0004
G01 X-4.0921 Y-12.0480
G01 X-4.0573 Y-12.0974
G01 X-4.0250 Y-12.1484
G01 X-3.9953 Y-12.2009
G01 X-3.9681 Y-12.2548
G01 X-3.9436 Y-12.3100
G01 X-3.9219 Y-12.3663
G01 X-3.9056 Y-12.4155
G01 X-3.8991 Y-12.4286
G01 X-3.8930 Y-12.4369
G01 X-3.8864 Y-12.4436
G01 X-3.8782 Y-12.4498
G01 X-3.8692 Y-12.4548
G01 X-3.8603 Y-12.4581
G01 X-3.8503 Y-12.4604
G01 X-3.8400 Y-12.4612
G01 X-3.8306 Y-12.4605
G01 X-3.8189 Y-12.4579
G01 X-3.8078 Y-12.4533
G01 X-3.7976 Y-12.4469
G01 X-3.7887 Y-12.4388
G01 X-3.7813 Y-12.4293
G01 X-3.7757 Y-12.4187
G01 X-3.7719 Y-12.4073
G01 X-3.7701 Y-12.3954
G01 X-3.7700 Y-11.5507
G01 X-3.3404 Y-11.5507
G01 X-3.3318 Y-11.5502
G01 X-3.3209 Y-11.5479
G01 X-3.3105 Y-11.5440
G01 X-3.3008 Y-11.5384
G01 X-3.2921 Y-11.5314
G01 X-3.2842 Y-11.5224
G01 X-3.2783 Y-11.5129
G01 X-3.2739 Y-11.5027
G01 X-3.2713 Y-11.4918
G01 X-3.2704 Y-11.4807
G01 X-3.2704 Y-9.0007
G01 X-3.2710 Y-8.9913
G01 X-3.2734 Y-8.9804
G01 X-3.2775 Y-8.9700
G01 X-3.2837 Y-8.9597
G01 X-3.2909 Y-8.9512
G01 X-3.2994 Y-8.9440
G01 X-3.3097 Y-8.9378
G01 X-3.3209 Y-8.9335
G01 X-3.3318 Y-8.9312
G01 X-3.3404 Y-8.9307
G01 X-3.7700 Y-8.9307
G01 X-3.7701 Y-8.0860
G01 X-3.7717 Y-8.0749
G01 X-3.7750 Y-8.0643
G01 X-3.7800 Y-8.0543
G01 X-3.7864 Y-8.0452
G01 X-3.7943 Y-8.0372
G01 X-3.8033 Y-8.0307
G01 X-3.8124 Y-8.0259
G01 X-3.8230 Y-8.0223
G01 X-3.8331 Y-8.0206
G01 X-3.8434 Y-8.0203
G01 X-3.8537 Y-8.0216
G01 X-3.8636 Y-8.0243
G01 X-3.8730 Y-8.0285
G01 X-3.8817 Y-8.0340
G01 X-3.8895 Y-8.0407
G01 X-3.8962 Y-8.0485
G01 X-3.9009 Y-8.0557
G01 X-3.9050 Y-8.0643
G01 X-3.9219 Y-8.1151
G01 X-3.9436 Y-8.1714
G01 X-3.9681 Y-8.2266
G01 X-3.9953 Y-8.2805
G01 X-4.0250 Y-8.3330
G01 X-4.0573 Y-8.3840
G01 X-4.0921 Y-8.4334
G01 X-4.1292 Y-8.4810
G01 X-4.1686 Y-8.5267
G01 X-4.2103 Y-8.5704
G01 X-4.2540 Y-8.6121
G01 X-4.2997 Y-8.6515
G01 X-4.3247 Y-8.6710
G01 X-4.3326 Y-8.6789
G01 X-4.3401 Y-8.6893
G01 X-4.3452 Y-8.7002
G01 X-4.3486 Y-8.7126
G01 X-4.3496 Y-8.7246
G00 Z2.0000
G00 X-4.4196 Y-8.7246
G01 F70.00
G01 Z-0.0600
G01 F120.00
G01 X-4.4196 Y-11.7568
G01 X-4.4178 Y-11.7791
G01 X-4.4136 Y-11.7975
G01 X-4.4069 Y-11.8151
G01 X-4.3979 Y-11.8317
G01 X-4.3867 Y-11.8470
G01 X-4.3710 Y-11.8628
G01 X-4.3441 Y-11.8840
G01 X-4.3010 Y-11.9212
G01 X-4.2598 Y-11.9605
G01 X-4.2205 Y-12.0017
G01 X-4.1833 Y-12.0448
G01 X-4.1483 Y-12.0897
G01 X-4.1155 Y-12.1363
G01 X-4.0851 Y-12.1844
G01 X-4.0570 Y-12.2339
G01 X-4.0314 Y-12.2848
G01 X-4.0083 Y-12.3368
G01 X-3.9878 Y-12.3899
G01 X-3.9687 Y-12.4463
G01 X-3.9601 Y-12.4631
G01 X-3.9493 Y-12.4786
G01 X-3.9365 Y-12.4925
G01 X-3.9234 Y-12.5036
G01 X-3.9075 Y-12.5138
G01 X-3.8904 Y-12.5218
G01 X-3.8740 Y-12.5270
G01 X-3.8554 Y-12.5303
G01 X-3.8366 Y-12.5311
G01 X-3.8178 Y-12.5294
G01 X-3.7961 Y-12.5241
G01 X-3.7755 Y-12.5154
G01 X-3.7566 Y-12.5036
G01 X-3.7398 Y-12.4889
G01 X-3.7255 Y-12.4718
G01 X-3.7142 Y-12.4526
G01 X-3.7060 Y-12.4318
G01 X-3.7013 Y-12.4100
G01 X-3.7000 Y-12.3912
G01 X-3.7000 Y-11.6207
G01 X-3.3387 Y-11.6207
G01 X-3.3233 Y-11.6196
G01 X-3.3081 Y-11.6169
G01 X-3.2884 Y-11.6107
G01 X-3.2699 Y-11.6017
G01 X-3.2529 Y-11.5900
G01 X-3.2378 Y-11.5760
G01 X-3.2250 Y-11.5599
G01 X-3.2146 Y-11.5421
G01 X-3.2069 Y-11.5230
G01 X-3.2025 Y-11.5046
G01 X-3.2009 Y-11.4927
G01 X-3.2004 Y-11.4807
G01 X-3.2004 Y-9.0007
G01 X-3.2022 Y-8.9785
G01 X-3.2069 Y-8.9584
G01 X-3.2146 Y-8.9393
G01 X-3.2250 Y-8.9215
G01 X-3.2378 Y-8.9054
G01 X-3.2529 Y-8.8914
G01 X-3.2699 Y-8.8797
G01 X-3.2884 Y-8.8707
G01 X-3.3081 Y-8.8645
G01 X-3.3233 Y-8.8618
G01 X-3.3387 Y-8.8607
G01 X-3.7000 Y-8.8607
G01 X-3.7000 Y-8.0902
G01 X-3.7011 Y-8.0731
G01 X-3.7051 Y-8.0529
G01 X-3.7127 Y-8.0319
G01 X-3.7226 Y-8.0139
G01 X-3.7363 Y-7.9962
G01 X-3.7525 Y-7.9809
G01 X-3.7695 Y-7.9693
G01 X-3.7896 Y-7.9596
G01 X-3.8110 Y-7.9533
G01 X-3.8297 Y-7.9506
G01 X-3.8503 Y-7.9506
G01 X-3.8690 Y-7.9533
G01 X-3.8888 Y-7.9590
G01 X-3.9060 Y-7.9668
G01 X-3.9220 Y-7.9768
G01 X-3.9365 Y-7.9889
G01 X-3.9504 Y-8.0041
G01 X-3.9610 Y-8.0198
G01 X-3.9693 Y-8.0367
G01 X-3.9878 Y-8.0915
G01 X-4.0083 Y-8.1446
G01 X-4.0314 Y-8.1966
G01 X-4.0570 Y-8.2475
G01 X-4.0851 Y-8.2970
G01 X-4.1155 Y-8.3451
G01 X-4.1483 Y-8.3917
G01 X-4.1833 Y-8.4366
G01 X-4.2205 Y-8.4797
G01 X-4.2598 Y-8.5209
G01 X-4.3010 Y-8.5602
G01 X-4.3441 Y-8.5974
G01 X-4.3723 Y-8.6197
G01 X-4.3810 Y-8.6281
G01 X-4.3889 Y-8.6371
G01 X-4.3960 Y-8.6468
G01 X-4.4022 Y-8.6571
G01 X-4.4076 Y-8.6679
G01 X-4.4120 Y-8.6790
G01 X-4.4175 Y-8.7007
G01 X-4.4191 Y-8.7126
G01 X-4.4196 Y-8.7246
G00 Z2.0000
G00 X-4.4698 Y-8.6356
G01 F70.00
G01 Z-0.0600
G01 F120.00
G01 X-4.4698 Y-8.6278
G01 X-4.4640 Y-8.6241
G01 X-4.4672 Y-8.6302
G01 X-4.4698 Y-8.6356
G00 Z2.0000
G00 X-5.6960 Y-8.6241
G01 F70.00
G01 Z-0.0600
G01 F120.00
G01 X-5.6902 Y-8.6278
G01 X-5.6902 Y-8.6356
G01 X-5.6928 Y-8.6302
G01 X-5.6960 Y-8.6241
G00 Z2.0000
G00 X-6.4183 Y-7.9613
G01 F70.00
G01 Z-0.0600
G01 F120.00
G01 X-6.4269 Y-7.9996
G01 X-6.4430 Y-8.0577
G01 X-6.4619 Y-8.1151
G01 X-6.4836 Y-8.1714
G01 X-6.5081 Y-8.2266
G01 X-6.5353 Y-8.2805
G01 X-6.5650 Y-8.3330
G01 X-6.5973 Y-8.3840
G01 X-6.6321 Y-8.4334
G01 X-6.6692 Y-8.4810
G01 X-6.7086 Y-8.5267
G01 X-6.7503 Y-8.5704
G01 X-6.7940 Y-8.6121
G01 X-6.8397 Y-8.6515
G01 X-6.8640 Y-8.6705
G01 X-6.8709 Y-8.6769
G01 X-6.8778 Y-8.6857
G01 X-6.8832 Y-8.6954
G01 X-6.8871 Y-8.7059
G01 X-6.8891 Y-8.7160
G01 X-6.8896 Y-8.7246
G01 X-6.8896 Y-11.7577
G01 X-6.8883 Y-11.7705
G01 X-6.8849 Y-11.7820
G01 X-6.8796 Y-11.7928
G01 X-6.8726 Y-11.8025
G01 X-6.8647 Y-11.8104
G01 X-6.8397 Y-11.8299
G01 X-6.7940 Y-11.8693
G01 X-6.7503 Y-11.9110
G01 X-6.7086 Y-11.9547
G01 X-6.6692 Y-12.0004
G01 X-6.6321 Y-12.0480
G01 X-6.5973 Y-12.0974
G01 X-6.5650 Y-12.1484
G01 X-6.5353 Y-12.2009
G01 X-6.5081 Y-12.2548
G01 X-6.4836 Y-12.3100
G01 X-6.4619 Y-12.3663
G01 X-6.4430 Y-12.4237
G01 X-6.4269 Y-12.4818
G01 X-6.4175 Y-12.5234
G01 X-6.4121 Y-12.5370
G01 X-6.4072 Y-12.5450
G01 X-6.4013 Y-12.5524
G01 X-6.3944 Y-12.5588
G01 X-6.3860 Y-12.5648
G01 X-6.3768 Y-12.5694
G01 X-6.3678 Y-12.5724
G01 X-6.3586 Y-12.5742
G01 X-6.3491 Y-12.5747
G01 X-6.3397 Y-12.5740
G01 X-6.3305 Y-12.5720
G01 X-6.3216 Y-12.5687
G01 X-6.3133 Y-12.5643
G01 X-6.3056 Y-12.5588
G01 X-6.2987 Y-12.5524
G01 X-6.2928 Y-12.5450
G01 X-6.2879 Y-12.5370
G01 X-6.2825 Y-12.5234
G01 X-6.2731 Y-12.4818
G01 X-6.2570 Y-12.4237
G01 X-6.2381 Y-12.3663
G01 X-6.2164 Y-12.3100
G01 X-6.1919 Y-12.2548
G01 X-6.1647 Y-12.2009
G01 X-6.1350 Y-12.1484
G01 X-6.1027 Y-12.0974
G01 X-6.0679 Y-12.0480
G01 X-6.0308 Y-12.0004
G01 X-5.9914 Y-11.9547
G01 X-5.9497 Y-11.9110
G01 X-5.9060 Y-11.8693
G01 X-5.8603 Y-11.8299
G01 X-5.8353 Y-11.8104
G01 X-5.8280 Y-11.8032
G01 X-5.8217 Y-11.7950
G01 X-5.8168 Y-11.7860
G01 X-5.8132 Y-11.7763
G01 X-5.8110 Y-11.7662
G01 X-5.8104 Y-11.7568
G01 X-5.8104 Y-8.7237
G01 X-5.8116 Y-8.7118
G01 X-5.8145 Y-8.7010
G01 X-5.8195 Y-8.6901
G01 X-5.8263 Y-8.6802
G01 X-5.8347 Y-8.6716
G01 X-5.8603 Y-8.6515
G01 X-5.9060 Y-8.6121
G01 X-5.9497 Y-8.5704
G01 X-5.9914 Y-8.5267
G01 X-6.0308 Y-8.4810
G01 X-6.0679 Y-8.4334
G01 X-6.1027 Y-8.3840
G01 X-6.1350 Y-8.3330
G01 X-6.1647 Y-8.2805
G01 X-6.1919 Y-8.2266
G01 X-6.2164 Y-8.1714
G01 X-6.2381 Y-8.1151
G01 X-6.2570 Y-8.0577
G01 X-6.2731 Y-7.9996
G01 X-6.2835 Y-7.9547
G01 X-6.2883 Y-7.9437
G01 X-6.2953 Y-7.9329
G01 X-6.3017 Y-7.9260
G01 X-6.3090 Y-7.9199
G01 X-6.3178 Y-7.9145
G01 X-6.3264 Y-7.9108
G01 X-6.3355 Y-7.9082
G01 X-6.3457 Y-7.9068
G01 X-6.3551 Y-7.9069
G01 X-6.3653 Y-7.9084
G01 X-6.3744 Y-7.9111
G01 X-6.3838 Y-7.9154
G01 X-6.3917 Y-7.9205
G01 X-6.3995 Y-7.9272
G01 X-6.4062 Y-7.9350
G01 X-6.4113 Y-7.9429
G01 X-6.4153 Y-7.9515
G01 X-6.4183 Y-7.9613
G00 Z2.0000
G00 X-6.4866 Y-7.9460
G01 F70.00
G01 Z-0.0600
G01 F120.00
G01 X-6.4948 Y-7.9825
G01 X-6.5100 Y-8.0374
G01 X-6.5278 Y-8.0915
G01 X-6.5483 Y-8.1446
G01 X-6.5714 Y-8.1966
G01 X-6.5970 Y-8.2475
G01 X-6.6251 Y-8.2970
G01 X-6.6555 Y-8.3451
G01 X-6.6883 Y-8.3917
G01 X-6.7233 Y-8.4366
G01 X-6.7605 Y-8.4797
G01 X-6.7998 Y-8.5209
G01 X-6.8410 Y-8.5602
G01 X-6.8841 Y-8.5974
G01 X-6.9110 Y-8.6186
G01 X-6.9198 Y-8.6268
G01 X-6.9278 Y-8.6358
G01 X-6.9397 Y-8.6526
G01 X-6.9483 Y-8.6694
G01 X-6.9545 Y-8.6872
G01 X-6.9585 Y-8.7074
G01 X-6.9596 Y-8.7246
G01 X-6.9596 Y-11.7602
G01 X-6.9572 Y-11.7824
G01 X-6.9514 Y-11.8040
G01 X-6.9422 Y-11.8243
G01 X-6.9300 Y-11.8429
G01 X-6.9222 Y-11.8521
G01 X-6.9123 Y-11.8617
G01 X-6.8841 Y-11.8840
G01 X-6.8410 Y-11.9212
G01 X-6.7998 Y-11.9605
G01 X-6.7605 Y-12.0017
G01 X-6.7233 Y-12.0448
G01 X-6.6883 Y-12.0897
G01 X-6.6555 Y-12.1363
G01 X-6.6251 Y-12.1844
G01 X-6.5970 Y-12.2339
G01 X-6.5714 Y-12.2848
G01 X-6.5483 Y-12.3368
G01 X-6.5278 Y-12.3899
G01 X-6.5100 Y-12.4440
G01 X-6.4948 Y-12.4989
G01 X-6.4862 Y-12.5371
G01 X-6.4829 Y-12.5486
G01 X-6.4758 Y-12.5661
G01 X-6.4654 Y-12.5839
G01 X-6.4549 Y-12.5975
G01 X-6.4427 Y-12.6096
G01 X-6.4292 Y-12.6202
G01 X-6.4129 Y-12.6298
G01 X-6.3972 Y-12.6365
G01 X-6.3807 Y-12.6413
G01 X-6.3637 Y-12.6440
G01 X-6.3466 Y-12.6447
G01 X-6.3312 Y-12.6434
G01 X-6.3143 Y-12.6401
G01 X-6.2996 Y-12.6353
G01 X-6.2840 Y-12.6282
G01 X-6.2708 Y-12.6202
G01 X-6.2573 Y-12.6096
G01 X-6.2451 Y-12.5975
G01 X-6.2355 Y-12.5853
G01 X-6.2249 Y-12.5677
G01 X-6.2176 Y-12.5503
G01 X-6.2138 Y-12.5371
G01 X-6.2052 Y-12.4989
G01 X-6.1900 Y-12.4440
G01 X-6.1722 Y-12.3899
G01 X-6.1517 Y-12.3368
G01 X-6.1286 Y-12.2848
G01 X-6.1030 Y-12.2339
G01 X-6.0749 Y-12.1844
G01 X-6.0445 Y-12.1363
G01 X-6.0117 Y-12.0897
G01 X-5.9767 Y-12.0448
G01 X-5.9395 Y-12.0017
G01 X-5.9002 Y-11.9605
G01 X-5.8590 Y-11.9212
G01 X-5.8159 Y-11.8840
G01 X-5.7890 Y-11.8628
G01 X-5.7802 Y-11.8546
G01 X-5.7722 Y-11.8456
G01 X-5.7612 Y-11.8303
G01 X-5.7524 Y-11.8135
G01 X-5.7459 Y-11.7958
G01 X-5.7419 Y-11.7774
G01 X-5.7404 Y-11.7568
G01 X-5.7404 Y-8.7212
G01 X-5.7428 Y-8.6990
G01 X-5.7486 Y-8.6774
G01 X-5.7578 Y-8.6571
G01 X-5.7700 Y-8.6385
G01 X-5.7790 Y-8.6281
G01 X-5.7877 Y-8.6197
G01 X-5.8159 Y-8.5974
G01 X-5.8590 Y-8.5602
G01 X-5.9002 Y-8.5209
G01 X-5.9395 Y-8.4797
G01 X-5.9767 Y-8.4366
G01 X-6.0117 Y-8.3917
G01 X-6.0445 Y-8.3451
G01 X-6.0749 Y-8.2970
G01 X-6.1030 Y-8.2475
G01 X-6.1286 Y-8.1966
G01 X-6.1517 Y-8.1446
G01 X-6.1722 Y-8.0915
G01 X-6.1900 Y-8.0374
G01 X-6.2052 Y-7.9825
G01 X-6.2142 Y-7.9427
G01 X-6.2188 Y-7.9279
G01 X-6.2249 Y-7.9137
G01 X-6.2317 Y-7.9018
G01 X-6.2396 Y-7.8905
G01 X-6.2486 Y-7.8801
G01 X-6.2625 Y-7.8674
G01 X-6.2780 Y-7.8566
G01 X-6.2948 Y-7.8480
G01 X-6.3127 Y-7.8417
G01 X-6.3312 Y-7.8380
G01 X-6.3500 Y-7.8367
G01 X-6.3688 Y-7.8380
G01 X-6.3873 Y-7.8417
G01 X-6.4052 Y-7.8480
G01 X-6.4220 Y-7.8566
G01 X-6.4375 Y-7.8674
G01 X-6.4514 Y-7.8801
G01 X-6.4635 Y-7.8947
G01 X-6.4735 Y-7.9107
G01 X-6.4812 Y-7.9279
G01 X-6.4866 Y-7.9460
G00 Z2.0000
G00 X-6.5208 Y-7.8546
G01 F70.00
G01 Z-0.0600
G01 F120.00
G01 X-6.5153 Y-7.8095
G01 X-6.5117 Y-7.7603
G01 X-6.5100 Y-7.7007
G01 X-6.5117 Y-7.6411
G01 X-6.5153 Y-7.5919
G01 X-6.5208 Y-7.5468
G01 X-6.5056 Y-7.5658
G01 X-6.4872 Y-7.5837
G01 X-6.4667 Y-7.5993
G01 X-6.4467 Y-7.6111
G01 X-6.4232 Y-7.6216
G01 X-6.4010 Y-7.6284
G01 X-6.3757 Y-7.6331
G01 X-6.3500 Y-7.6347
G01 X-6.3269 Y-7.6334
G01 X-6.3015 Y-7.6290
G01 X-6.2768 Y-7.6216
G01 X-6.2533 Y-7.6111
G01 X-6.2312 Y-7.5979
G01 X-6.2128 Y-7.5837
G01 X-6.1944 Y-7.5658
G01 X-6.1792 Y-7.5468
G01 X-6.1847 Y-7.5919
G01 X-6.1883 Y-7.6411
G01 X-6.1900 Y-7.7007
G01 X-6.1883 Y-7.7603
G01 X-6.1847 Y-7.8095
G01 X-6.1792 Y-7.8546
G01 X-6.1944 Y-7.8356
G01 X-6.2128 Y-7.8177
G01 X-6.2333 Y-7.8021
G01 X-6.2533 Y-7.7903
G01 X-6.2768 Y-7.7798
G01 X-6.3015 Y-7.7724
G01 X-6.3243 Y-7.7683
G01 X-6.3500 Y-7.7667
G01 X-6.3757 Y-7.7683
G01 X-6.4010 Y-7.7730
G01 X-6.4256 Y-7.7807
G01 X-6.4467 Y-7.7903
G01 X-6.4667 Y-7.8021
G01 X-6.4872 Y-7.8177
G01 X-6.5056 Y-7.8356
G01 X-6.5208 Y-7.8546
G00 Z2.0000
G00 X-6.4402 Y-7.7116
G01 F70.00
G01 Z-0.0600
G01 F120.00
G01 X-6.4402 Y-7.6898
G01 X-6.4180 Y-7.6963
G01 X-6.3973 Y-7.7007
G01 X-6.4180 Y-7.7051
G01 X-6.4402 Y-7.7116
G00 Z2.0000
G00 X-6.3027 Y-7.7007
G01 F70.00
G01 Z-0.0600
G01 F120.00
G01 X-6.2820 Y-7.6963
G01 X-6.2598 Y-7.6898
G01 X-6.2598 Y-7.7116
G01 X-6.2820 Y-7.7051
G01 X-6.3027 Y-7.7007
G00 Z2.0000
G00 X-6.6433 Y-7.1600
G01 F70.00
G01 Z-0.0600
G01 F120.00
G01 X-6.6435 Y-7.1656
G01 X-6.6435 Y-7.1730
G01 X-6.6469 Y-7.1670
G01 X-6.6433 Y-7.1600
G00 Z2.0000
G00 X-7.7324 Y-6.5964
G01 F70.00
G01 Z-0.0600
G01 F120.00
G01 X-7.7270 Y-6.5927
G01 X-7.7218 Y-6.5889
G01 X-7.7254 Y-6.5957
G01 X-7.7324 Y-6.5964
G00 Z2.0000
G00 X-5.7910 Y-5.8072
G01 F70.00
G01 Z-0.0600
G01 F120.00
G01 X-6.4954 Y-7.1376
G01 X-6.4998 Y-7.1478
G01 X-6.5024 Y-7.1577
G01 X-6.5035 Y-7.1688
G01 X-6.5030 Y-7.1790
G01 X-6.5010 Y-7.1891
G01 X-6.4979 Y-7.1979
G01 X-6.4836 Y-7.2300
G01 X-6.4619 Y-7.2863
G01 X-6.4430 Y-7.3437
G01 X-6.4269 Y-7.4018
G01 X-6.4181 Y-7.4409
G01 X-6.4156 Y-7.4491
G01 X-6.4087 Y-7.4629
G01 X-6.3989 Y-7.4748
G01 X-6.3867 Y-7.4843
G01 X-6.3728 Y-7.4909
G01 X-6.3611 Y-7.4938
G01 X-6.3500 Y-7.4947
G01 X-6.3389 Y-7.4938
G01 X-6.3272 Y-7.4909
G01 X-6.3162 Y-7.4860
G01 X-6.3063 Y-7.4794
G01 X-6.2976 Y-7.4711
G01 X-6.2909 Y-7.4622
G01 X-6.2864 Y-7.4539
G01 X-6.2830 Y-7.4450
G01 X-6.2731 Y-7.4018
G01 X-6.2570 Y-7.3437
G01 X-6.2381 Y-7.2863
G01 X-6.2164 Y-7.2300
G01 X-6.1919 Y-7.1748
G01 X-6.1647 Y-7.1209
G01 X-6.1350 Y-7.0684
G01 X-6.1027 Y-7.0174
G01 X-6.0679 Y-6.9680
G01 X-6.0308 Y-6.9204
G01 X-5.9914 Y-6.8747
G01 X-5.9497 Y-6.8310
G01 X-5.9060 Y-6.7893
G01 X-5.8603 Y-6.7499
G01 X-5.8127 Y-6.7128
G01 X-5.7633 Y-6.6780
G01 X-5.7123 Y-6.6457
G01 X-5.6598 Y-6.6160
G01 X-5.6059 Y-6.5888
G01 X-5.5507 Y-6.5643
G01 X-5.4944 Y-6.5426
G01 X-5.4607 Y-6.5308
G01 X-5.4532 Y-6.5266
G01 X-5.4463 Y-6.5214
G01 X-5.4401 Y-6.5155
G01 X-5.4346 Y-6.5088
G01 X-5.4292 Y-6.5000
G01 X-5.4254 Y-6.4914
G01 X-5.2023 Y-5.8634
G01 X-5.1996 Y-5.8535
G01 X-5.1984 Y-5.8442
G01 X-5.1989 Y-5.8305
G01 X-5.2021 Y-5.8171
G01 X-5.2079 Y-5.8047
G01 X-5.2159 Y-5.7936
G01 X-5.2259 Y-5.7843
G01 X-5.2376 Y-5.7771
G01 X-5.2505 Y-5.7723
G01 X-5.2640 Y-5.7701
G01 X-5.7343 Y-5.7702
G01 X-5.7437 Y-5.7715
G01 X-5.7520 Y-5.7738
G01 X-5.7599 Y-5.7771
G01 X-5.7674 Y-5.7814
G01 X-5.7750 Y-5.7871
G01 X-5.7811 Y-5.7931
G01 X-5.7865 Y-5.7999
G01 X-5.7910 Y-5.8072
G00 Z2.0000
G00 X-5.8185 Y-5.6500
G01 F70.00
G01 Z-0.0600
G01 F120.00
G01 X-5.8374 Y-5.6601
G01 X-5.8555 Y-5.6723
G01 X-5.8437 Y-5.6500
G01 X-5.8185 Y-5.6500
G00 Z2.0000
G00 X-5.4000 Y-5.5294
G01 F70.00
G01 Z-0.0600
G01 F120.00
G01 X-5.3997 Y-5.6300
G01 X-5.5006 Y-5.6300
G01 X-5.4843 Y-5.6214
G01 X-5.4691 Y-5.6117
G01 X-5.4548 Y-5.6007
G01 X-5.4415 Y-5.5885
G01 X-5.4293 Y-5.5752
G01 X-5.4183 Y-5.5609
G01 X-5.4086 Y-5.5457
G01 X-5.4000 Y-5.5294
G00 Z2.0000
G00 X-5.0593 Y-5.8198
G01 F70.00
G01 Z-0.0600
G01 F120.00
G01 X-5.0614 Y-5.8038
G01 X-5.0648 Y-5.7882
G01 X-5.0525 Y-5.7784
G01 X-5.0406 Y-5.7672
G01 X-5.0593 Y-5.8198
G00 Z2.0000
G00 X-5.3513 Y-6.6244
G01 F70.00
G01 Z-0.0600
G01 F120.00
G01 X-5.3464 Y-6.6199
G01 X-5.3420 Y-6.6155
G01 X-5.3446 Y-6.6227
G01 X-5.3513 Y-6.6244
G00 Z2.0000
G00 X-7.0098 Y-8.6356
G01 F70.00
G01 Z-0.0600
G01 F120.00
G01 X-7.0098 Y-8.6278
G01 X-7.0040 Y-8.6241
G01 X-7.0072 Y-8.6302
G01 X-7.0098 Y-8.6356
G00 Z2.0000
G00 X-8.2302 Y-8.6356
G01 F70.00
G01 Z-0.0600
G01 F120.00
G01 X-8.2328 Y-8.6302
G01 X-8.2360 Y-8.6241
G01 X-8.2302 Y-8.6278
G01 X-8.2302 Y-8.6356
G00 Z2.0000
G00 X-8.2360 Y-11.8573
G01 F70.00
G01 Z-0.0600
G01 F120.00
G01 X-8.2328 Y-11.8512
G01 X-8.2302 Y-11.8458
G01 X-8.2302 Y-11.8536
G01 X-8.2360 Y-11.8573
G00 Z2.0000
G00 X-8.1602 Y-11.8921
G01 F70.00
G01 Z-0.0600
G01 F120.00
G01 X-8.1978 Y-11.9160
G01 X-8.2395 Y-11.9454
G01 X-8.2798 Y-11.9768
G01 X-8.3184 Y-12.0101
G01 X-8.3554 Y-12.0453
G01 X-8.3906 Y-12.0823
G01 X-8.4239 Y-12.1209
G01 X-8.4553 Y-12.1612
G01 X-8.4847 Y-12.2029
G01 X-8.5120 Y-12.2460
G01 X-8.5372 Y-12.2904
G01 X-8.5601 Y-12.3360
G01 X-8.5808 Y-12.3827
G01 X-8.5992 Y-12.4303
G01 X-8.6152 Y-12.4788
G01 X-8.6288 Y-12.5280
G01 X-8.6400 Y-12.5778
G01 X-8.6487 Y-12.6281
G01 X-8.6550 Y-12.6788
G01 X-8.6587 Y-12.7297
G01 X-8.6600 Y-12.7807
G01 X-8.6587 Y-12.8317
G01 X-8.6550 Y-12.8826
G01 X-8.6487 Y-12.9333
G01 X-8.6400 Y-12.9836
G01 X-8.6288 Y-13.0334
G01 X-8.6152 Y-13.0826
G01 X-8.5992 Y-13.1311
G01 X-8.5808 Y-13.1787
G01 X-8.5601 Y-13.2254
G01 X-8.5372 Y-13.2710
G01 X-8.5120 Y-13.3154
G01 X-8.4847 Y-13.3585
G01 X-8.4553 Y-13.4002
G01 X-8.4239 Y-13.4405
G01 X-8.3906 Y-13.4791
G01 X-8.3554 Y-13.5161
G01 X-8.3184 Y-13.5513
G01 X-8.2798 Y-13.5846
G01 X-8.2395 Y-13.6160
G01 X-8.1978 Y-13.6454
G01 X-8.1547 Y-13.6727
G01 X-8.1103 Y-13.6979
G01 X-8.0647 Y-13.7208
G01 X-8.0180 Y-13.7415
G01 X-7.9704 Y-13.7599
G01 X-7.9219 Y-13.7759
G01 X-7.8727 Y-13.7895
G01 X-7.8229 Y-13.8007
G01 X-7.7726 Y-13.8094
G01 X-7.7219 Y-13.8157
G01 X-7.6710 Y-13.8194
G01 X-7.6200 Y-13.8207
G01 X-7.5690 Y-13.8194
G01 X-7.5181 Y-13.8157
G01 X-7.4674 Y-13.8094
G01 X-7.4171 Y-13.8007
G01 X-7.3673 Y-13.7895
G01 X-7.3181 Y-13.7759
G01 X-7.2696 Y-13.7599
G01 X-7.2220 Y-13.7415
G01 X-7.1753 Y-13.7208
G01 X-7.1297 Y-13.6979
G01 X-7.0853 Y-13.6727
G01 X-7.0422 Y-13.6454
G01 X-6.9977 Y-13.6140
G01 X-6.9602 Y-13.5846
G01 X-6.9242 Y-13.5536
G01 X-6.8846 Y-13.5161
G01 X-6.8471 Y-13.4765
G01 X-6.8161 Y-13.4405
G01 X-6.7867 Y-13.4030
G01 X-6.7553 Y-13.3585
G01 X-6.7262 Y-13.3124
G01 X-6.7028 Y-13.2710
G01 X-6.6814 Y-13.2284
G01 X-6.6592 Y-13.1787
G01 X-6.6397 Y-13.1278
G01 X-6.6248 Y-13.0826
G01 X-6.6120 Y-13.0367
G01 X-6.6000 Y-12.9836
G01 X-6.5908 Y-12.9299
G01 X-6.5850 Y-12.8826
G01 X-6.5815 Y-12.8352
G01 X-6.5800 Y-12.7807
G01 X-6.5813 Y-12.7297
G01 X-6.5854 Y-12.6753
G01 X-6.5913 Y-12.6281
G01 X-6.5994 Y-12.5812
G01 X-6.6112 Y-12.5280
G01 X-6.6258 Y-12.4755
G01 X-6.6408 Y-12.4303
G01 X-6.6579 Y-12.3859
G01 X-6.6799 Y-12.3360
G01 X-6.7045 Y-12.2874
G01 X-6.7280 Y-12.2460
G01 X-6.7534 Y-12.2058
G01 X-6.7827 Y-12.1640
G01 X-6.8161 Y-12.1209
G01 X-6.8517 Y-12.0798
G01 X-6.8846 Y-12.0453
G01 X-6.9191 Y-12.0124
G01 X-6.9602 Y-11.9768
G01 X-7.0033 Y-11.9434
G01 X-7.0422 Y-11.9160
G01 X-7.0798 Y-11.8921
G01 X-7.0798 Y-8.5893
G01 X-7.0422 Y-8.5654
G01 X-7.0005 Y-8.5360
G01 X-6.9602 Y-8.5046
G01 X-6.9216 Y-8.4713
G01 X-6.8846 Y-8.4361
G01 X-6.8494 Y-8.3991
G01 X-6.8161 Y-8.3605
G01 X-6.7847 Y-8.3202
G01 X-6.7553 Y-8.2785
G01 X-6.7280 Y-8.2354
G01 X-6.7028 Y-8.1910
G01 X-6.6799 Y-8.1454
G01 X-6.6592 Y-8.0987
G01 X-6.6408 Y-8.0511
G01 X-6.6248 Y-8.0026
G01 X-6.6112 Y-7.9534
G01 X-6.6000 Y-7.9036
G01 X-6.5913 Y-7.8533
G01 X-6.5850 Y-7.8026
G01 X-6.5813 Y-7.7517
G01 X-6.5800 Y-7.7007
G01 X-6.5813 Y-7.6497
G01 X-6.5850 Y-7.5988
G01 X-6.5913 Y-7.5481
G01 X-6.6000 Y-7.4978
G01 X-6.6112 Y-7.4480
G01 X-6.6248 Y-7.3988
G01 X-6.6408 Y-7.3503
G01 X-6.6592 Y-7.3027
G01 X-6.6799 Y-7.2560
G01 X-6.7028 Y-7.2104
G01 X-6.7267 Y-7.1681
G01 X-5.8859 Y-5.5800
G01 X-5.5883 Y-5.5800
G01 X-5.5729 Y-5.5789
G01 X-5.5593 Y-5.5766
G01 X-5.5428 Y-5.5718
G01 X-5.5255 Y-5.5643
G01 X-5.5108 Y-5.5554
G01 X-5.4973 Y-5.5449
G01 X-5.4840 Y-5.5314
G01 X-5.4736 Y-5.5178
G01 X-5.4642 Y-5.5014
G01 X-5.4576 Y-5.4855
G01 X-5.4542 Y-5.4740
G01 X-5.4518 Y-5.4622
G01 X-5.4500 Y-5.4400
G01 X-5.4503 Y-4.2114
G01 X-5.4530 Y-4.1910
G01 X-5.4588 Y-4.1712
G01 X-5.4674 Y-4.1525
G01 X-5.4786 Y-4.1352
G01 X-5.4935 Y-4.1186
G01 X-5.5094 Y-4.1055
G01 X-5.5271 Y-4.0949
G01 X-5.5461 Y-4.0871
G01 X-5.5678 Y-4.0818
G01 X-5.5883 Y-4.0800
G01 X-6.6152 Y-4.0801
G01 X-6.6288 Y-4.0813
G01 X-6.6423 Y-4.0838
G01 X-6.6555 Y-4.0876
G01 X-6.6683 Y-4.0927
G01 X-6.6805 Y-4.0990
G01 X-6.6920 Y-4.1065
G01 X-6.7027 Y-4.1151
G01 X-6.7126 Y-4.1247
G01 X-6.7204 Y-4.1339
G01 X-6.7274 Y-4.1437
G01 X-6.7335 Y-4.1540
G01 X-6.7387 Y-4.1648
G01 X-6.7429 Y-4.1761
G01 X-6.7466 Y-4.1893
G01 X-6.7487 Y-4.2012
G01 X-6.7498 Y-4.2131
G01 X-6.7500 Y-4.9032
G01 X-7.6816 Y-6.6627
G01 X-7.7219 Y-6.6657
G01 X-7.7692 Y-6.6715
G01 X-7.8229 Y-6.6807
G01 X-7.8760 Y-6.6927
G01 X-7.9219 Y-6.7055
G01 X-7.9704 Y-6.7215
G01 X-8.0180 Y-6.7399
G01 X-8.0615 Y-6.7591
G01 X-8.1103 Y-6.7835
G01 X-8.1547 Y-6.8087
G01 X-8.1949 Y-6.8341
G01 X-8.2409 Y-6.8664
G01 X-8.2798 Y-6.8968
G01 X-8.3158 Y-6.9278
G01 X-8.3554 Y-6.9653
G01 X-8.3929 Y-7.0049
G01 X-8.4239 Y-7.0409
G01 X-8.4553 Y-7.0812
G01 X-8.4866 Y-7.1258
G01 X-8.5120 Y-7.1660
G01 X-8.5372 Y-7.2104
G01 X-8.5601 Y-7.2560
G01 X-8.5795 Y-7.2996
G01 X-8.6003 Y-7.3536
G01 X-8.6152 Y-7.3988
G01 X-8.6288 Y-7.4480
G01 X-8.6400 Y-7.4978
G01 X-8.6482 Y-7.5447
G01 X-8.6553 Y-7.6022
G01 X-8.6587 Y-7.6497
G01 X-8.6600 Y-7.7007
G01 X-8.6587 Y-7.7517
G01 X-8.6553 Y-7.7992
G01 X-8.6482 Y-7.8567
G01 X-8.6400 Y-7.9036
G01 X-8.6288 Y-7.9534
G01 X-8.6152 Y-8.0026
G01 X-8.5992 Y-8.0511
G01 X-8.5808 Y-8.0987
G01 X-8.5601 Y-8.1454
G01 X-8.5372 Y-8.1910
G01 X-8.5138 Y-8.2324
G01 X-8.4828 Y-8.2813
G01 X-8.4553 Y-8.3202
G01 X-8.4239 Y-8.3605
G01 X-8.3906 Y-8.3991
G01 X-8.3578 Y-8.4336
G01 X-8.3158 Y-8.4736
G01 X-8.2798 Y-8.5046
G01 X-8.2395 Y-8.5360
G01 X-8.1978 Y-8.5654
G01 X-8.1602 Y-8.5893
G01 X-8.1602 Y-11.8921
G00 Z2.0000
G00 X-8.0902 Y-11.9325
G01 F70.00
G01 Z-0.0600
G01 F120.00
G01 X-8.1187 Y-11.9487
G01 X-8.1596 Y-11.9747
G01 X-8.1978 Y-12.0016
G01 X-8.2360 Y-12.0314
G01 X-8.2714 Y-12.0620
G01 X-8.3059 Y-12.0948
G01 X-8.3387 Y-12.1293
G01 X-8.3704 Y-12.1660
G01 X-8.3991 Y-12.2029
G01 X-8.4265 Y-12.2418
G01 X-8.4520 Y-12.2820
G01 X-8.4755 Y-12.3234
G01 X-8.4969 Y-12.3660
G01 X-8.5162 Y-12.4095
G01 X-8.5333 Y-12.4539
G01 X-8.5485 Y-12.4999
G01 X-8.5609 Y-12.5450
G01 X-8.5714 Y-12.5915
G01 X-8.5795 Y-12.6384
G01 X-8.5853 Y-12.6856
G01 X-8.5888 Y-12.7331
G01 X-8.5900 Y-12.7807
G01 X-8.5888 Y-12.8283
G01 X-8.5853 Y-12.8758
G01 X-8.5795 Y-12.9230
G01 X-8.5714 Y-12.9699
G01 X-8.5609 Y-13.0164
G01 X-8.5482 Y-13.0623
G01 X-8.5333 Y-13.1075
G01 X-8.5162 Y-13.1519
G01 X-8.4969 Y-13.1954
G01 X-8.4751 Y-13.2387
G01 X-8.4520 Y-13.2794
G01 X-8.4265 Y-13.3196
G01 X-8.3991 Y-13.3585
G01 X-8.3698 Y-13.3961
G01 X-8.3387 Y-13.4321
G01 X-8.3059 Y-13.4666
G01 X-8.2714 Y-13.4994
G01 X-8.2354 Y-13.5305
G01 X-8.1978 Y-13.5598
G01 X-8.1589 Y-13.5872
G01 X-8.1187 Y-13.6127
G01 X-8.0773 Y-13.6362
G01 X-8.0347 Y-13.6576
G01 X-7.9912 Y-13.6769
G01 X-7.9468 Y-13.6940
G01 X-7.9016 Y-13.7089
G01 X-7.8557 Y-13.7216
G01 X-7.8092 Y-13.7321
G01 X-7.7623 Y-13.7402
G01 X-7.7151 Y-13.7460
G01 X-7.6676 Y-13.7495
G01 X-7.6200 Y-13.7507
G01 X-7.5724 Y-13.7495
G01 X-7.5249 Y-13.7460
G01 X-7.4777 Y-13.7402
G01 X-7.4308 Y-13.7321
G01 X-7.3843 Y-13.7216
G01 X-7.3384 Y-13.7089
G01 X-7.2932 Y-13.6940
G01 X-7.2488 Y-13.6769
G01 X-7.2053 Y-13.6576
G01 X-7.1620 Y-13.6358
G01 X-7.1213 Y-13.6127
G01 X-7.0825 Y-13.5882
G01 X-7.0422 Y-13.5598
G01 X-7.0033 Y-13.5294
G01 X-6.9686 Y-13.4994
G01 X-6.9353 Y-13.4678
G01 X-6.9013 Y-13.4321
G01 X-6.8691 Y-13.3947
G01 X-6.8409 Y-13.3585
G01 X-6.8144 Y-13.3210
G01 X-6.7880 Y-13.2794
G01 X-6.7637 Y-13.2364
G01 X-6.7431 Y-13.1954
G01 X-6.7245 Y-13.1535
G01 X-6.7067 Y-13.1075
G01 X-6.6913 Y-13.0606
G01 X-6.6791 Y-13.0164
G01 X-6.6690 Y-12.9716
G01 X-6.6605 Y-12.9230
G01 X-6.6545 Y-12.8741
G01 X-6.6512 Y-12.8283
G01 X-6.6500 Y-12.7807
G01 X-6.6513 Y-12.7314
G01 X-6.6547 Y-12.6856
G01 X-6.6603 Y-12.6401
G01 X-6.6686 Y-12.5915
G01 X-6.6795 Y-12.5433
G01 X-6.6918 Y-12.4991
G01 X-6.7061 Y-12.4555
G01 X-6.7238 Y-12.4095
G01 X-6.7439 Y-12.3644
G01 X-6.7645 Y-12.3234
G01 X-6.7876 Y-12.2828
G01 X-6.8135 Y-12.2418
G01 X-6.8419 Y-12.2015
G01 X-6.8702 Y-12.1653
G01 X-6.9001 Y-12.1306
G01 X-6.9347 Y-12.0942
G01 X-6.9699 Y-12.0608
G01 X-7.0046 Y-12.0309
G01 X-7.0415 Y-12.0021
G01 X-7.0818 Y-11.9737
G01 X-7.1213 Y-11.9487
G01 X-7.1498 Y-11.9325
G01 X-7.1498 Y-8.5489
G01 X-7.1213 Y-8.5327
G01 X-7.0825 Y-8.5082
G01 X-7.0429 Y-8.4803
G01 X-7.0046 Y-8.4505
G01 X-6.9692 Y-8.4200
G01 X-6.9341 Y-8.3866
G01 X-6.9013 Y-8.3521
G01 X-6.8702 Y-8.3161
G01 X-6.8414 Y-8.2792
G01 X-6.8135 Y-8.2396
G01 X-6.7880 Y-8.1994
G01 X-6.7645 Y-8.1580
G01 X-6.7431 Y-8.1154
G01 X-6.7238 Y-8.0719
G01 X-6.7067 Y-8.0275
G01 X-6.6918 Y-7.9823
G01 X-6.6791 Y-7.9364
G01 X-6.6686 Y-7.8899
G01 X-6.6605 Y-7.8430
G01 X-6.6547 Y-7.7958
G01 X-6.6512 Y-7.7483
G01 X-6.6500 Y-7.7007
G01 X-6.6512 Y-7.6531
G01 X-6.6547 Y-7.6056
G01 X-6.6608 Y-7.5567
G01 X-6.6686 Y-7.5115
G01 X-6.6791 Y-7.4650
G01 X-6.6918 Y-7.4191
G01 X-6.7073 Y-7.3723
G01 X-6.7238 Y-7.3295
G01 X-6.7439 Y-7.2844
G01 X-6.7654 Y-7.2419
G01 X-6.7880 Y-7.2020
G01 X-6.8075 Y-7.1711
G01 X-5.9280 Y-5.5100
G01 X-5.5823 Y-5.5096
G01 X-5.5730 Y-5.5079
G01 X-5.5632 Y-5.5047
G01 X-5.5548 Y-5.5005
G01 X-5.5463 Y-5.4947
G01 X-5.5393 Y-5.4883
G01 X-5.5333 Y-5.4810
G01 X-5.5279 Y-5.4722
G01 X-5.5241 Y-5.4636
G01 X-5.5210 Y-5.4520
G01 X-5.5200 Y-5.4400
G01 X-5.5200 Y-4.2174
G01 X-5.5212 Y-4.2072
G01 X-5.5241 Y-4.1964
G01 X-5.5283 Y-4.1870
G01 X-5.5338 Y-4.1783
G01 X-5.5411 Y-4.1699
G01 X-5.5490 Y-4.1633
G01 X-5.5585 Y-4.1575
G01 X-5.5680 Y-4.1535
G01 X-5.5789 Y-4.1509
G01 X-5.5900 Y-4.1500
G01 X-6.6109 Y-4.1500
G01 X-6.6245 Y-4.1515
G01 X-6.6384 Y-4.1560
G01 X-6.6510 Y-4.1633
G01 X-6.6619 Y-4.1730
G01 X-6.6691 Y-4.1826
G01 X-6.6750 Y-4.1940
G01 X-6.6785 Y-4.2055
G01 X-6.6800 Y-4.2183
G01 X-6.6800 Y-4.9206
G01 X-7.6387 Y-6.7311
G01 X-7.6685 Y-6.7319
G01 X-7.7159 Y-6.7355
G01 X-7.7623 Y-6.7412
G01 X-7.8084 Y-6.7492
G01 X-7.8574 Y-6.7602
G01 X-7.9016 Y-6.7725
G01 X-7.9460 Y-6.7871
G01 X-7.9928 Y-6.8052
G01 X-8.0347 Y-6.8238
G01 X-8.0773 Y-6.8452
G01 X-8.1187 Y-6.8687
G01 X-8.1575 Y-6.8932
G01 X-8.1985 Y-6.9221
G01 X-8.2354 Y-6.9509
G01 X-8.2701 Y-6.9808
G01 X-8.3059 Y-7.0148
G01 X-8.3387 Y-7.0493
G01 X-8.3687 Y-7.0840
G01 X-8.4001 Y-7.1243
G01 X-8.4265 Y-7.1618
G01 X-8.4511 Y-7.2006
G01 X-8.4763 Y-7.2450
G01 X-8.4969 Y-7.2860
G01 X-8.5162 Y-7.3295
G01 X-8.5333 Y-7.3739
G01 X-8.5477 Y-7.4175
G01 X-8.5613 Y-7.4667
G01 X-8.5714 Y-7.5115
G01 X-8.5797 Y-7.5601
G01 X-8.5853 Y-7.6056
G01 X-8.5888 Y-7.6531
G01 X-8.5900 Y-7.7007
G01 X-8.5888 Y-7.7483
G01 X-8.5853 Y-7.7958
G01 X-8.5797 Y-7.8413
G01 X-8.5710 Y-7.8916
G01 X-8.5609 Y-7.9364
G01 X-8.5482 Y-7.9823
G01 X-8.5333 Y-8.0275
G01 X-8.5165 Y-8.0711
G01 X-8.4969 Y-8.1154
G01 X-8.4763 Y-8.1564
G01 X-8.4511 Y-8.2008
G01 X-8.4265 Y-8.2396
G01 X-8.3991 Y-8.2785
G01 X-8.3698 Y-8.3161
G01 X-8.3393 Y-8.3515
G01 X-8.3047 Y-8.3878
G01 X-8.2714 Y-8.4194
G01 X-8.2347 Y-8.4511
G01 X-8.1978 Y-8.4798
G01 X-8.1589 Y-8.5072
G01 X-8.1187 Y-8.5327
G01 X-8.0902 Y-8.5489
G01 X-8.0902 Y-11.9325
G00 Z2.0000
G00 X-7.0040 Y-11.8573
G01 F70.00
G01 Z-0.0600
G01 F120.00
G01 X-7.0098 Y-11.8536
G01 X-7.0098 Y-11.8458
G01 X-7.0072 Y-11.8512
G01 X-7.0040 Y-11.8573
G00 Z2.0000
G00 X-6.3973 Y-12.7807
G01 F70.00
G01 Z-0.0600
G01 F120.00
G01 X-6.4180 Y-12.7851
G01 X-6.4402 Y-12.7916
G01 X-6.4402 Y-12.7698
G01 X-6.4180 Y-12.7763
G01 X-6.3973 Y-12.7807
G00 Z2.0000
G00 X-6.2598 Y-12.7916
G01 F70.00
G01 Z-0.0600
G01 F120.00
G01 X-6.2820 Y-12.7851
G01 X-6.3027 Y-12.7807
G01 X-6.2820 Y-12.7763
G01 X-6.2598 Y-12.7698
G01 X-6.2598 Y-12.7916
G00 Z2.0000
G00 X-6.1792 Y-12.9346
G01 F70.00
G01 Z-0.0600
G01 F120.00
G01 X-6.1944 Y-12.9156
G01 X-6.2128 Y-12.8977
G01 X-6.2333 Y-12.8821
G01 X-6.2533 Y-12.8703
G01 X-6.2744 Y-12.8607
G01 X-6.2990 Y-12.8530
G01 X-6.3243 Y-12.8483
G01 X-6.3500 Y-12.8467
G01 X-6.3757 Y-12.8483
G01 X-6.3985 Y-12.8524
G01 X-6.4232 Y-12.8598
G01 X-6.4467 Y-12.8703
G01 X-6.4667 Y-12.8821
G01 X-6.4872 Y-12.8977
G01 X-6.5056 Y-12.9156
G01 X-6.5208 Y-12.9346
G01 X-6.5153 Y-12.8895
G01 X-6.5117 Y-12.8403
G01 X-6.5100 Y-12.7807
G01 X-6.5117 Y-12.7211
G01 X-6.5153 Y-12.6719
G01 X-6.5208 Y-12.6268
G01 X-6.5056 Y-12.6458
G01 X-6.4872 Y-12.6637
G01 X-6.4667 Y-12.6793
G01 X-6.4467 Y-12.6911
G01 X-6.4232 Y-12.7016
G01 X-6.3985 Y-12.7090
G01 X-6.3757 Y-12.7131
G01 X-6.3500 Y-12.7147
G01 X-6.3243 Y-12.7131
G01 X-6.3015 Y-12.7090
G01 X-6.2768 Y-12.7016
G01 X-6.2533 Y-12.6911
G01 X-6.2333 Y-12.6793
G01 X-6.2128 Y-12.6637
G01 X-6.1944 Y-12.6458
G01 X-6.1792 Y-12.6268
G01 X-6.1847 Y-12.6719
G01 X-6.1883 Y-12.7211
G01 X-6.1900 Y-12.7807
G01 X-6.1883 Y-12.8403
G01 X-6.1847 Y-12.8895
G01 X-6.1792 Y-12.9346
G00 Z2.0000
G00 X-6.4183 Y-13.0413
G01 F70.00
G01 Z-0.0600
G01 F120.00
G01 X-6.4269 Y-13.0796
G01 X-6.4430 Y-13.1377
G01 X-6.4619 Y-13.1951
G01 X-6.4836 Y-13.2514
G01 X-6.5081 Y-13.3066
G01 X-6.5353 Y-13.3605
G01 X-6.5650 Y-13.4130
G01 X-6.5973 Y-13.4640
G01 X-6.6321 Y-13.5134
G01 X-6.6692 Y-13.5610
G01 X-6.7086 Y-13.6067
G01 X-6.7503 Y-13.6504
G01 X-6.7940 Y-13.6921
G01 X-6.8397 Y-13.7315
G01 X-6.8873 Y-13.7686
G01 X-6.9367 Y-13.8034
G01 X-6.9877 Y-13.8357
G01 X-7.0402 Y-13.8654
G01 X-7.0941 Y-13.8926
G01 X-7.1493 Y-13.9171
G01 X-7.2056 Y-13.9388
G01 X-7.2630 Y-13.9577
G01 X-7.3211 Y-13.9738
G01 X-7.3800 Y-13.9870
G01 X-7.4395 Y-13.9974
G01 X-7.4994 Y-14.0048
G01 X-7.5596 Y-14.0092
G01 X-7.6200 Y-14.0107
G01 X-7.6804 Y-14.0092
G01 X-7.7406 Y-14.0048
G01 X-7.8005 Y-13.9974
G01 X-7.8600 Y-13.9870
G01 X-7.9189 Y-13.9738
G01 X-7.9770 Y-13.9577
G01 X-8.0344 Y-13.9388
G01 X-8.0907 Y-13.9171
G01 X-8.1459 Y-13.8926
G01 X-8.1998 Y-13.8654
G01 X-8.2523 Y-13.8357
G01 X-8.3033 Y-13.8034
G01 X-8.3527 Y-13.7686
G01 X-8.4003 Y-13.7315
G01 X-8.4460 Y-13.6921
G01 X-8.4897 Y-13.6504
G01 X-8.5314 Y-13.6067
G01 X-8.5708 Y-13.5610
G01 X-8.6079 Y-13.5134
G01 X-8.6427 Y-13.4640
G01 X-8.6750 Y-13.4130
G01 X-8.7047 Y-13.3605
G01 X-8.7319 Y-13.3066
G01 X-8.7564 Y-13.2514
G01 X-8.7781 Y-13.1951
G01 X-8.7970 Y-13.1377
G01 X-8.8131 Y-13.0796
G01 X-8.8263 Y-13.0207
G01 X-8.8367 Y-12.9612
G01 X-8.8441 Y-12.9013
G01 X-8.8485 Y-12.8411
G01 X-8.8500 Y-12.7807
G01 X-8.8485 Y-12.7203
G01 X-8.8441 Y-12.6601
G01 X-8.8367 Y-12.6002
G01 X-8.8263 Y-12.5407
G01 X-8.8131 Y-12.4818
G01 X-8.7970 Y-12.4237
G01 X-8.7781 Y-12.3663
G01 X-8.7564 Y-12.3100
G01 X-8.7319 Y-12.2548
G01 X-8.7047 Y-12.2009
G01 X-8.6750 Y-12.1484
G01 X-8.6427 Y-12.0974
G01 X-8.6079 Y-12.0480
G01 X-8.5708 Y-12.0004
G01 X-8.5314 Y-11.9547
G01 X-8.4897 Y-11.9110
G01 X-8.4460 Y-11.8693
G01 X-8.4003 Y-11.8299
G01 X-8.3753 Y-11.8104
G01 X-8.3674 Y-11.8025
G01 X-8.3608 Y-11.7935
G01 X-8.3557 Y-11.7836
G01 X-8.3523 Y-11.7730
G01 X-8.3507 Y-11.7628
G01 X-8.3504 Y-8.7237
G01 X-8.3516 Y-8.7118
G01 X-8.3551 Y-8.6994
G01 X-8.3604 Y-8.6886
G01 X-8.3674 Y-8.6789
G01 X-8.3753 Y-8.6710
G01 X-8.4003 Y-8.6515
G01 X-8.4460 Y-8.6121
G01 X-8.4897 Y-8.5704
G01 X-8.5314 Y-8.5267
G01 X-8.5708 Y-8.4810
G01 X-8.6079 Y-8.4334
G01 X-8.6427 Y-8.3840
G01 X-8.6750 Y-8.3330
G01 X-8.7047 Y-8.2805
G01 X-8.7319 Y-8.2266
G01 X-8.7564 Y-8.1714
G01 X-8.7781 Y-8.1151
G01 X-8.7970 Y-8.0577
G01 X-8.8131 Y-7.9996
G01 X-8.8263 Y-7.9407
G01 X-8.8367 Y-7.8812
G01 X-8.8441 Y-7.8213
G01 X-8.8485 Y-7.7611
G01 X-8.8500 Y-7.7007
G01 X-8.8485 Y-7.6403
G01 X-8.8441 Y-7.5801
G01 X-8.8367 Y-7.5202
G01 X-8.8263 Y-7.4607
G01 X-8.8131 Y-7.4018
G01 X-8.7970 Y-7.3437
G01 X-8.7781 Y-7.2863
G01 X-8.7564 Y-7.2300
G01 X-8.7319 Y-7.1748
G01 X-8.7047 Y-7.1209
G01 X-8.6750 Y-7.0684
G01 X-8.6427 Y-7.0174
G01 X-8.6079 Y-6.9680
G01 X-8.5708 Y-6.9204
G01 X-8.5314 Y-6.8747
G01 X-8.4897 Y-6.8310
G01 X-8.4460 Y-6.7893
G01 X-8.4003 Y-6.7499
G01 X-8.3527 Y-6.7128
G01 X-8.3033 Y-6.6780
G01 X-8.2523 Y-6.6457
G01 X-8.1998 Y-6.6160
G01 X-8.1459 Y-6.5888
G01 X-8.0907 Y-6.5643
G01 X-8.0344 Y-6.5426
G01 X-7.9770 Y-6.5237
G01 X-7.9189 Y-6.5076
G01 X-7.8600 Y-6.4944
G01 X-7.8337 Y-6.4898
G01 X-7.8238 Y-6.4869
G01 X-7.8144 Y-6.4826
G01 X-7.8057 Y-6.4769
G01 X-7.7980 Y-6.4700
G01 X-7.7914 Y-6.4621
G01 X-7.7864 Y-6.4540
G01 X-6.9481 Y-4.8709
G01 X-6.9446 Y-4.8632
G01 X-6.9421 Y-4.8550
G01 X-6.9400 Y-4.8390
G01 X-6.9400 Y-3.8900
G01 X-5.2600 Y-3.8900
G01 X-5.2600 Y-5.6222
G01 X-5.2581 Y-5.6358
G01 X-5.2540 Y-5.6480
G01 X-5.2472 Y-5.6600
G01 X-5.2382 Y-5.6704
G01 X-5.2281 Y-5.6784
G01 X-5.2159 Y-5.6847
G01 X-5.2027 Y-5.6885
G01 X-5.1891 Y-5.6897
G01 X-5.1788 Y-5.6888
G01 X-5.1688 Y-5.6864
G01 X-5.1592 Y-5.6825
G01 X-5.1510 Y-5.6778
G01 X-5.1429 Y-5.6714
G01 X-5.1364 Y-5.6646
G01 X-5.1303 Y-5.6563
G01 X-5.1256 Y-5.6471
G01 X-4.9040 Y-5.0239
G01 X-4.9009 Y-5.0115
G01 X-4.9000 Y-5.0005
G01 X-4.9000 Y-3.8900
G01 X-3.6602 Y-3.8900
G01 X-3.6449 Y-3.8879
G01 X-3.6305 Y-3.8825
G01 X-3.6175 Y-3.8741
G01 X-3.6068 Y-3.8631
G01 X-3.6002 Y-3.8530
G01 X-3.5952 Y-3.8411
G01 X-3.5926 Y-3.8294
G01 X-3.5920 Y-3.8174
G01 X-3.5935 Y-3.8055
G01 X-3.5969 Y-3.7940
G01 X-3.6023 Y-3.7833
G01 X-3.6095 Y-3.7736
G01 X-4.0927 Y-3.2903
G01 X-4.1005 Y-3.2837
G01 X-4.1101 Y-3.2779
G01 X-4.1204 Y-3.2737
G01 X-4.1304 Y-3.2713
G01 X-4.1398 Y-3.2704
G01 X-4.1734 Y-3.2705
G01 X-4.1837 Y-3.2717
G01 X-4.1936 Y-3.2745
G01 X-4.2060 Y-3.2804
G01 X-4.2164 Y-3.2880
G01 X-4.2252 Y-3.2973
G01 X-4.2321 Y-3.3082
G01 X-4.2377 Y-3.3226
G01 X-4.2399 Y-3.3370
G01 X-4.2400 Y-3.4800
G01 X-5.9200 Y-3.4800
G01 X-5.9200 Y-1.6000
G01 X-4.2400 Y-1.6000
G01 X-4.2400 Y-1.7405
G01 X-4.2385 Y-1.7541
G01 X-4.2362 Y-1.7624
G01 X-4.2329 Y-1.7703
G01 X-4.2241 Y-1.7840
G01 X-4.2183 Y-1.7903
G01 X-4.2117 Y-1.7958
G01 X-4.2045 Y-1.8005
G01 X-4.1968 Y-1.8043
G01 X-4.1837 Y-1.8083
G01 X-4.1709 Y-1.8096
G01 X-3.8109 Y-1.8096
G01 X-3.7742 Y-1.8105
G01 X-3.7384 Y-1.8131
G01 X-3.7028 Y-1.8175
G01 X-3.6675 Y-1.8237
G01 X-3.6325 Y-1.8315
G01 X-3.5980 Y-1.8411
G01 X-3.5639 Y-1.8523
G01 X-3.5305 Y-1.8652
G01 X-3.4977 Y-1.8797
G01 X-3.4657 Y-1.8959
G01 X-3.4345 Y-1.9135
G01 X-3.4042 Y-1.9327
G01 X-3.3749 Y-1.9534
G01 X-3.3467 Y-1.9754
G01 X-3.3195 Y-1.9988
G01 X-3.2929 Y-2.0241
G01 X-2.0241 Y-3.2929
G01 X-1.9988 Y-3.3195
G01 X-1.9754 Y-3.3467
G01 X-1.9534 Y-3.3749
G01 X-1.9327 Y-3.4042
G01 X-1.9135 Y-3.4345
G01 X-1.8959 Y-3.4657
G01 X-1.8797 Y-3.4977
G01 X-1.8652 Y-3.5305
G01 X-1.8523 Y-3.5639
G01 X-1.8411 Y-3.5980
G01 X-1.8315 Y-3.6325
G01 X-1.8237 Y-3.6675
G01 X-1.8175 Y-3.7028
G01 X-1.8131 Y-3.7384
G01 X-1.8105 Y-3.7742
G01 X-1.8096 Y-3.8109
G01 X-1.8096 Y-6.4007
G01 X-1.8084 Y-6.4135
G01 X-1.8055 Y-6.4243
G01 X-1.8009 Y-6.4345
G01 X-1.7948 Y-6.4438
G01 X-1.7872 Y-6.4520
G01 X-1.7785 Y-6.4589
G01 X-1.7687 Y-6.4643
G01 X-1.7583 Y-6.4682
G01 X-1.7473 Y-6.4703
G01 X-1.3100 Y-6.4707
G01 X-1.3100 Y-8.9307
G01 X-1.7396 Y-8.9307
G01 X-1.7490 Y-8.9313
G01 X-1.7607 Y-8.9340
G01 X-1.7726 Y-8.9390
G01 X-1.7833 Y-8.9460
G01 X-1.7920 Y-8.9543
G01 X-1.7996 Y-8.9647
G01 X-1.8049 Y-8.9755
G01 X-1.8084 Y-8.9879
G01 X-1.8096 Y-9.0007
G01 X-1.8093 Y-11.4876
G01 X-1.8073 Y-11.4985
G01 X-1.8032 Y-11.5098
G01 X-1.7973 Y-11.5203
G01 X-1.7897 Y-11.5296
G01 X-1.7806 Y-11.5374
G01 X-1.7703 Y-11.5436
G01 X-1.7591 Y-11.5479
G01 X-1.7482 Y-11.5502
G01 X-1.7396 Y-11.5507
G01 X-1.3100 Y-11.5507
G01 X-1.3100 Y-14.0107
G01 X-3.7700 Y-14.0107
G01 X-3.7702 Y-13.1651
G01 X-3.7723 Y-13.1524
G01 X-3.7767 Y-13.1403
G01 X-3.7833 Y-13.1292
G01 X-3.7924 Y-13.1190
G01 X-3.8033 Y-13.1107
G01 X-3.8148 Y-13.1049
G01 X-3.8272 Y-13.1014
G01 X-3.8400 Y-13.1002
G01 X-3.8486 Y-13.1008
G01 X-3.8578 Y-13.1026
G01 X-3.8660 Y-13.1053
G01 X-3.8738 Y-13.1089
G01 X-3.8810 Y-13.1135
G01 X-3.8883 Y-13.1195
G01 X-3.8941 Y-13.1258
G01 X-3.8991 Y-13.1328
G01 X-3.9056 Y-13.1459
G01 X-3.9219 Y-13.1951
G01 X-3.9436 Y-13.2514
G01 X-3.9681 Y-13.3066
G01 X-3.9953 Y-13.3605
G01 X-4.0250 Y-13.4130
G01 X-4.0573 Y-13.4640
G01 X-4.0921 Y-13.5134
G01 X-4.1292 Y-13.5610
G01 X-4.1686 Y-13.6067
G01 X-4.2103 Y-13.6504
G01 X-4.2540 Y-13.6921
G01 X-4.2997 Y-13.7315
G01 X-4.3473 Y-13.7686
G01 X-4.3967 Y-13.8034
G01 X-4.4477 Y-13.8357
G01 X-4.5002 Y-13.8654
G01 X-4.5541 Y-13.8926
G01 X-4.6093 Y-13.9171
G01 X-4.6656 Y-13.9388
G01 X-4.7230 Y-13.9577
G01 X-4.7811 Y-13.9738
G01 X-4.8400 Y-13.9870
G01 X-4.8995 Y-13.9974
G01 X-4.9594 Y-14.0048
G01 X-5.0196 Y-14.0092
G01 X-5.0800 Y-14.0107
G01 X-5.1404 Y-14.0092
G01 X-5.2006 Y-14.0048
G01 X-5.2605 Y-13.9974
G01 X-5.3200 Y-13.9870
G01 X-5.3789 Y-13.9738
G01 X-5.4370 Y-13.9577
G01 X-5.4944 Y-13.9388
G01 X-5.5507 Y-13.9171
G01 X-5.6059 Y-13.8926
G01 X-5.6598 Y-13.8654
G01 X-5.7123 Y-13.8357
G01 X-5.7633 Y-13.8034
G01 X-5.8127 Y-13.7686
G01 X-5.8603 Y-13.7315
G01 X-5.9060 Y-13.6921
G01 X-5.9497 Y-13.6504
G01 X-5.9914 Y-13.6067
G01 X-6.0308 Y-13.5610
G01 X-6.0679 Y-13.5134
G01 X-6.1027 Y-13.4640
G01 X-6.1350 Y-13.4130
G01 X-6.1647 Y-13.3605
G01 X-6.1919 Y-13.3066
G01 X-6.2164 Y-13.2514
G01 X-6.2381 Y-13.1951
G01 X-6.2570 Y-13.1377
G01 X-6.2731 Y-13.0796
G01 X-6.2835 Y-13.0347
G01 X-6.2883 Y-13.0237
G01 X-6.2953 Y-13.0129
G01 X-6.3017 Y-13.0060
G01 X-6.3097 Y-12.9994
G01 X-6.3178 Y-12.9945
G01 X-6.3264 Y-12.9908
G01 X-6.3363 Y-12.9880
G01 X-6.3457 Y-12.9868
G01 X-6.3560 Y-12.9869
G01 X-6.3653 Y-12.9884
G01 X-6.3744 Y-12.9911
G01 X-6.3838 Y-12.9954
G01 X-6.3917 Y-13.0005
G01 X-6.3995 Y-13.0072
G01 X-6.4062 Y-13.0150
G01 X-6.4113 Y-13.0229
G01 X-6.4153 Y-13.0315
G01 X-6.4183 Y-13.0413
G00 Z2.0000
G00 X-6.4866 Y-13.0260
G01 F70.00
G01 Z-0.0600
G01 F120.00
G01 X-6.4948 Y-13.0625
G01 X-6.5100 Y-13.1174
G01 X-6.5278 Y-13.1715
G01 X-6.5483 Y-13.2246
G01 X-6.5714 Y-13.2766
G01 X-6.5970 Y-13.3275
G01 X-6.6251 Y-13.3770
G01 X-6.6555 Y-13.4251
G01 X-6.6883 Y-13.4717
G01 X-6.7233 Y-13.5166
G01 X-6.7605 Y-13.5597
G01 X-6.7998 Y-13.6009
G01 X-6.8410 Y-13.6402
G01 X-6.8841 Y-13.6774
G01 X-6.9290 Y-13.7124
G01 X-6.9756 Y-13.7452
G01 X-7.0237 Y-13.7756
G01 X-7.0732 Y-13.8037
G01 X-7.1241 Y-13.8293
G01 X-7.1761 Y-13.8524
G01 X-7.2292 Y-13.8729
G01 X-7.2833 Y-13.8907
G01 X-7.3382 Y-13.9059
G01 X-7.3937 Y-13.9184
G01 X-7.4498 Y-13.9281
G01 X-7.5063 Y-13.9351
G01 X-7.5631 Y-13.9393
G01 X-7.6200 Y-13.9407
G01 X-7.6769 Y-13.9393
G01 X-7.7337 Y-13.9351
G01 X-7.7902 Y-13.9281
G01 X-7.8463 Y-13.9184
G01 X-7.9018 Y-13.9059
G01 X-7.9567 Y-13.8907
G01 X-8.0108 Y-13.8729
G01 X-8.0639 Y-13.8524
G01 X-8.1159 Y-13.8293
G01 X-8.1668 Y-13.8037
G01 X-8.2163 Y-13.7756
G01 X-8.2644 Y-13.7452
G01 X-8.3110 Y-13.7124
G01 X-8.3559 Y-13.6774
G01 X-8.3990 Y-13.6402
G01 X-8.4402 Y-13.6009
G01 X-8.4795 Y-13.5597
G01 X-8.5167 Y-13.5166
G01 X-8.5517 Y-13.4717
G01 X-8.5845 Y-13.4251
G01 X-8.6149 Y-13.3770
G01 X-8.6430 Y-13.3275
G01 X-8.6686 Y-13.2766
G01 X-8.6917 Y-13.2246
G01 X-8.7122 Y-13.1715
G01 X-8.7300 Y-13.1174
G01 X-8.7452 Y-13.0625
G01 X-8.7577 Y-13.0070
G01 X-8.7674 Y-12.9509
G01 X-8.7744 Y-12.8944
G01 X-8.7786 Y-12.8376
G01 X-8.7800 Y-12.7807
G01 X-8.7786 Y-12.7238
G01 X-8.7744 Y-12.6670
G01 X-8.7674 Y-12.6105
G01 X-8.7577 Y-12.5544
G01 X-8.7452 Y-12.4989
G01 X-8.7300 Y-12.4440
G01 X-8.7122 Y-12.3899
G01 X-8.6917 Y-12.3368
G01 X-8.6686 Y-12.2848
G01 X-8.6430 Y-12.2339
G01 X-8.6149 Y-12.1844
G01 X-8.5845 Y-12.1363
G01 X-8.5517 Y-12.0897
G01 X-8.5167 Y-12.0448
G01 X-8.4795 Y-12.0017
G01 X-8.4402 Y-11.9605
G01 X-8.3990 Y-11.9212
G01 X-8.3559 Y-11.8840
G01 X-8.3290 Y-11.8628
G01 X-8.3202 Y-11.8546
G01 X-8.3122 Y-11.8456
G01 X-8.3003 Y-11.8288
G01 X-8.2911 Y-11.8104
G01 X-8.2842 Y-11.7892
G01 X-8.2809 Y-11.7688
G01 X-8.2804 Y-11.7568
G01 X-8.2804 Y-8.7229
G01 X-8.2811 Y-8.7109
G01 X-8.2828 Y-8.6990
G01 X-8.2886 Y-8.6774
G01 X-8.2978 Y-8.6571
G01 X-8.3040 Y-8.6468
G01 X-8.3111 Y-8.6371
G01 X-8.3190 Y-8.6281
G01 X-8.3277 Y-8.6197
G01 X-8.3559 Y-8.5974
G01 X-8.3990 Y-8.5602
G01 X-8.4402 Y-8.5209
G01 X-8.4795 Y-8.4797
G01 X-8.5167 Y-8.4366
G01 X-8.5517 Y-8.3917
G01 X-8.5845 Y-8.3451
G01 X-8.6149 Y-8.2970
G01 X-8.6430 Y-8.2475
G01 X-8.6686 Y-8.1966
G01 X-8.6917 Y-8.1446
G01 X-8.7122 Y-8.0915
G01 X-8.7300 Y-8.0374
G01 X-8.7452 Y-7.9825
G01 X-8.7577 Y-7.9270
G01 X-8.7674 Y-7.8709
G01 X-8.7744 Y-7.8144
G01 X-8.7786 Y-7.7576
G01 X-8.7800 Y-7.7007
G01 X-8.7786 Y-7.6438
G01 X-8.7744 Y-7.5870
G01 X-8.7674 Y-7.5305
G01 X-8.7577 Y-7.4744
G01 X-8.7452 Y-7.4189
G01 X-8.7300 Y-7.3640
G01 X-8.7122 Y-7.3099
G01 X-8.6917 Y-7.2568
G01 X-8.6686 Y-7.2048
G01 X-8.6430 Y-7.1539
G01 X-8.6149 Y-7.1044
G01 X-8.5845 Y-7.0563
G01 X-8.5517 Y-7.0097
G01 X-8.5167 Y-6.9648
G01 X-8.4795 Y-6.9217
G01 X-8.4402 Y-6.8805
G01 X-8.3990 Y-6.8412
G01 X-8.3559 Y-6.8040
G01 X-8.3110 Y-6.7690
G01 X-8.2644 Y-6.7362
G01 X-8.2163 Y-6.7058
G01 X-8.1668 Y-6.6777
G01 X-8.1159 Y-6.6521
G01 X-8.0639 Y-6.6290
G01 X-8.0108 Y-6.6085
G01 X-7.9567 Y-6.5907
G01 X-7.9018 Y-6.5755
G01 X-7.8463 Y-6.5630
G01 X-7.8159 Y-6.5575
G01 X-7.8042 Y-6.5542
G01 X-7.7929 Y-6.5499
G01 X-7.7821 Y-6.5447
G01 X-7.7717 Y-6.5385
G01 X-7.7619 Y-6.5315
G01 X-7.7527 Y-6.5236
G01 X-7.7442 Y-6.5150
G01 X-7.7365 Y-6.5057
G01 X-7.7245 Y-6.4868
G01 X-6.8863 Y-4.9037
G01 X-6.8775 Y-4.8834
G01 X-6.8720 Y-4.8619
G01 X-6.8700 Y-4.8399
G01 X-6.8700 Y-3.9600
G01 X-5.3300 Y-3.9600
G01 X-5.3300 Y-5.6214
G01 X-5.3282 Y-5.6419
G01 X-5.3235 Y-5.6620
G01 X-5.3158 Y-5.6811
G01 X-5.3046 Y-5.7000
G01 X-5.7291 Y-5.7000
G01 X-5.7463 Y-5.7011
G01 X-5.7616 Y-5.7038
G01 X-5.7764 Y-5.7082
G01 X-5.7907 Y-5.7143
G01 X-5.8042 Y-5.7219
G01 X-5.8169 Y-5.7309
G01 X-5.8284 Y-5.7413
G01 X-5.8387 Y-5.7529
G01 X-5.8477 Y-5.7655
G01 X-6.5572 Y-7.1049
G01 X-6.5660 Y-7.1252
G01 X-6.5715 Y-7.1468
G01 X-6.5735 Y-7.1672
G01 X-6.5722 Y-7.1894
G01 X-6.5680 Y-7.2094
G01 X-6.5629 Y-7.2240
G01 X-6.5483 Y-7.2568
G01 X-6.5278 Y-7.3099
G01 X-6.5100 Y-7.3640
G01 X-6.4948 Y-7.4189
G01 X-6.4858 Y-7.4587
G01 X-6.4812 Y-7.4735
G01 X-6.4766 Y-7.4846
G01 X-6.4701 Y-7.4967
G01 X-6.4624 Y-7.5081
G01 X-6.4537 Y-7.5187
G01 X-6.4440 Y-7.5285
G01 X-6.4334 Y-7.5372
G01 X-6.4220 Y-7.5448
G01 X-6.4099 Y-7.5513
G01 X-6.3972 Y-7.5565
G01 X-6.3840 Y-7.5605
G01 X-6.3705 Y-7.5632
G01 X-6.3569 Y-7.5646
G01 X-6.3431 Y-7.5646
G01 X-6.3295 Y-7.5632
G01 X-6.3160 Y-7.5605
G01 X-6.3028 Y-7.5565
G01 X-6.2901 Y-7.5513
G01 X-6.2780 Y-7.5448
G01 X-6.2666 Y-7.5372
G01 X-6.2560 Y-7.5285
G01 X-6.2451 Y-7.5175
G01 X-6.2355 Y-7.5053
G01 X-6.2274 Y-7.4922
G01 X-6.2207 Y-7.4783
G01 X-6.2146 Y-7.4604
G01 X-6.2052 Y-7.4189
G01 X-6.1900 Y-7.3640
G01 X-6.1722 Y-7.3099
G01 X-6.1517 Y-7.2568
G01 X-6.1286 Y-7.2048
G01 X-6.1030 Y-7.1539
G01 X-6.0749 Y-7.1044
G01 X-6.0445 Y-7.0563
G01 X-6.0117 Y-7.0097
G01 X-5.9767 Y-6.9648
G01 X-5.9395 Y-6.9217
G01 X-5.9002 Y-6.8805
G01 X-5.8590 Y-6.8412
G01 X-5.8159 Y-6.8040
G01 X-5.7710 Y-6.7690
G01 X-5.7244 Y-6.7362
G01 X-5.6763 Y-6.7058
G01 X-5.6268 Y-6.6777
G01 X-5.5759 Y-6.6521
G01 X-5.5239 Y-6.6290
G01 X-5.4708 Y-6.6085
G01 X-5.4410 Y-6.5985
G01 X-5.4254 Y-6.5914
G01 X-5.4121 Y-6.5833
G01 X-5.3999 Y-6.5738
G01 X-5.3899 Y-6.5643
G01 X-5.3799 Y-6.5525
G01 X-5.3686 Y-6.5352
G01 X-5.3601 Y-6.5164
G01 X-5.1333 Y-5.8771
G01 X-5.1300 Y-5.8620
G01 X-5.1284 Y-5.8466
G01 X-5.1286 Y-5.8312
G01 X-5.1307 Y-5.8142
G01 X-5.1349 Y-5.7975
G01 X-5.1404 Y-5.7831
G01 X-5.1474 Y-5.7694
G01 X-5.1566 Y-5.7556
G01 X-5.1410 Y-5.7508
G01 X-5.1269 Y-5.7446
G01 X-5.1135 Y-5.7369
G01 X-5.0997 Y-5.7266
G01 X-5.0884 Y-5.7160
G01 X-5.0784 Y-5.7042
G01 X-5.0698 Y-5.6914
G01 X-5.0619 Y-5.6761
G01 X-4.8381 Y-5.0474
G01 X-4.8330 Y-5.0293
G01 X-4.8307 Y-5.0141
G01 X-4.8300 Y-5.0005
G01 X-4.8300 Y-3.9600
G01 X-3.6619 Y-3.9600
G01 X-3.6448 Y-3.9589
G01 X-3.6313 Y-3.9566
G01 X-3.6180 Y-3.9529
G01 X-3.6052 Y-3.9480
G01 X-3.5929 Y-3.9418
G01 X-3.5827 Y-3.9354
G01 X-3.5718 Y-3.9271
G01 X-3.5617 Y-3.9178
G01 X-3.5526 Y-3.9075
G01 X-3.5446 Y-3.8963
G01 X-3.5377 Y-3.8845
G01 X-3.5319 Y-3.8720
G01 X-3.5275 Y-3.8590
G01 X-3.5246 Y-3.8473
G01 X-3.5226 Y-3.8337
G01 X-3.5219 Y-3.8200
G01 X-3.5226 Y-3.8063
G01 X-3.5243 Y-3.7944
G01 X-3.5270 Y-3.7827
G01 X-3.5347 Y-3.7617
G01 X-3.5401 Y-3.7510
G01 X-3.5465 Y-3.7408
G01 X-3.5537 Y-3.7312
G01 X-3.5617 Y-3.7222
G01 X-4.0463 Y-3.2378
G01 X-4.0623 Y-3.2250
G01 X-4.0801 Y-3.2146
G01 X-4.0976 Y-3.2075
G01 X-4.1176 Y-3.2025
G01 X-4.1364 Y-3.2005
G01 X-4.1752 Y-3.2005
G01 X-4.1922 Y-3.2022
G01 X-4.2073 Y-3.2055
G01 X-4.2252 Y-3.2117
G01 X-4.2420 Y-3.2203
G01 X-4.2588 Y-3.2322
G01 X-4.2726 Y-3.2451
G01 X-4.2835 Y-3.2584
G01 X-4.2935 Y-3.2744
G01 X-4.3012 Y-3.2916
G01 X-4.3066 Y-3.3097
G01 X-4.3089 Y-3.3233
G01 X-4.3099 Y-3.3352
G01 X-4.3100 Y-3.4100
G01 X-5.8500 Y-3.4100
G01 X-5.8500 Y-1.6700
G01 X-4.3100 Y-1.6700
G01 X-4.3100 Y-1.7413
G01 X-4.3093 Y-1.7533
G01 X-4.3054 Y-1.7753
G01 X-4.2980 Y-1.7963
G01 X-4.2918 Y-1.8086
G01 X-4.2845 Y-1.8202
G01 X-4.2760 Y-1.8310
G01 X-4.2665 Y-1.8410
G01 X-4.2561 Y-1.8500
G01 X-4.2449 Y-1.8579
G01 X-4.2329 Y-1.8647
G01 X-4.2204 Y-1.8702
G01 X-4.2090 Y-1.8741
G01 X-4.1973 Y-1.8769
G01 X-4.1854 Y-1.8787
G01 X-4.1734 Y-1.8796
G01 X-3.8117 Y-1.8796
G01 X-3.7776 Y-1.8804
G01 X-3.7453 Y-1.8828
G01 X-3.7131 Y-1.8868
G01 X-3.6812 Y-1.8923
G01 X-3.6495 Y-1.8994
G01 X-3.6183 Y-1.9081
G01 X-3.5875 Y-1.9182
G01 X-3.5573 Y-1.9299
G01 X-3.5277 Y-1.9430
G01 X-3.4987 Y-1.9576
G01 X-3.4705 Y-1.9736
G01 X-3.4431 Y-1.9909
G01 X-3.4166 Y-2.0096
G01 X-3.3911 Y-2.0295
G01 X-3.3665 Y-2.0507
G01 X-3.3418 Y-2.0742
G01 X-2.0742 Y-3.3418
G01 X-2.0507 Y-3.3665
G01 X-2.0295 Y-3.3911
G01 X-2.0096 Y-3.4166
G01 X-1.9909 Y-3.4431
G01 X-1.9736 Y-3.4705
G01 X-1.9576 Y-3.4987
G01 X-1.9430 Y-3.5277
G01 X-1.9299 Y-3.5573
G01 X-1.9182 Y-3.5875
G01 X-1.9081 Y-3.6183
G01 X-1.8994 Y-3.6495
G01 X-1.8923 Y-3.6812
G01 X-1.8868 Y-3.7131
G01 X-1.8828 Y-3.7453
G01 X-1.8804 Y-3.7776
G01 X-1.8796 Y-3.8117
G01 X-1.8796 Y-6.4007
G01 X-1.8791 Y-6.4127
G01 X-1.8775 Y-6.4246
G01 X-1.8725 Y-6.4446
G01 X-1.8654 Y-6.4621
G01 X-1.8550 Y-6.4799
G01 X-1.8422 Y-6.4960
G01 X-1.8271 Y-6.5100
G01 X-1.8101 Y-6.5217
G01 X-1.7916 Y-6.5307
G01 X-1.7719 Y-6.5369
G01 X-1.7567 Y-6.5396
G01 X-1.7413 Y-6.5407
G01 X-1.3800 Y-6.5407
G01 X-1.3800 Y-8.8607
G01 X-1.7413 Y-8.8607
G01 X-1.7567 Y-8.8618
G01 X-1.7736 Y-8.8649
G01 X-1.7948 Y-8.8720
G01 X-1.8130 Y-8.8815
G01 X-1.8297 Y-8.8936
G01 X-1.8456 Y-8.9093
G01 X-1.8588 Y-8.9273
G01 X-1.8683 Y-8.9455
G01 X-1.8754 Y-8.9667
G01 X-1.8789 Y-8.9870
G01 X-1.8796 Y-9.0007
G01 X-1.8794 Y-11.4876
G01 X-1.8766 Y-11.5097
G01 X-1.8702 Y-11.5311
G01 X-1.8606 Y-11.5512
G01 X-1.8478 Y-11.5695
G01 X-1.8336 Y-11.5844
G01 X-1.8159 Y-11.5981
G01 X-1.7963 Y-11.6087
G01 X-1.7753 Y-11.6161
G01 X-1.7584 Y-11.6194
G01 X-1.7413 Y-11.6207
G01 X-1.3800 Y-11.6207
G01 X-1.3800 Y-13.9407
G01 X-3.7000 Y-13.9407
G01 X-3.7000 Y-13.1702
G01 X-3.7015 Y-13.1497
G01 X-3.7038 Y-13.1379
G01 X-3.7076 Y-13.1247
G01 X-3.7120 Y-13.1135
G01 X-3.7174 Y-13.1027
G01 X-3.7236 Y-13.0925
G01 X-3.7318 Y-13.0814
G01 X-3.7398 Y-13.0725
G01 X-3.7486 Y-13.0642
G01 X-3.7580 Y-13.0568
G01 X-3.7680 Y-13.0502
G01 X-3.7786 Y-13.0444
G01 X-3.7912 Y-13.0390
G01 X-3.8043 Y-13.0349
G01 X-3.8161 Y-13.0323
G01 X-3.8280 Y-13.0308
G01 X-3.8400 Y-13.0302
G01 X-3.8554 Y-13.0311
G01 X-3.8723 Y-13.0340
G01 X-3.8888 Y-13.0390
G01 X-3.9029 Y-13.0452
G01 X-3.9178 Y-13.0538
G01 X-3.9314 Y-13.0642
G01 X-3.9426 Y-13.0750
G01 X-3.9535 Y-13.0882
G01 X-3.9626 Y-13.1027
G01 X-3.9700 Y-13.1183
G01 X-3.9878 Y-13.1715
G01 X-4.0083 Y-13.2246
G01 X-4.0314 Y-13.2766
G01 X-4.0570 Y-13.3275
G01 X-4.0851 Y-13.3770
G01 X-4.1155 Y-13.4251
G01 X-4.1483 Y-13.4717
G01 X-4.1833 Y-13.5166
G01 X-4.2205 Y-13.5597
G01 X-4.2598 Y-13.6009
G01 X-4.3010 Y-13.6402
G01 X-4.3441 Y-13.6774
G01 X-4.3890 Y-13.7124
G01 X-4.4356 Y-13.7452
G01 X-4.4837 Y-13.7756
G01 X-4.5332 Y-13.8037
G01 X-4.5841 Y-13.8293
G01 X-4.6361 Y-13.8524
G01 X-4.6892 Y-13.8729
G01 X-4.7433 Y-13.8907
G01 X-4.7982 Y-13.9059
G01 X-4.8537 Y-13.9184
G01 X-4.9098 Y-13.9281
G01 X-4.9663 Y-13.9351
G01 X-5.0231 Y-13.9393
G01 X-5.0800 Y-13.9407
G01 X-5.1369 Y-13.9393
G01 X-5.1937 Y-13.9351
G01 X-5.2502 Y-13.9281
G01 X-5.3063 Y-13.9184
G01 X-5.3618 Y-13.9059
G01 X-5.4167 Y-13.8907
G01 X-5.4708 Y-13.8729
G01 X-5.5239 Y-13.8524
G01 X-5.5759 Y-13.8293
G01 X-5.6268 Y-13.8037
G01 X-5.6763 Y-13.7756
G01 X-5.7244 Y-13.7452
G01 X-5.7710 Y-13.7124
G01 X-5.8159 Y-13.6774
G01 X-5.8590 Y-13.6402
G01 X-5.9002 Y-13.6009
G01 X-5.9395 Y-13.5597
G01 X-5.9767 Y-13.5166
G01 X-6.0117 Y-13.4717
G01 X-6.0445 Y-13.4251
G01 X-6.0749 Y-13.3770
G01 X-6.1030 Y-13.3275
G01 X-6.1286 Y-13.2766
G01 X-6.1517 Y-13.2246
G01 X-6.1722 Y-13.1715
G01 X-6.1900 Y-13.1174
G01 X-6.2052 Y-13.0625
G01 X-6.2151 Y-13.0193
G01 X-6.2213 Y-13.0015
G01 X-6.2299 Y-12.9847
G01 X-6.2396 Y-12.9705
G01 X-6.2522 Y-12.9565
G01 X-6.2652 Y-12.9453
G01 X-6.2795 Y-12.9357
G01 X-6.2964 Y-12.9273
G01 X-6.3127 Y-12.9217
G01 X-6.3295 Y-12.9182
G01 X-6.3466 Y-12.9167
G01 X-6.3637 Y-12.9174
G01 X-6.3807 Y-12.9201
G01 X-6.3972 Y-12.9249
G01 X-6.4129 Y-12.9316
G01 X-6.4278 Y-12.9403
G01 X-6.4414 Y-12.9507
G01 X-6.4549 Y-12.9639
G01 X-6.4654 Y-12.9775
G01 X-6.4743 Y-12.9922
G01 X-6.4812 Y-13.0079
G01 X-6.4866 Y-13.0260
G00 Z2.0000
G00 X-5.6902 Y-11.8458
G01 F70.00
G01 Z-0.0600
G01 F120.00
G01 X-5.6902 Y-11.8536
G01 X-5.6960 Y-11.8573
G01 X-5.6928 Y-11.8512
G01 X-5.6902 Y-11.8458
G00 Z2.0000
G00 X-5.6202 Y-11.8921
G01 F70.00
G01 Z-0.0600
G01 F120.00
G01 X-5.6578 Y-11.9160
G01 X-5.6995 Y-11.9454
G01 X-5.7398 Y-11.9768
G01 X-5.7784 Y-12.0101
G01 X-5.8154 Y-12.0453
G01 X-5.8506 Y-12.0823
G01 X-5.8839 Y-12.1209
G01 X-5.9153 Y-12.1612
G01 X-5.9447 Y-12.2029
G01 X-5.9720 Y-12.2460
G01 X-5.9972 Y-12.2904
G01 X-6.0201 Y-12.3360
G01 X-6.0408 Y-12.3827
G01 X-6.0592 Y-12.4303
G01 X-6.0752 Y-12.4788
G01 X-6.0888 Y-12.5280
G01 X-6.1000 Y-12.5778
G01 X-6.1087 Y-12.6281
G01 X-6.1150 Y-12.6788
G01 X-6.1187 Y-12.7297
G01 X-6.1200 Y-12.7807
G01 X-6.1187 Y-12.8317
G01 X-6.1150 Y-12.8826
G01 X-6.1087 Y-12.9333
G01 X-6.1000 Y-12.9836
G01 X-6.0888 Y-13.0334
G01 X-6.0752 Y-13.0826
G01 X-6.0592 Y-13.1311
G01 X-6.0408 Y-13.1787
G01 X-6.0201 Y-13.2254
G01 X-5.9972 Y-13.2710
G01 X-5.9720 Y-13.3154
G01 X-5.9447 Y-13.3585
G01 X-5.9153 Y-13.4002
G01 X-5.8839 Y-13.4405
G01 X-5.8506 Y-13.4791
G01 X-5.8154 Y-13.5161
G01 X-5.7784 Y-13.5513
G01 X-5.7398 Y-13.5846
G01 X-5.6995 Y-13.6160
G01 X-5.6578 Y-13.6454
G01 X-5.6147 Y-13.6727
G01 X-5.5703 Y-13.6979
G01 X-5.5247 Y-13.7208
G01 X-5.4780 Y-13.7415
G01 X-5.4304 Y-13.7599
G01 X-5.3819 Y-13.7759
G01 X-5.3327 Y-13.7895
G01 X-5.2829 Y-13.8007
G01 X-5.2326 Y-13.8094
G01 X-5.1819 Y-13.8157
G01 X-5.1310 Y-13.8194
G01 X-5.0800 Y-13.8207
G01 X-5.0290 Y-13.8194
G01 X-4.9781 Y-13.8157
G01 X-4.9274 Y-13.8094
G01 X-4.8771 Y-13.8007
G01 X-4.8273 Y-13.7895
G01 X-4.7781 Y-13.7759
G01 X-4.7296 Y-13.7599
G01 X-4.6820 Y-13.7415
G01 X-4.6353 Y-13.7208
G01 X-4.5897 Y-13.6979
G01 X-4.5453 Y-13.6727
G01 X-4.5022 Y-13.6454
G01 X-4.4577 Y-13.6140
G01 X-4.4202 Y-13.5846
G01 X-4.3842 Y-13.5536
G01 X-4.3446 Y-13.5161
G01 X-4.3071 Y-13.4765
G01 X-4.2761 Y-13.4405
G01 X-4.2467 Y-13.4030
G01 X-4.2153 Y-13.3585
G01 X-4.1862 Y-13.3124
G01 X-4.1628 Y-13.2710
G01 X-4.1414 Y-13.2284
G01 X-4.1192 Y-13.1787
G01 X-4.0997 Y-13.1278
G01 X-4.0848 Y-13.0826
G01 X-4.0720 Y-13.0367
G01 X-4.0600 Y-12.9836
G01 X-4.0508 Y-12.9299
G01 X-4.0450 Y-12.8826
G01 X-4.0415 Y-12.8352
G01 X-4.0400 Y-12.7807
G01 X-4.0413 Y-12.7297
G01 X-4.0454 Y-12.6753
G01 X-4.0513 Y-12.6281
G01 X-4.0594 Y-12.5812
G01 X-4.0712 Y-12.5280
G01 X-4.0858 Y-12.4755
G01 X-4.1008 Y-12.4303
G01 X-4.1179 Y-12.3859
G01 X-4.1399 Y-12.3360
G01 X-4.1645 Y-12.2874
G01 X-4.1880 Y-12.2460
G01 X-4.2134 Y-12.2058
G01 X-4.2427 Y-12.1640
G01 X-4.2761 Y-12.1209
G01 X-4.3117 Y-12.0798
G01 X-4.3446 Y-12.0453
G01 X-4.3791 Y-12.0124
G01 X-4.4202 Y-11.9768
G01 X-4.4633 Y-11.9434
G01 X-4.5022 Y-11.9160
G01 X-4.5398 Y-11.8921
G01 X-4.5398 Y-8.5893
G01 X-4.5022 Y-8.5654
G01 X-4.4605 Y-8.5360
G01 X-4.4202 Y-8.5046
G01 X-4.3816 Y-8.4713
G01 X-4.3446 Y-8.4361
G01 X-4.3094 Y-8.3991
G01 X-4.2761 Y-8.3605
G01 X-4.2447 Y-8.3202
G01 X-4.2153 Y-8.2785
G01 X-4.1880 Y-8.2354
G01 X-4.1628 Y-8.1910
G01 X-4.1399 Y-8.1454
G01 X-4.1192 Y-8.0987
G01 X-4.1008 Y-8.0511
G01 X-4.0848 Y-8.0026
G01 X-4.0716 Y-7.9551
G01 X-4.0600 Y-7.9036
G01 X-4.0508 Y-7.8499
G01 X-4.0447 Y-7.7992
G01 X-4.0413 Y-7.7517
G01 X-4.0400 Y-7.7041
G01 X-4.0413 Y-7.6497
G01 X-4.0450 Y-7.5988
G01 X-4.0513 Y-7.5481
G01 X-4.0607 Y-7.4944
G01 X-4.0712 Y-7.4480
G01 X-4.0838 Y-7.4021
G01 X-4.0997 Y-7.3536
G01 X-4.1192 Y-7.3027
G01 X-4.1399 Y-7.2560
G01 X-4.1628 Y-7.2104
G01 X-4.1898 Y-7.1631
G01 X-4.2172 Y-7.1201
G01 X-4.2447 Y-7.0812
G01 X-4.2735 Y-7.0442
G01 X-3.7532 Y-5.5800
G01 X-3.5466 Y-5.5800
G01 X-3.5261 Y-5.5779
G01 X-3.5077 Y-5.5735
G01 X-3.4917 Y-5.5673
G01 X-3.4751 Y-5.5583
G01 X-3.4599 Y-5.5471
G01 X-3.4474 Y-5.5353
G01 X-3.4355 Y-5.5206
G01 X-3.4257 Y-5.5045
G01 X-3.4188 Y-5.4888
G01 X-3.4134 Y-5.4707
G01 X-3.4109 Y-5.4554
G01 X-3.4100 Y-5.4400
G01 X-3.4104 Y-4.2097
G01 X-3.4134 Y-4.1893
G01 X-3.4200 Y-4.1680
G01 X-3.4299 Y-4.1480
G01 X-3.4429 Y-4.1299
G01 X-3.4586 Y-4.1140
G01 X-3.4751 Y-4.1017
G01 X-3.4948 Y-4.0913
G01 X-3.5143 Y-4.0846
G01 X-3.5329 Y-4.0811
G01 X-3.5500 Y-4.0800
G01 X-4.5769 Y-4.0802
G01 X-4.5922 Y-4.0818
G01 X-4.6073 Y-4.0851
G01 X-4.6204 Y-4.0894
G01 X-4.6345 Y-4.0957
G01 X-4.6478 Y-4.1036
G01 X-4.6601 Y-4.1129
G01 X-4.6714 Y-4.1235
G01 X-4.6814 Y-4.1352
G01 X-4.6935 Y-4.1540
G01 X-4.7018 Y-4.1728
G01 X-4.7073 Y-4.1927
G01 X-4.7099 Y-4.2148
G01 X-4.7100 Y-5.0459
G01 X-5.2915 Y-6.6826
G01 X-5.3327 Y-6.6919
G01 X-5.3786 Y-6.7045
G01 X-5.4304 Y-6.7215
G01 X-5.4780 Y-6.7399
G01 X-5.5215 Y-6.7591
G01 X-5.5703 Y-6.7835
G01 X-5.6176 Y-6.8105
G01 X-5.6578 Y-6.8360
G01 X-5.6995 Y-6.8654
G01 X-5.7424 Y-6.8990
G01 X-5.7784 Y-6.9301
G01 X-5.8129 Y-6.9629
G01 X-5.8529 Y-7.0049
G01 X-5.8839 Y-7.0409
G01 X-5.9133 Y-7.0784
G01 X-5.9447 Y-7.1229
G01 X-5.9738 Y-7.1690
G01 X-5.9972 Y-7.2104
G01 X-6.0186 Y-7.2530
G01 X-6.0408 Y-7.3027
G01 X-6.0603 Y-7.3536
G01 X-6.0752 Y-7.3988
G01 X-6.0884 Y-7.4463
G01 X-6.1006 Y-7.5012
G01 X-6.1087 Y-7.5481
G01 X-6.1150 Y-7.5988
G01 X-6.1187 Y-7.6497
G01 X-6.1200 Y-7.6973
G01 X-6.1185 Y-7.7552
G01 X-6.1150 Y-7.8026
G01 X-6.1087 Y-7.8533
G01 X-6.1000 Y-7.9036
G01 X-6.0896 Y-7.9501
G01 X-6.0742 Y-8.0059
G01 X-6.0592 Y-8.0511
G01 X-6.0408 Y-8.0987
G01 X-6.0201 Y-8.1454
G01 X-5.9988 Y-8.1879
G01 X-5.9720 Y-8.2354
G01 X-5.9447 Y-8.2785
G01 X-5.9173 Y-8.3174
G01 X-5.8817 Y-8.3631
G01 X-5.8506 Y-8.3991
G01 X-5.8178 Y-8.4336
G01 X-5.7758 Y-8.4736
G01 X-5.7398 Y-8.5046
G01 X-5.6995 Y-8.5360
G01 X-5.6578 Y-8.5654
G01 X-5.6202 Y-8.5893
G01 X-5.6202 Y-11.8921
G00 Z2.0000
G00 X-5.5502 Y-11.9325
G01 F70.00
G01 Z-0.0600
G01 F120.00
G01 X-5.5787 Y-11.9487
G01 X-5.6196 Y-11.9747
G01 X-5.6578 Y-12.0016
G01 X-5.6960 Y-12.0314
G01 X-5.7314 Y-12.0620
G01 X-5.7659 Y-12.0948
G01 X-5.7987 Y-12.1293
G01 X-5.8304 Y-12.1660
G01 X-5.8591 Y-12.2029
G01 X-5.8865 Y-12.2418
G01 X-5.9120 Y-12.2820
G01 X-5.9355 Y-12.3234
G01 X-5.9569 Y-12.3660
G01 X-5.9762 Y-12.4095
G01 X-5.9933 Y-12.4539
G01 X-6.0085 Y-12.4999
G01 X-6.0209 Y-12.5450
G01 X-6.0314 Y-12.5915
G01 X-6.0395 Y-12.6384
G01 X-6.0453 Y-12.6856
G01 X-6.0488 Y-12.7331
G01 X-6.0500 Y-12.7807
G01 X-6.0488 Y-12.8283
G01 X-6.0453 Y-12.8758
G01 X-6.0395 Y-12.9230
G01 X-6.0314 Y-12.9699
G01 X-6.0209 Y-13.0164
G01 X-6.0082 Y-13.0623
G01 X-5.9933 Y-13.1075
G01 X-5.9762 Y-13.1519
G01 X-5.9569 Y-13.1954
G01 X-5.9351 Y-13.2387
G01 X-5.9120 Y-13.2794
G01 X-5.8865 Y-13.3196
G01 X-5.8591 Y-13.3585
G01 X-5.8298 Y-13.3961
G01 X-5.7987 Y-13.4321
G01 X-5.7659 Y-13.4666
G01 X-5.7314 Y-13.4994
G01 X-5.6954 Y-13.5305
G01 X-5.6578 Y-13.5598
G01 X-5.6189 Y-13.5872
G01 X-5.5787 Y-13.6127
G01 X-5.5373 Y-13.6362
G01 X-5.4947 Y-13.6576
G01 X-5.4512 Y-13.6769
G01 X-5.4068 Y-13.6940
G01 X-5.3616 Y-13.7089
G01 X-5.3157 Y-13.7216
G01 X-5.2692 Y-13.7321
G01 X-5.2223 Y-13.7402
G01 X-5.1751 Y-13.7460
G01 X-5.1276 Y-13.7495
G01 X-5.0800 Y-13.7507
G01 X-5.0324 Y-13.7495
G01 X-4.9849 Y-13.7460
G01 X-4.9377 Y-13.7402
G01 X-4.8908 Y-13.7321
G01 X-4.8443 Y-13.7216
G01 X-4.7984 Y-13.7089
G01 X-4.7532 Y-13.6940
G01 X-4.7088 Y-13.6769
G01 X-4.6653 Y-13.6576
G01 X-4.6220 Y-13.6358
G01 X-4.5813 Y-13.6127
G01 X-4.5425 Y-13.5882
G01 X-4.5022 Y-13.5598
G01 X-4.4633 Y-13.5294
G01 X-4.4286 Y-13.4994
G01 X-4.3953 Y-13.4678
G01 X-4.3613 Y-13.4321
G01 X-4.3291 Y-13.3947
G01 X-4.3009 Y-13.3585
G01 X-4.2744 Y-13.3210
G01 X-4.2480 Y-13.2794
G01 X-4.2237 Y-13.2364
G01 X-4.2031 Y-13.1954
G01 X-4.1845 Y-13.1535
G01 X-4.1667 Y-13.1075
G01 X-4.1513 Y-13.0606
G01 X-4.1391 Y-13.0164
G01 X-4.1290 Y-12.9716
G01 X-4.1205 Y-12.9230
G01 X-4.1145 Y-12.8741
G01 X-4.1112 Y-12.8283
G01 X-4.1100 Y-12.7807
G01 X-4.1113 Y-12.7314
G01 X-4.1147 Y-12.6856
G01 X-4.1203 Y-12.6401
G01 X-4.1286 Y-12.5915
G01 X-4.1395 Y-12.5433
G01 X-4.1518 Y-12.4991
G01 X-4.1661 Y-12.4555
G01 X-4.1838 Y-12.4095
G01 X-4.2039 Y-12.3644
G01 X-4.2245 Y-12.3234
G01 X-4.2476 Y-12.2828
G01 X-4.2735 Y-12.2418
G01 X-4.3019 Y-12.2015
G01 X-4.3302 Y-12.1653
G01 X-4.3601 Y-12.1306
G01 X-4.3947 Y-12.0942
G01 X-4.4299 Y-12.0608
G01 X-4.4646 Y-12.0309
G01 X-4.5015 Y-12.0021
G01 X-4.5418 Y-11.9737
G01 X-4.5813 Y-11.9487
G01 X-4.6098 Y-11.9325
G01 X-4.6098 Y-8.5489
G01 X-4.5813 Y-8.5327
G01 X-4.5425 Y-8.5082
G01 X-4.5029 Y-8.4803
G01 X-4.4646 Y-8.4505
G01 X-4.4292 Y-8.4200
G01 X-4.3941 Y-8.3866
G01 X-4.3613 Y-8.3521
G01 X-4.3302 Y-8.3161
G01 X-4.3014 Y-8.2792
G01 X-4.2735 Y-8.2396
G01 X-4.2480 Y-8.1994
G01 X-4.2245 Y-8.1580
G01 X-4.2031 Y-8.1154
G01 X-4.1838 Y-8.0719
G01 X-4.1667 Y-8.0275
G01 X-4.1518 Y-7.9823
G01 X-4.1393 Y-7.9372
G01 X-4.1286 Y-7.8899
G01 X-4.1203 Y-7.8413
G01 X-4.1147 Y-7.7958
G01 X-4.1113 Y-7.7500
G01 X-4.1100 Y-7.7007
G01 X-4.1112 Y-7.6531
G01 X-4.1149 Y-7.6039
G01 X-4.1205 Y-7.5584
G01 X-4.1283 Y-7.5132
G01 X-4.1389 Y-7.4658
G01 X-4.1518 Y-7.4191
G01 X-4.1673 Y-7.3723
G01 X-4.1838 Y-7.3295
G01 X-4.2024 Y-7.2875
G01 X-4.2241 Y-7.2442
G01 X-4.2480 Y-7.2020
G01 X-4.2744 Y-7.1604
G01 X-4.3019 Y-7.1215
G01 X-4.3302 Y-7.0853
G01 X-4.3530 Y-7.0589
G01 X-3.8026 Y-5.5100
G01 X-3.5500 Y-5.5100
G01 X-3.5389 Y-5.5091
G01 X-3.5289 Y-5.5067
G01 X-3.5193 Y-5.5029
G01 X-3.5104 Y-5.4977
G01 X-3.5024 Y-5.4913
G01 X-3.4953 Y-5.4837
G01 X-3.4895 Y-5.4752
G01 X-3.4850 Y-5.4660
G01 X-3.4821 Y-5.4570
G01 X-3.4805 Y-5.4486
G01 X-3.4800 Y-5.4400
G01 X-3.4800 Y-4.2174
G01 X-3.4813 Y-4.2063
G01 X-3.4844 Y-4.1956
G01 X-3.4891 Y-4.1855
G01 X-3.4953 Y-4.1763
G01 X-3.5030 Y-4.1681
G01 X-3.5118 Y-4.1613
G01 X-3.5216 Y-4.1560
G01 X-3.5322 Y-4.1523
G01 X-3.5414 Y-4.1505
G01 X-3.5500 Y-4.1500
G01 X-4.5717 Y-4.1500
G01 X-4.5870 Y-4.1521
G01 X-4.6015 Y-4.1575
G01 X-4.6144 Y-4.1659
G01 X-4.6257 Y-4.1776
G01 X-4.6317 Y-4.1870
G01 X-4.6362 Y-4.1972
G01 X-4.6390 Y-4.2080
G01 X-4.6400 Y-4.2191
G01 X-4.6400 Y-5.0580
G01 X-5.2391 Y-6.7441
G01 X-5.2692 Y-6.7493
G01 X-5.3149 Y-6.7596
G01 X-5.3624 Y-6.7727
G01 X-5.4068 Y-6.7874
G01 X-5.4496 Y-6.8039
G01 X-5.4955 Y-6.8242
G01 X-5.5373 Y-6.8452
G01 X-5.5772 Y-6.8678
G01 X-5.6189 Y-6.8942
G01 X-5.6578 Y-6.9216
G01 X-5.6940 Y-6.9498
G01 X-5.7320 Y-6.9826
G01 X-5.7659 Y-7.0148
G01 X-5.7976 Y-7.0480
G01 X-5.8298 Y-7.0853
G01 X-5.8601 Y-7.1243
G01 X-5.8865 Y-7.1618
G01 X-5.9120 Y-7.2020
G01 X-5.9355 Y-7.2434
G01 X-5.9561 Y-7.2844
G01 X-5.9762 Y-7.3295
G01 X-5.9939 Y-7.3755
G01 X-6.0082 Y-7.4191
G01 X-6.0207 Y-7.4642
G01 X-6.0314 Y-7.5115
G01 X-6.0392 Y-7.5567
G01 X-6.0455 Y-7.6073
G01 X-6.0488 Y-7.6531
G01 X-6.0500 Y-7.7007
G01 X-6.0488 Y-7.7483
G01 X-6.0455 Y-7.7941
G01 X-6.0392 Y-7.8447
G01 X-6.0314 Y-7.8899
G01 X-6.0209 Y-7.9364
G01 X-6.0082 Y-7.9823
G01 X-5.9939 Y-8.0259
G01 X-5.9758 Y-8.0727
G01 X-5.9569 Y-8.1154
G01 X-5.9355 Y-8.1580
G01 X-5.9120 Y-8.1994
G01 X-5.8875 Y-8.2382
G01 X-5.8581 Y-8.2799
G01 X-5.8298 Y-8.3161
G01 X-5.7993 Y-8.3515
G01 X-5.7659 Y-8.3866
G01 X-5.7327 Y-8.4183
G01 X-5.6947 Y-8.4511
G01 X-5.6578 Y-8.4798
G01 X-5.6189 Y-8.5072
G01 X-5.5787 Y-8.5327
G01 X-5.5502 Y-8.5489
G01 X-5.5502 Y-11.9325
G00 Z2.0000
G00 X-4.4640 Y-11.8573
G01 F70.00
G01 Z-0.0600
G01 F120.00
G01 X-4.4698 Y-11.8536
G01 X-4.4698 Y-11.8458
G01 X-4.4672 Y-11.8512
G01 X-4.4640 Y-11.8573
G00 Z2.0000
G00 X-3.5294 Y-11.6907
G01 F70.00
G01 Z-0.0600
G01 F120.00
G01 X-3.5457 Y-11.6993
G01 X-3.5609 Y-11.7090
G01 X-3.5752 Y-11.7200
G01 X-3.5885 Y-11.7322
G01 X-3.6007 Y-11.7455
G01 X-3.6117 Y-11.7598
G01 X-3.6214 Y-11.7750
G01 X-3.6300 Y-11.7913
G01 X-3.6300 Y-11.6907
G01 X-3.5294 Y-11.6907
G00 Z2.0000
G00 X-3.1502 Y-11.5697
G01 F70.00
G01 Z-0.0600
G01 F120.00
G01 X-3.1502 Y-11.6707
G01 X-3.2510 Y-11.6707
G01 X-3.2347 Y-11.6621
G01 X-3.2195 Y-11.6524
G01 X-3.2052 Y-11.6414
G01 X-3.1919 Y-11.6292
G01 X-3.1797 Y-11.6159
G01 X-3.1687 Y-11.6016
G01 X-3.1590 Y-11.5864
G01 X-3.1502 Y-11.5697
G00 Z2.0000
G00 X-3.6500 Y-12.4806
G01 F70.00
G01 Z-0.0600
G01 F120.00
G01 X-3.6500 Y-13.0808
G01 X-3.6626 Y-13.0579
G01 X-3.6777 Y-13.0370
G01 X-3.6952 Y-13.0182
G01 X-3.7149 Y-13.0016
G01 X-3.7365 Y-12.9875
G01 X-3.7596 Y-12.9762
G01 X-3.7840 Y-12.9679
G01 X-3.8117 Y-12.9622
G01 X-3.8374 Y-12.9603
G01 X-3.8631 Y-12.9615
G01 X-3.8910 Y-12.9665
G01 X-3.9156 Y-12.9743
G01 X-3.9390 Y-12.9850
G01 X-3.9609 Y-12.9986
G01 X-3.9810 Y-13.0146
G01 X-3.9994 Y-13.0336
G01 X-3.9913 Y-12.9973
G01 X-3.9828 Y-12.9487
G01 X-3.9756 Y-12.8921
G01 X-3.9713 Y-12.8352
G01 X-3.9700 Y-12.7807
G01 X-3.9713 Y-12.7262
G01 X-3.9756 Y-12.6693
G01 X-3.9828 Y-12.6127
G01 X-3.9913 Y-12.5641
G01 X-3.9994 Y-12.5278
G01 X-3.9810 Y-12.5468
G01 X-3.9609 Y-12.5628
G01 X-3.9390 Y-12.5764
G01 X-3.9156 Y-12.5871
G01 X-3.8910 Y-12.5949
G01 X-3.8657 Y-12.5996
G01 X-3.8400 Y-12.6012
G01 X-3.8117 Y-12.5992
G01 X-3.7865 Y-12.5942
G01 X-3.7596 Y-12.5852
G01 X-3.7365 Y-12.5739
G01 X-3.7149 Y-12.5598
G01 X-3.6952 Y-12.5432
G01 X-3.6777 Y-12.5244
G01 X-3.6626 Y-12.5035
G01 X-3.6500 Y-12.4806
G00 Z2.0000
G00 X-3.7200 Y-12.6441
G01 F70.00
G01 Z-0.0600
G01 F120.00
G01 X-3.7200 Y-12.9173
G01 X-3.7424 Y-12.9078
G01 X-3.7653 Y-12.9004
G01 X-3.7887 Y-12.8950
G01 X-3.8126 Y-12.8916
G01 X-3.8366 Y-12.8903
G01 X-3.8606 Y-12.8910
G01 X-3.8845 Y-12.8938
G01 X-3.9059 Y-12.8981
G01 X-3.9014 Y-12.8386
G01 X-3.9000 Y-12.7807
G01 X-3.9014 Y-12.7228
G01 X-3.9059 Y-12.6633
G01 X-3.8845 Y-12.6676
G01 X-3.8606 Y-12.6704
G01 X-3.8366 Y-12.6711
G01 X-3.8126 Y-12.6698
G01 X-3.7887 Y-12.6664
G01 X-3.7653 Y-12.6610
G01 X-3.7424 Y-12.6536
G01 X-3.7200 Y-12.6441
G00 Z2.0000
G00 X-3.5294 Y-13.8707
G01 F70.00
G01 Z-0.0600
G01 F120.00
G01 X-3.6300 Y-13.8707
G01 X-3.6300 Y-13.7701
G01 X-3.6214 Y-13.7864
G01 X-3.6117 Y-13.8016
G01 X-3.6007 Y-13.8159
G01 X-3.5885 Y-13.8292
G01 X-3.5752 Y-13.8414
G01 X-3.5609 Y-13.8524
G01 X-3.5457 Y-13.8621
G01 X-3.5294 Y-13.8707
G00 Z2.0000
G00 X-1.4500 Y-13.7701
G01 F70.00
G01 Z-0.0600
G01 F120.00
G01 X-1.4500 Y-13.8707
G01 X-1.5506 Y-13.8707
G01 X-1.5343 Y-13.8621
G01 X-1.5191 Y-13.8524
G01 X-1.5048 Y-13.8414
G01 X-1.4915 Y-13.8292
G01 X-1.4793 Y-13.8159
G01 X-1.4683 Y-13.8016
G01 X-1.4586 Y-13.7864
G01 X-1.4500 Y-13.7701
G00 Z2.0000
G00 X-1.5506 Y-11.6907
G01 F70.00
G01 Z-0.0600
G01 F120.00
G01 X-1.4500 Y-11.6907
G01 X-1.4500 Y-11.7913
G01 X-1.4586 Y-11.7750
G01 X-1.4683 Y-11.7598
G01 X-1.4793 Y-11.7455
G01 X-1.4915 Y-11.7322
G01 X-1.5048 Y-11.7200
G01 X-1.5191 Y-11.7090
G01 X-1.5343 Y-11.6993
G01 X-1.5506 Y-11.6907
G00 Z2.0000
G00 X-1.9298 Y-11.5697
G01 F70.00
G01 Z-0.0600
G01 F120.00
G01 X-1.9210 Y-11.5864
G01 X-1.9113 Y-11.6016
G01 X-1.9003 Y-11.6159
G01 X-1.8881 Y-11.6292
G01 X-1.8748 Y-11.6414
G01 X-1.8605 Y-11.6524
G01 X-1.8453 Y-11.6621
G01 X-1.8290 Y-11.6707
G01 X-1.9298 Y-11.6707
G01 X-1.9298 Y-11.5697
G00 Z2.0000
G00 X-1.8290 Y-8.8107
G01 F70.00
G01 Z-0.0600
G01 F120.00
G01 X-1.8453 Y-8.8193
G01 X-1.8605 Y-8.8290
G01 X-1.8748 Y-8.8400
G01 X-1.8881 Y-8.8522
G01 X-1.9003 Y-8.8655
G01 X-1.9113 Y-8.8798
G01 X-1.9210 Y-8.8950
G01 X-1.9298 Y-8.9117
G01 X-1.9298 Y-8.8107
G01 X-1.8290 Y-8.8107
G00 Z2.0000
G00 X-1.4500 Y-8.6901
G01 F70.00
G01 Z-0.0600
G01 F120.00
G01 X-1.4500 Y-8.7907
G01 X-1.5506 Y-8.7907
G01 X-1.5343 Y-8.7821
G01 X-1.5191 Y-8.7724
G01 X-1.5048 Y-8.7614
G01 X-1.4915 Y-8.7492
G01 X-1.4793 Y-8.7359
G01 X-1.4683 Y-8.7216
G01 X-1.4586 Y-8.7064
G01 X-1.4500 Y-8.6901
G00 Z2.0000
G00 X-1.5506 Y-6.6107
G01 F70.00
G01 Z-0.0600
G01 F120.00
G01 X-1.4500 Y-6.6107
G01 X-1.4500 Y-6.7113
G01 X-1.4586 Y-6.6950
G01 X-1.4683 Y-6.6798
G01 X-1.4793 Y-6.6655
G01 X-1.4915 Y-6.6522
G01 X-1.5048 Y-6.6400
G01 X-1.5191 Y-6.6290
G01 X-1.5343 Y-6.6193
G01 X-1.5506 Y-6.6107
G00 Z2.0000
G00 X-1.9298 Y-6.4897
G01 F70.00
G01 Z-0.0600
G01 F120.00
G01 X-1.9210 Y-6.5064
G01 X-1.9113 Y-6.5216
G01 X-1.9003 Y-6.5359
G01 X-1.8881 Y-6.5492
G01 X-1.8748 Y-6.5614
G01 X-1.8605 Y-6.5724
G01 X-1.8453 Y-6.5821
G01 X-1.8290 Y-6.5907
G01 X-1.9298 Y-6.5907
G01 X-1.9298 Y-6.4897
G00 Z2.0000
G00 X-6.8000 Y-4.1306
G01 F70.00
G01 Z-0.0600
G01 F120.00
G01 X-6.8000 Y-4.0300
G01 X-6.6994 Y-4.0300
G01 X-6.7157 Y-4.0386
G01 X-6.7309 Y-4.0483
G01 X-6.7452 Y-4.0593
G01 X-6.7585 Y-4.0715
G01 X-6.7707 Y-4.0848
G01 X-6.7817 Y-4.0991
G01 X-6.7914 Y-4.1143
G01 X-6.8000 Y-4.1306
G00 Z2.0000
M05
G00 Z2.0000
G00 Z25.00

