(G-CODE GENERATED BY FLATCAM v8.993 - www.flatcam.org - Version Date: 2020/06/05)

(Name: Yashma_Screen_Glass v0.dxf_iso_combined_cnc)
(Type: G-code from Geometry)
(Units: MM)

(Created on Wednesday, 04 November 2020 at 18:17)

(This preprocessor is the default preprocessor used by FlatCAM.)
(It is made to work with MACH3 compatible motion controllers.)

(TOOL DIAMETER: 2.0 mm)
(Feedrate_XY: 60.0 mm/min)
(Feedrate_Z: 60.0 mm/min)
(Feedrate rapids 1500.0 mm/min)

(Z_Cut: -1.0 mm)
(DepthPerCut: 0.1 mm <=>10 passes)
(Z_Move: 2.0 mm)
(Z Start: None mm)
(Z End: 25.0 mm)
(Steps per circle: 128)
(Preprocessor Geometry: default)

(X range:    9.0000 ...   62.0000  mm)
(Y range:  -22.9000 ...  -11.0000  mm)

(Spindle Speed: 10000 RPM)
G21
G90
G94



G01 F60.00
G00 Z2.0000

M03 S10000
G00 X9.4142 Y-11.0000
G01 F60.00
G01 Z-0.1000
G01 F60.00
G01 X61.5858 Y-11.0000
G01 X62.0000 Y-11.4142
G01 X62.0000 Y-22.4858
G01 X61.5858 Y-22.9000
G01 X9.4142 Y-22.9000
G01 X9.0000 Y-22.4858
G01 X9.0000 Y-11.4142
G01 X9.4142 Y-11.0000
G00 X9.4142 Y-11.0000
G01 F60.00
G01 Z-0.2000
G01 F60.00
G01 X61.5858 Y-11.0000
G01 X62.0000 Y-11.4142
G01 X62.0000 Y-22.4858
G01 X61.5858 Y-22.9000
G01 X9.4142 Y-22.9000
G01 X9.0000 Y-22.4858
G01 X9.0000 Y-11.4142
G01 X9.4142 Y-11.0000
G00 X9.4142 Y-11.0000
G01 F60.00
G01 Z-0.3000
G01 F60.00
G01 X61.5858 Y-11.0000
G01 X62.0000 Y-11.4142
G01 X62.0000 Y-22.4858
G01 X61.5858 Y-22.9000
G01 X9.4142 Y-22.9000
G01 X9.0000 Y-22.4858
G01 X9.0000 Y-11.4142
G01 X9.4142 Y-11.0000
G00 X9.4142 Y-11.0000
G01 F60.00
G01 Z-0.4000
G01 F60.00
G01 X61.5858 Y-11.0000
G01 X62.0000 Y-11.4142
G01 X62.0000 Y-22.4858
G01 X61.5858 Y-22.9000
G01 X9.4142 Y-22.9000
G01 X9.0000 Y-22.4858
G01 X9.0000 Y-11.4142
G01 X9.4142 Y-11.0000
G00 X9.4142 Y-11.0000
G01 F60.00
G01 Z-0.5000
G01 F60.00
G01 X61.5858 Y-11.0000
G01 X62.0000 Y-11.4142
G01 X62.0000 Y-22.4858
G01 X61.5858 Y-22.9000
G01 X9.4142 Y-22.9000
G01 X9.0000 Y-22.4858
G01 X9.0000 Y-11.4142
G01 X9.4142 Y-11.0000
G00 X9.4142 Y-11.0000
G01 F60.00
G01 Z-0.6000
G01 F60.00
G01 X61.5858 Y-11.0000
G01 X62.0000 Y-11.4142
G01 X62.0000 Y-22.4858
G01 X61.5858 Y-22.9000
G01 X9.4142 Y-22.9000
G01 X9.0000 Y-22.4858
G01 X9.0000 Y-11.4142
G01 X9.4142 Y-11.0000
G00 X9.4142 Y-11.0000
G01 F60.00
G01 Z-0.7000
G01 F60.00
G01 X61.5858 Y-11.0000
G01 X62.0000 Y-11.4142
G01 X62.0000 Y-22.4858
G01 X61.5858 Y-22.9000
G01 X9.4142 Y-22.9000
G01 X9.0000 Y-22.4858
G01 X9.0000 Y-11.4142
G01 X9.4142 Y-11.0000
G00 X9.4142 Y-11.0000
G01 F60.00
G01 Z-0.8000
G01 F60.00
G01 X61.5858 Y-11.0000
G01 X62.0000 Y-11.4142
G01 X62.0000 Y-22.4858
G01 X61.5858 Y-22.9000
G01 X9.4142 Y-22.9000
G01 X9.0000 Y-22.4858
G01 X9.0000 Y-11.4142
G01 X9.4142 Y-11.0000
G00 X9.4142 Y-11.0000
G01 F60.00
G01 Z-0.9000
G01 F60.00
G01 X61.5858 Y-11.0000
G01 X62.0000 Y-11.4142
G01 X62.0000 Y-22.4858
G01 X61.5858 Y-22.9000
G01 X9.4142 Y-22.9000
G01 X9.0000 Y-22.4858
G01 X9.0000 Y-11.4142
G01 X9.4142 Y-11.0000
G00 X9.4142 Y-11.0000
G01 F60.00
G01 Z-1.0000
G01 F60.00
G01 X61.5858 Y-11.0000
G01 X62.0000 Y-11.4142
G01 X62.0000 Y-22.4858
G01 X61.5858 Y-22.9000
G01 X9.4142 Y-22.9000
G01 X9.0000 Y-22.4858
G01 X9.0000 Y-11.4142
G01 X9.4142 Y-11.0000
G00 Z2.0000
G00 X20.4284 Y-12.0000
G01 F60.00
G01 Z-0.1000
G01 F60.00
G01 X30.0716 Y-12.0000
G01 X29.9685 Y-12.1032
G01 X29.9347 Y-12.1388
G01 X29.9017 Y-12.1752
G01 X29.8697 Y-12.2123
G01 X29.8385 Y-12.2503
G01 X29.8083 Y-12.2890
G01 X29.7791 Y-12.3284
G01 X29.7508 Y-12.3685
G01 X29.7236 Y-12.4094
G01 X29.6973 Y-12.4508
G01 X29.6721 Y-12.4929
G01 X29.6479 Y-12.5356
G01 X29.6247 Y-12.5789
G01 X29.5920 Y-12.6449
G01 X29.5716 Y-12.6895
G01 X29.5522 Y-12.7346
G01 X29.5340 Y-12.7802
G01 X29.5088 Y-12.8494
G01 X29.4934 Y-12.8960
G01 X29.4791 Y-12.9430
G01 X29.4660 Y-12.9903
G01 X29.4541 Y-13.0379
G01 X29.4434 Y-13.0858
G01 X29.4338 Y-13.1339
G01 X29.4254 Y-13.1823
G01 X29.4182 Y-13.2308
G01 X29.4122 Y-13.2796
G01 X29.4054 Y-13.3529
G01 X29.4024 Y-13.4019
G01 X29.4006 Y-13.4509
G01 X29.4000 Y-13.5000
G01 X29.4000 Y-20.4000
G01 X29.4006 Y-20.4491
G01 X29.4024 Y-20.4981
G01 X29.4074 Y-20.5716
G01 X29.4122 Y-20.6204
G01 X29.4182 Y-20.6692
G01 X29.4254 Y-20.7177
G01 X29.4338 Y-20.7661
G01 X29.4486 Y-20.8382
G01 X29.4599 Y-20.8860
G01 X29.4724 Y-20.9334
G01 X29.4861 Y-20.9806
G01 X29.5009 Y-21.0274
G01 X29.5169 Y-21.0738
G01 X29.5340 Y-21.1198
G01 X29.5522 Y-21.1654
G01 X29.5716 Y-21.2105
G01 X29.5920 Y-21.2551
G01 X29.6136 Y-21.2992
G01 X29.6362 Y-21.3428
G01 X29.6598 Y-21.3858
G01 X29.6845 Y-21.4282
G01 X29.7103 Y-21.4700
G01 X29.7508 Y-21.5315
G01 X29.7791 Y-21.5716
G01 X29.8083 Y-21.6110
G01 X29.8540 Y-21.6688
G01 X29.8856 Y-21.7063
G01 X29.9181 Y-21.7431
G01 X29.9685 Y-21.7968
G01 X30.0716 Y-21.9000
G01 X20.4284 Y-21.9000
G01 X20.5315 Y-21.7968
G01 X20.5819 Y-21.7431
G01 X20.6144 Y-21.7063
G01 X20.6460 Y-21.6688
G01 X20.6917 Y-21.6110
G01 X20.7352 Y-21.5516
G01 X20.7629 Y-21.5111
G01 X20.7897 Y-21.4700
G01 X20.8155 Y-21.4282
G01 X20.8402 Y-21.3858
G01 X20.8638 Y-21.3428
G01 X20.8864 Y-21.2992
G01 X20.9080 Y-21.2551
G01 X20.9284 Y-21.2105
G01 X20.9478 Y-21.1654
G01 X20.9660 Y-21.1198
G01 X20.9831 Y-21.0738
G01 X20.9991 Y-21.0274
G01 X21.0209 Y-20.9570
G01 X21.0340 Y-20.9097
G01 X21.0459 Y-20.8621
G01 X21.0566 Y-20.8142
G01 X21.0662 Y-20.7661
G01 X21.0746 Y-20.7177
G01 X21.0818 Y-20.6692
G01 X21.0878 Y-20.6204
G01 X21.0926 Y-20.5716
G01 X21.0976 Y-20.4981
G01 X21.0994 Y-20.4491
G01 X21.1000 Y-20.4000
G01 X21.1000 Y-13.5000
G01 X21.0994 Y-13.4509
G01 X21.0976 Y-13.4019
G01 X21.0946 Y-13.3529
G01 X21.0878 Y-13.2796
G01 X21.0818 Y-13.2308
G01 X21.0746 Y-13.1823
G01 X21.0662 Y-13.1339
G01 X21.0566 Y-13.0858
G01 X21.0459 Y-13.0379
G01 X21.0340 Y-12.9903
G01 X21.0209 Y-12.9430
G01 X21.0066 Y-12.8960
G01 X20.9912 Y-12.8494
G01 X20.9660 Y-12.7802
G01 X20.9478 Y-12.7346
G01 X20.9284 Y-12.6895
G01 X20.9080 Y-12.6449
G01 X20.8864 Y-12.6008
G01 X20.8638 Y-12.5572
G01 X20.8279 Y-12.4929
G01 X20.8027 Y-12.4508
G01 X20.7765 Y-12.4094
G01 X20.7492 Y-12.3685
G01 X20.7209 Y-12.3284
G01 X20.6917 Y-12.2890
G01 X20.6615 Y-12.2503
G01 X20.6303 Y-12.2123
G01 X20.5983 Y-12.1752
G01 X20.5653 Y-12.1388
G01 X20.5315 Y-12.1032
G01 X20.4284 Y-12.0000
G00 X20.4284 Y-12.0000
G01 F60.00
G01 Z-0.2000
G01 F60.00
G01 X30.0716 Y-12.0000
G01 X29.9685 Y-12.1032
G01 X29.9347 Y-12.1388
G01 X29.9017 Y-12.1752
G01 X29.8697 Y-12.2123
G01 X29.8385 Y-12.2503
G01 X29.8083 Y-12.2890
G01 X29.7791 Y-12.3284
G01 X29.7508 Y-12.3685
G01 X29.7236 Y-12.4094
G01 X29.6973 Y-12.4508
G01 X29.6721 Y-12.4929
G01 X29.6479 Y-12.5356
G01 X29.6247 Y-12.5789
G01 X29.5920 Y-12.6449
G01 X29.5716 Y-12.6895
G01 X29.5522 Y-12.7346
G01 X29.5340 Y-12.7802
G01 X29.5088 Y-12.8494
G01 X29.4934 Y-12.8960
G01 X29.4791 Y-12.9430
G01 X29.4660 Y-12.9903
G01 X29.4541 Y-13.0379
G01 X29.4434 Y-13.0858
G01 X29.4338 Y-13.1339
G01 X29.4254 Y-13.1823
G01 X29.4182 Y-13.2308
G01 X29.4122 Y-13.2796
G01 X29.4054 Y-13.3529
G01 X29.4024 Y-13.4019
G01 X29.4006 Y-13.4509
G01 X29.4000 Y-13.5000
G01 X29.4000 Y-20.4000
G01 X29.4006 Y-20.4491
G01 X29.4024 Y-20.4981
G01 X29.4074 Y-20.5716
G01 X29.4122 Y-20.6204
G01 X29.4182 Y-20.6692
G01 X29.4254 Y-20.7177
G01 X29.4338 Y-20.7661
G01 X29.4486 Y-20.8382
G01 X29.4599 Y-20.8860
G01 X29.4724 Y-20.9334
G01 X29.4861 Y-20.9806
G01 X29.5009 Y-21.0274
G01 X29.5169 Y-21.0738
G01 X29.5340 Y-21.1198
G01 X29.5522 Y-21.1654
G01 X29.5716 Y-21.2105
G01 X29.5920 Y-21.2551
G01 X29.6136 Y-21.2992
G01 X29.6362 Y-21.3428
G01 X29.6598 Y-21.3858
G01 X29.6845 Y-21.4282
G01 X29.7103 Y-21.4700
G01 X29.7508 Y-21.5315
G01 X29.7791 Y-21.5716
G01 X29.8083 Y-21.6110
G01 X29.8540 Y-21.6688
G01 X29.8856 Y-21.7063
G01 X29.9181 Y-21.7431
G01 X29.9685 Y-21.7968
G01 X30.0716 Y-21.9000
G01 X20.4284 Y-21.9000
G01 X20.5315 Y-21.7968
G01 X20.5819 Y-21.7431
G01 X20.6144 Y-21.7063
G01 X20.6460 Y-21.6688
G01 X20.6917 Y-21.6110
G01 X20.7352 Y-21.5516
G01 X20.7629 Y-21.5111
G01 X20.7897 Y-21.4700
G01 X20.8155 Y-21.4282
G01 X20.8402 Y-21.3858
G01 X20.8638 Y-21.3428
G01 X20.8864 Y-21.2992
G01 X20.9080 Y-21.2551
G01 X20.9284 Y-21.2105
G01 X20.9478 Y-21.1654
G01 X20.9660 Y-21.1198
G01 X20.9831 Y-21.0738
G01 X20.9991 Y-21.0274
G01 X21.0209 Y-20.9570
G01 X21.0340 Y-20.9097
G01 X21.0459 Y-20.8621
G01 X21.0566 Y-20.8142
G01 X21.0662 Y-20.7661
G01 X21.0746 Y-20.7177
G01 X21.0818 Y-20.6692
G01 X21.0878 Y-20.6204
G01 X21.0926 Y-20.5716
G01 X21.0976 Y-20.4981
G01 X21.0994 Y-20.4491
G01 X21.1000 Y-20.4000
G01 X21.1000 Y-13.5000
G01 X21.0994 Y-13.4509
G01 X21.0976 Y-13.4019
G01 X21.0946 Y-13.3529
G01 X21.0878 Y-13.2796
G01 X21.0818 Y-13.2308
G01 X21.0746 Y-13.1823
G01 X21.0662 Y-13.1339
G01 X21.0566 Y-13.0858
G01 X21.0459 Y-13.0379
G01 X21.0340 Y-12.9903
G01 X21.0209 Y-12.9430
G01 X21.0066 Y-12.8960
G01 X20.9912 Y-12.8494
G01 X20.9660 Y-12.7802
G01 X20.9478 Y-12.7346
G01 X20.9284 Y-12.6895
G01 X20.9080 Y-12.6449
G01 X20.8864 Y-12.6008
G01 X20.8638 Y-12.5572
G01 X20.8279 Y-12.4929
G01 X20.8027 Y-12.4508
G01 X20.7765 Y-12.4094
G01 X20.7492 Y-12.3685
G01 X20.7209 Y-12.3284
G01 X20.6917 Y-12.2890
G01 X20.6615 Y-12.2503
G01 X20.6303 Y-12.2123
G01 X20.5983 Y-12.1752
G01 X20.5653 Y-12.1388
G01 X20.5315 Y-12.1032
G01 X20.4284 Y-12.0000
G00 X20.4284 Y-12.0000
G01 F60.00
G01 Z-0.3000
G01 F60.00
G01 X30.0716 Y-12.0000
G01 X29.9685 Y-12.1032
G01 X29.9347 Y-12.1388
G01 X29.9017 Y-12.1752
G01 X29.8697 Y-12.2123
G01 X29.8385 Y-12.2503
G01 X29.8083 Y-12.2890
G01 X29.7791 Y-12.3284
G01 X29.7508 Y-12.3685
G01 X29.7236 Y-12.4094
G01 X29.6973 Y-12.4508
G01 X29.6721 Y-12.4929
G01 X29.6479 Y-12.5356
G01 X29.6247 Y-12.5789
G01 X29.5920 Y-12.6449
G01 X29.5716 Y-12.6895
G01 X29.5522 Y-12.7346
G01 X29.5340 Y-12.7802
G01 X29.5088 Y-12.8494
G01 X29.4934 Y-12.8960
G01 X29.4791 Y-12.9430
G01 X29.4660 Y-12.9903
G01 X29.4541 Y-13.0379
G01 X29.4434 Y-13.0858
G01 X29.4338 Y-13.1339
G01 X29.4254 Y-13.1823
G01 X29.4182 Y-13.2308
G01 X29.4122 Y-13.2796
G01 X29.4054 Y-13.3529
G01 X29.4024 Y-13.4019
G01 X29.4006 Y-13.4509
G01 X29.4000 Y-13.5000
G01 X29.4000 Y-20.4000
G01 X29.4006 Y-20.4491
G01 X29.4024 Y-20.4981
G01 X29.4074 Y-20.5716
G01 X29.4122 Y-20.6204
G01 X29.4182 Y-20.6692
G01 X29.4254 Y-20.7177
G01 X29.4338 Y-20.7661
G01 X29.4486 Y-20.8382
G01 X29.4599 Y-20.8860
G01 X29.4724 Y-20.9334
G01 X29.4861 Y-20.9806
G01 X29.5009 Y-21.0274
G01 X29.5169 Y-21.0738
G01 X29.5340 Y-21.1198
G01 X29.5522 Y-21.1654
G01 X29.5716 Y-21.2105
G01 X29.5920 Y-21.2551
G01 X29.6136 Y-21.2992
G01 X29.6362 Y-21.3428
G01 X29.6598 Y-21.3858
G01 X29.6845 Y-21.4282
G01 X29.7103 Y-21.4700
G01 X29.7508 Y-21.5315
G01 X29.7791 Y-21.5716
G01 X29.8083 Y-21.6110
G01 X29.8540 Y-21.6688
G01 X29.8856 Y-21.7063
G01 X29.9181 Y-21.7431
G01 X29.9685 Y-21.7968
G01 X30.0716 Y-21.9000
G01 X20.4284 Y-21.9000
G01 X20.5315 Y-21.7968
G01 X20.5819 Y-21.7431
G01 X20.6144 Y-21.7063
G01 X20.6460 Y-21.6688
G01 X20.6917 Y-21.6110
G01 X20.7352 Y-21.5516
G01 X20.7629 Y-21.5111
G01 X20.7897 Y-21.4700
G01 X20.8155 Y-21.4282
G01 X20.8402 Y-21.3858
G01 X20.8638 Y-21.3428
G01 X20.8864 Y-21.2992
G01 X20.9080 Y-21.2551
G01 X20.9284 Y-21.2105
G01 X20.9478 Y-21.1654
G01 X20.9660 Y-21.1198
G01 X20.9831 Y-21.0738
G01 X20.9991 Y-21.0274
G01 X21.0209 Y-20.9570
G01 X21.0340 Y-20.9097
G01 X21.0459 Y-20.8621
G01 X21.0566 Y-20.8142
G01 X21.0662 Y-20.7661
G01 X21.0746 Y-20.7177
G01 X21.0818 Y-20.6692
G01 X21.0878 Y-20.6204
G01 X21.0926 Y-20.5716
G01 X21.0976 Y-20.4981
G01 X21.0994 Y-20.4491
G01 X21.1000 Y-20.4000
G01 X21.1000 Y-13.5000
G01 X21.0994 Y-13.4509
G01 X21.0976 Y-13.4019
G01 X21.0946 Y-13.3529
G01 X21.0878 Y-13.2796
G01 X21.0818 Y-13.2308
G01 X21.0746 Y-13.1823
G01 X21.0662 Y-13.1339
G01 X21.0566 Y-13.0858
G01 X21.0459 Y-13.0379
G01 X21.0340 Y-12.9903
G01 X21.0209 Y-12.9430
G01 X21.0066 Y-12.8960
G01 X20.9912 Y-12.8494
G01 X20.9660 Y-12.7802
G01 X20.9478 Y-12.7346
G01 X20.9284 Y-12.6895
G01 X20.9080 Y-12.6449
G01 X20.8864 Y-12.6008
G01 X20.8638 Y-12.5572
G01 X20.8279 Y-12.4929
G01 X20.8027 Y-12.4508
G01 X20.7765 Y-12.4094
G01 X20.7492 Y-12.3685
G01 X20.7209 Y-12.3284
G01 X20.6917 Y-12.2890
G01 X20.6615 Y-12.2503
G01 X20.6303 Y-12.2123
G01 X20.5983 Y-12.1752
G01 X20.5653 Y-12.1388
G01 X20.5315 Y-12.1032
G01 X20.4284 Y-12.0000
G00 X20.4284 Y-12.0000
G01 F60.00
G01 Z-0.4000
G01 F60.00
G01 X30.0716 Y-12.0000
G01 X29.9685 Y-12.1032
G01 X29.9347 Y-12.1388
G01 X29.9017 Y-12.1752
G01 X29.8697 Y-12.2123
G01 X29.8385 Y-12.2503
G01 X29.8083 Y-12.2890
G01 X29.7791 Y-12.3284
G01 X29.7508 Y-12.3685
G01 X29.7236 Y-12.4094
G01 X29.6973 Y-12.4508
G01 X29.6721 Y-12.4929
G01 X29.6479 Y-12.5356
G01 X29.6247 Y-12.5789
G01 X29.5920 Y-12.6449
G01 X29.5716 Y-12.6895
G01 X29.5522 Y-12.7346
G01 X29.5340 Y-12.7802
G01 X29.5088 Y-12.8494
G01 X29.4934 Y-12.8960
G01 X29.4791 Y-12.9430
G01 X29.4660 Y-12.9903
G01 X29.4541 Y-13.0379
G01 X29.4434 Y-13.0858
G01 X29.4338 Y-13.1339
G01 X29.4254 Y-13.1823
G01 X29.4182 Y-13.2308
G01 X29.4122 Y-13.2796
G01 X29.4054 Y-13.3529
G01 X29.4024 Y-13.4019
G01 X29.4006 Y-13.4509
G01 X29.4000 Y-13.5000
G01 X29.4000 Y-20.4000
G01 X29.4006 Y-20.4491
G01 X29.4024 Y-20.4981
G01 X29.4074 Y-20.5716
G01 X29.4122 Y-20.6204
G01 X29.4182 Y-20.6692
G01 X29.4254 Y-20.7177
G01 X29.4338 Y-20.7661
G01 X29.4486 Y-20.8382
G01 X29.4599 Y-20.8860
G01 X29.4724 Y-20.9334
G01 X29.4861 Y-20.9806
G01 X29.5009 Y-21.0274
G01 X29.5169 Y-21.0738
G01 X29.5340 Y-21.1198
G01 X29.5522 Y-21.1654
G01 X29.5716 Y-21.2105
G01 X29.5920 Y-21.2551
G01 X29.6136 Y-21.2992
G01 X29.6362 Y-21.3428
G01 X29.6598 Y-21.3858
G01 X29.6845 Y-21.4282
G01 X29.7103 Y-21.4700
G01 X29.7508 Y-21.5315
G01 X29.7791 Y-21.5716
G01 X29.8083 Y-21.6110
G01 X29.8540 Y-21.6688
G01 X29.8856 Y-21.7063
G01 X29.9181 Y-21.7431
G01 X29.9685 Y-21.7968
G01 X30.0716 Y-21.9000
G01 X20.4284 Y-21.9000
G01 X20.5315 Y-21.7968
G01 X20.5819 Y-21.7431
G01 X20.6144 Y-21.7063
G01 X20.6460 Y-21.6688
G01 X20.6917 Y-21.6110
G01 X20.7352 Y-21.5516
G01 X20.7629 Y-21.5111
G01 X20.7897 Y-21.4700
G01 X20.8155 Y-21.4282
G01 X20.8402 Y-21.3858
G01 X20.8638 Y-21.3428
G01 X20.8864 Y-21.2992
G01 X20.9080 Y-21.2551
G01 X20.9284 Y-21.2105
G01 X20.9478 Y-21.1654
G01 X20.9660 Y-21.1198
G01 X20.9831 Y-21.0738
G01 X20.9991 Y-21.0274
G01 X21.0209 Y-20.9570
G01 X21.0340 Y-20.9097
G01 X21.0459 Y-20.8621
G01 X21.0566 Y-20.8142
G01 X21.0662 Y-20.7661
G01 X21.0746 Y-20.7177
G01 X21.0818 Y-20.6692
G01 X21.0878 Y-20.6204
G01 X21.0926 Y-20.5716
G01 X21.0976 Y-20.4981
G01 X21.0994 Y-20.4491
G01 X21.1000 Y-20.4000
G01 X21.1000 Y-13.5000
G01 X21.0994 Y-13.4509
G01 X21.0976 Y-13.4019
G01 X21.0946 Y-13.3529
G01 X21.0878 Y-13.2796
G01 X21.0818 Y-13.2308
G01 X21.0746 Y-13.1823
G01 X21.0662 Y-13.1339
G01 X21.0566 Y-13.0858
G01 X21.0459 Y-13.0379
G01 X21.0340 Y-12.9903
G01 X21.0209 Y-12.9430
G01 X21.0066 Y-12.8960
G01 X20.9912 Y-12.8494
G01 X20.9660 Y-12.7802
G01 X20.9478 Y-12.7346
G01 X20.9284 Y-12.6895
G01 X20.9080 Y-12.6449
G01 X20.8864 Y-12.6008
G01 X20.8638 Y-12.5572
G01 X20.8279 Y-12.4929
G01 X20.8027 Y-12.4508
G01 X20.7765 Y-12.4094
G01 X20.7492 Y-12.3685
G01 X20.7209 Y-12.3284
G01 X20.6917 Y-12.2890
G01 X20.6615 Y-12.2503
G01 X20.6303 Y-12.2123
G01 X20.5983 Y-12.1752
G01 X20.5653 Y-12.1388
G01 X20.5315 Y-12.1032
G01 X20.4284 Y-12.0000
G00 X20.4284 Y-12.0000
G01 F60.00
G01 Z-0.5000
G01 F60.00
G01 X30.0716 Y-12.0000
G01 X29.9685 Y-12.1032
G01 X29.9347 Y-12.1388
G01 X29.9017 Y-12.1752
G01 X29.8697 Y-12.2123
G01 X29.8385 Y-12.2503
G01 X29.8083 Y-12.2890
G01 X29.7791 Y-12.3284
G01 X29.7508 Y-12.3685
G01 X29.7236 Y-12.4094
G01 X29.6973 Y-12.4508
G01 X29.6721 Y-12.4929
G01 X29.6479 Y-12.5356
G01 X29.6247 Y-12.5789
G01 X29.5920 Y-12.6449
G01 X29.5716 Y-12.6895
G01 X29.5522 Y-12.7346
G01 X29.5340 Y-12.7802
G01 X29.5088 Y-12.8494
G01 X29.4934 Y-12.8960
G01 X29.4791 Y-12.9430
G01 X29.4660 Y-12.9903
G01 X29.4541 Y-13.0379
G01 X29.4434 Y-13.0858
G01 X29.4338 Y-13.1339
G01 X29.4254 Y-13.1823
G01 X29.4182 Y-13.2308
G01 X29.4122 Y-13.2796
G01 X29.4054 Y-13.3529
G01 X29.4024 Y-13.4019
G01 X29.4006 Y-13.4509
G01 X29.4000 Y-13.5000
G01 X29.4000 Y-20.4000
G01 X29.4006 Y-20.4491
G01 X29.4024 Y-20.4981
G01 X29.4074 Y-20.5716
G01 X29.4122 Y-20.6204
G01 X29.4182 Y-20.6692
G01 X29.4254 Y-20.7177
G01 X29.4338 Y-20.7661
G01 X29.4486 Y-20.8382
G01 X29.4599 Y-20.8860
G01 X29.4724 Y-20.9334
G01 X29.4861 Y-20.9806
G01 X29.5009 Y-21.0274
G01 X29.5169 Y-21.0738
G01 X29.5340 Y-21.1198
G01 X29.5522 Y-21.1654
G01 X29.5716 Y-21.2105
G01 X29.5920 Y-21.2551
G01 X29.6136 Y-21.2992
G01 X29.6362 Y-21.3428
G01 X29.6598 Y-21.3858
G01 X29.6845 Y-21.4282
G01 X29.7103 Y-21.4700
G01 X29.7508 Y-21.5315
G01 X29.7791 Y-21.5716
G01 X29.8083 Y-21.6110
G01 X29.8540 Y-21.6688
G01 X29.8856 Y-21.7063
G01 X29.9181 Y-21.7431
G01 X29.9685 Y-21.7968
G01 X30.0716 Y-21.9000
G01 X20.4284 Y-21.9000
G01 X20.5315 Y-21.7968
G01 X20.5819 Y-21.7431
G01 X20.6144 Y-21.7063
G01 X20.6460 Y-21.6688
G01 X20.6917 Y-21.6110
G01 X20.7352 Y-21.5516
G01 X20.7629 Y-21.5111
G01 X20.7897 Y-21.4700
G01 X20.8155 Y-21.4282
G01 X20.8402 Y-21.3858
G01 X20.8638 Y-21.3428
G01 X20.8864 Y-21.2992
G01 X20.9080 Y-21.2551
G01 X20.9284 Y-21.2105
G01 X20.9478 Y-21.1654
G01 X20.9660 Y-21.1198
G01 X20.9831 Y-21.0738
G01 X20.9991 Y-21.0274
G01 X21.0209 Y-20.9570
G01 X21.0340 Y-20.9097
G01 X21.0459 Y-20.8621
G01 X21.0566 Y-20.8142
G01 X21.0662 Y-20.7661
G01 X21.0746 Y-20.7177
G01 X21.0818 Y-20.6692
G01 X21.0878 Y-20.6204
G01 X21.0926 Y-20.5716
G01 X21.0976 Y-20.4981
G01 X21.0994 Y-20.4491
G01 X21.1000 Y-20.4000
G01 X21.1000 Y-13.5000
G01 X21.0994 Y-13.4509
G01 X21.0976 Y-13.4019
G01 X21.0946 Y-13.3529
G01 X21.0878 Y-13.2796
G01 X21.0818 Y-13.2308
G01 X21.0746 Y-13.1823
G01 X21.0662 Y-13.1339
G01 X21.0566 Y-13.0858
G01 X21.0459 Y-13.0379
G01 X21.0340 Y-12.9903
G01 X21.0209 Y-12.9430
G01 X21.0066 Y-12.8960
G01 X20.9912 Y-12.8494
G01 X20.9660 Y-12.7802
G01 X20.9478 Y-12.7346
G01 X20.9284 Y-12.6895
G01 X20.9080 Y-12.6449
G01 X20.8864 Y-12.6008
G01 X20.8638 Y-12.5572
G01 X20.8279 Y-12.4929
G01 X20.8027 Y-12.4508
G01 X20.7765 Y-12.4094
G01 X20.7492 Y-12.3685
G01 X20.7209 Y-12.3284
G01 X20.6917 Y-12.2890
G01 X20.6615 Y-12.2503
G01 X20.6303 Y-12.2123
G01 X20.5983 Y-12.1752
G01 X20.5653 Y-12.1388
G01 X20.5315 Y-12.1032
G01 X20.4284 Y-12.0000
G00 X20.4284 Y-12.0000
G01 F60.00
G01 Z-0.6000
G01 F60.00
G01 X30.0716 Y-12.0000
G01 X29.9685 Y-12.1032
G01 X29.9347 Y-12.1388
G01 X29.9017 Y-12.1752
G01 X29.8697 Y-12.2123
G01 X29.8385 Y-12.2503
G01 X29.8083 Y-12.2890
G01 X29.7791 Y-12.3284
G01 X29.7508 Y-12.3685
G01 X29.7236 Y-12.4094
G01 X29.6973 Y-12.4508
G01 X29.6721 Y-12.4929
G01 X29.6479 Y-12.5356
G01 X29.6247 Y-12.5789
G01 X29.5920 Y-12.6449
G01 X29.5716 Y-12.6895
G01 X29.5522 Y-12.7346
G01 X29.5340 Y-12.7802
G01 X29.5088 Y-12.8494
G01 X29.4934 Y-12.8960
G01 X29.4791 Y-12.9430
G01 X29.4660 Y-12.9903
G01 X29.4541 Y-13.0379
G01 X29.4434 Y-13.0858
G01 X29.4338 Y-13.1339
G01 X29.4254 Y-13.1823
G01 X29.4182 Y-13.2308
G01 X29.4122 Y-13.2796
G01 X29.4054 Y-13.3529
G01 X29.4024 Y-13.4019
G01 X29.4006 Y-13.4509
G01 X29.4000 Y-13.5000
G01 X29.4000 Y-20.4000
G01 X29.4006 Y-20.4491
G01 X29.4024 Y-20.4981
G01 X29.4074 Y-20.5716
G01 X29.4122 Y-20.6204
G01 X29.4182 Y-20.6692
G01 X29.4254 Y-20.7177
G01 X29.4338 Y-20.7661
G01 X29.4486 Y-20.8382
G01 X29.4599 Y-20.8860
G01 X29.4724 Y-20.9334
G01 X29.4861 Y-20.9806
G01 X29.5009 Y-21.0274
G01 X29.5169 Y-21.0738
G01 X29.5340 Y-21.1198
G01 X29.5522 Y-21.1654
G01 X29.5716 Y-21.2105
G01 X29.5920 Y-21.2551
G01 X29.6136 Y-21.2992
G01 X29.6362 Y-21.3428
G01 X29.6598 Y-21.3858
G01 X29.6845 Y-21.4282
G01 X29.7103 Y-21.4700
G01 X29.7508 Y-21.5315
G01 X29.7791 Y-21.5716
G01 X29.8083 Y-21.6110
G01 X29.8540 Y-21.6688
G01 X29.8856 Y-21.7063
G01 X29.9181 Y-21.7431
G01 X29.9685 Y-21.7968
G01 X30.0716 Y-21.9000
G01 X20.4284 Y-21.9000
G01 X20.5315 Y-21.7968
G01 X20.5819 Y-21.7431
G01 X20.6144 Y-21.7063
G01 X20.6460 Y-21.6688
G01 X20.6917 Y-21.6110
G01 X20.7352 Y-21.5516
G01 X20.7629 Y-21.5111
G01 X20.7897 Y-21.4700
G01 X20.8155 Y-21.4282
G01 X20.8402 Y-21.3858
G01 X20.8638 Y-21.3428
G01 X20.8864 Y-21.2992
G01 X20.9080 Y-21.2551
G01 X20.9284 Y-21.2105
G01 X20.9478 Y-21.1654
G01 X20.9660 Y-21.1198
G01 X20.9831 Y-21.0738
G01 X20.9991 Y-21.0274
G01 X21.0209 Y-20.9570
G01 X21.0340 Y-20.9097
G01 X21.0459 Y-20.8621
G01 X21.0566 Y-20.8142
G01 X21.0662 Y-20.7661
G01 X21.0746 Y-20.7177
G01 X21.0818 Y-20.6692
G01 X21.0878 Y-20.6204
G01 X21.0926 Y-20.5716
G01 X21.0976 Y-20.4981
G01 X21.0994 Y-20.4491
G01 X21.1000 Y-20.4000
G01 X21.1000 Y-13.5000
G01 X21.0994 Y-13.4509
G01 X21.0976 Y-13.4019
G01 X21.0946 Y-13.3529
G01 X21.0878 Y-13.2796
G01 X21.0818 Y-13.2308
G01 X21.0746 Y-13.1823
G01 X21.0662 Y-13.1339
G01 X21.0566 Y-13.0858
G01 X21.0459 Y-13.0379
G01 X21.0340 Y-12.9903
G01 X21.0209 Y-12.9430
G01 X21.0066 Y-12.8960
G01 X20.9912 Y-12.8494
G01 X20.9660 Y-12.7802
G01 X20.9478 Y-12.7346
G01 X20.9284 Y-12.6895
G01 X20.9080 Y-12.6449
G01 X20.8864 Y-12.6008
G01 X20.8638 Y-12.5572
G01 X20.8279 Y-12.4929
G01 X20.8027 Y-12.4508
G01 X20.7765 Y-12.4094
G01 X20.7492 Y-12.3685
G01 X20.7209 Y-12.3284
G01 X20.6917 Y-12.2890
G01 X20.6615 Y-12.2503
G01 X20.6303 Y-12.2123
G01 X20.5983 Y-12.1752
G01 X20.5653 Y-12.1388
G01 X20.5315 Y-12.1032
G01 X20.4284 Y-12.0000
G00 X20.4284 Y-12.0000
G01 F60.00
G01 Z-0.7000
G01 F60.00
G01 X30.0716 Y-12.0000
G01 X29.9685 Y-12.1032
G01 X29.9347 Y-12.1388
G01 X29.9017 Y-12.1752
G01 X29.8697 Y-12.2123
G01 X29.8385 Y-12.2503
G01 X29.8083 Y-12.2890
G01 X29.7791 Y-12.3284
G01 X29.7508 Y-12.3685
G01 X29.7236 Y-12.4094
G01 X29.6973 Y-12.4508
G01 X29.6721 Y-12.4929
G01 X29.6479 Y-12.5356
G01 X29.6247 Y-12.5789
G01 X29.5920 Y-12.6449
G01 X29.5716 Y-12.6895
G01 X29.5522 Y-12.7346
G01 X29.5340 Y-12.7802
G01 X29.5088 Y-12.8494
G01 X29.4934 Y-12.8960
G01 X29.4791 Y-12.9430
G01 X29.4660 Y-12.9903
G01 X29.4541 Y-13.0379
G01 X29.4434 Y-13.0858
G01 X29.4338 Y-13.1339
G01 X29.4254 Y-13.1823
G01 X29.4182 Y-13.2308
G01 X29.4122 Y-13.2796
G01 X29.4054 Y-13.3529
G01 X29.4024 Y-13.4019
G01 X29.4006 Y-13.4509
G01 X29.4000 Y-13.5000
G01 X29.4000 Y-20.4000
G01 X29.4006 Y-20.4491
G01 X29.4024 Y-20.4981
G01 X29.4074 Y-20.5716
G01 X29.4122 Y-20.6204
G01 X29.4182 Y-20.6692
G01 X29.4254 Y-20.7177
G01 X29.4338 Y-20.7661
G01 X29.4486 Y-20.8382
G01 X29.4599 Y-20.8860
G01 X29.4724 Y-20.9334
G01 X29.4861 Y-20.9806
G01 X29.5009 Y-21.0274
G01 X29.5169 Y-21.0738
G01 X29.5340 Y-21.1198
G01 X29.5522 Y-21.1654
G01 X29.5716 Y-21.2105
G01 X29.5920 Y-21.2551
G01 X29.6136 Y-21.2992
G01 X29.6362 Y-21.3428
G01 X29.6598 Y-21.3858
G01 X29.6845 Y-21.4282
G01 X29.7103 Y-21.4700
G01 X29.7508 Y-21.5315
G01 X29.7791 Y-21.5716
G01 X29.8083 Y-21.6110
G01 X29.8540 Y-21.6688
G01 X29.8856 Y-21.7063
G01 X29.9181 Y-21.7431
G01 X29.9685 Y-21.7968
G01 X30.0716 Y-21.9000
G01 X20.4284 Y-21.9000
G01 X20.5315 Y-21.7968
G01 X20.5819 Y-21.7431
G01 X20.6144 Y-21.7063
G01 X20.6460 Y-21.6688
G01 X20.6917 Y-21.6110
G01 X20.7352 Y-21.5516
G01 X20.7629 Y-21.5111
G01 X20.7897 Y-21.4700
G01 X20.8155 Y-21.4282
G01 X20.8402 Y-21.3858
G01 X20.8638 Y-21.3428
G01 X20.8864 Y-21.2992
G01 X20.9080 Y-21.2551
G01 X20.9284 Y-21.2105
G01 X20.9478 Y-21.1654
G01 X20.9660 Y-21.1198
G01 X20.9831 Y-21.0738
G01 X20.9991 Y-21.0274
G01 X21.0209 Y-20.9570
G01 X21.0340 Y-20.9097
G01 X21.0459 Y-20.8621
G01 X21.0566 Y-20.8142
G01 X21.0662 Y-20.7661
G01 X21.0746 Y-20.7177
G01 X21.0818 Y-20.6692
G01 X21.0878 Y-20.6204
G01 X21.0926 Y-20.5716
G01 X21.0976 Y-20.4981
G01 X21.0994 Y-20.4491
G01 X21.1000 Y-20.4000
G01 X21.1000 Y-13.5000
G01 X21.0994 Y-13.4509
G01 X21.0976 Y-13.4019
G01 X21.0946 Y-13.3529
G01 X21.0878 Y-13.2796
G01 X21.0818 Y-13.2308
G01 X21.0746 Y-13.1823
G01 X21.0662 Y-13.1339
G01 X21.0566 Y-13.0858
G01 X21.0459 Y-13.0379
G01 X21.0340 Y-12.9903
G01 X21.0209 Y-12.9430
G01 X21.0066 Y-12.8960
G01 X20.9912 Y-12.8494
G01 X20.9660 Y-12.7802
G01 X20.9478 Y-12.7346
G01 X20.9284 Y-12.6895
G01 X20.9080 Y-12.6449
G01 X20.8864 Y-12.6008
G01 X20.8638 Y-12.5572
G01 X20.8279 Y-12.4929
G01 X20.8027 Y-12.4508
G01 X20.7765 Y-12.4094
G01 X20.7492 Y-12.3685
G01 X20.7209 Y-12.3284
G01 X20.6917 Y-12.2890
G01 X20.6615 Y-12.2503
G01 X20.6303 Y-12.2123
G01 X20.5983 Y-12.1752
G01 X20.5653 Y-12.1388
G01 X20.5315 Y-12.1032
G01 X20.4284 Y-12.0000
G00 X20.4284 Y-12.0000
G01 F60.00
G01 Z-0.8000
G01 F60.00
G01 X30.0716 Y-12.0000
G01 X29.9685 Y-12.1032
G01 X29.9347 Y-12.1388
G01 X29.9017 Y-12.1752
G01 X29.8697 Y-12.2123
G01 X29.8385 Y-12.2503
G01 X29.8083 Y-12.2890
G01 X29.7791 Y-12.3284
G01 X29.7508 Y-12.3685
G01 X29.7236 Y-12.4094
G01 X29.6973 Y-12.4508
G01 X29.6721 Y-12.4929
G01 X29.6479 Y-12.5356
G01 X29.6247 Y-12.5789
G01 X29.5920 Y-12.6449
G01 X29.5716 Y-12.6895
G01 X29.5522 Y-12.7346
G01 X29.5340 Y-12.7802
G01 X29.5088 Y-12.8494
G01 X29.4934 Y-12.8960
G01 X29.4791 Y-12.9430
G01 X29.4660 Y-12.9903
G01 X29.4541 Y-13.0379
G01 X29.4434 Y-13.0858
G01 X29.4338 Y-13.1339
G01 X29.4254 Y-13.1823
G01 X29.4182 Y-13.2308
G01 X29.4122 Y-13.2796
G01 X29.4054 Y-13.3529
G01 X29.4024 Y-13.4019
G01 X29.4006 Y-13.4509
G01 X29.4000 Y-13.5000
G01 X29.4000 Y-20.4000
G01 X29.4006 Y-20.4491
G01 X29.4024 Y-20.4981
G01 X29.4074 Y-20.5716
G01 X29.4122 Y-20.6204
G01 X29.4182 Y-20.6692
G01 X29.4254 Y-20.7177
G01 X29.4338 Y-20.7661
G01 X29.4486 Y-20.8382
G01 X29.4599 Y-20.8860
G01 X29.4724 Y-20.9334
G01 X29.4861 Y-20.9806
G01 X29.5009 Y-21.0274
G01 X29.5169 Y-21.0738
G01 X29.5340 Y-21.1198
G01 X29.5522 Y-21.1654
G01 X29.5716 Y-21.2105
G01 X29.5920 Y-21.2551
G01 X29.6136 Y-21.2992
G01 X29.6362 Y-21.3428
G01 X29.6598 Y-21.3858
G01 X29.6845 Y-21.4282
G01 X29.7103 Y-21.4700
G01 X29.7508 Y-21.5315
G01 X29.7791 Y-21.5716
G01 X29.8083 Y-21.6110
G01 X29.8540 Y-21.6688
G01 X29.8856 Y-21.7063
G01 X29.9181 Y-21.7431
G01 X29.9685 Y-21.7968
G01 X30.0716 Y-21.9000
G01 X20.4284 Y-21.9000
G01 X20.5315 Y-21.7968
G01 X20.5819 Y-21.7431
G01 X20.6144 Y-21.7063
G01 X20.6460 Y-21.6688
G01 X20.6917 Y-21.6110
G01 X20.7352 Y-21.5516
G01 X20.7629 Y-21.5111
G01 X20.7897 Y-21.4700
G01 X20.8155 Y-21.4282
G01 X20.8402 Y-21.3858
G01 X20.8638 Y-21.3428
G01 X20.8864 Y-21.2992
G01 X20.9080 Y-21.2551
G01 X20.9284 Y-21.2105
G01 X20.9478 Y-21.1654
G01 X20.9660 Y-21.1198
G01 X20.9831 Y-21.0738
G01 X20.9991 Y-21.0274
G01 X21.0209 Y-20.9570
G01 X21.0340 Y-20.9097
G01 X21.0459 Y-20.8621
G01 X21.0566 Y-20.8142
G01 X21.0662 Y-20.7661
G01 X21.0746 Y-20.7177
G01 X21.0818 Y-20.6692
G01 X21.0878 Y-20.6204
G01 X21.0926 Y-20.5716
G01 X21.0976 Y-20.4981
G01 X21.0994 Y-20.4491
G01 X21.1000 Y-20.4000
G01 X21.1000 Y-13.5000
G01 X21.0994 Y-13.4509
G01 X21.0976 Y-13.4019
G01 X21.0946 Y-13.3529
G01 X21.0878 Y-13.2796
G01 X21.0818 Y-13.2308
G01 X21.0746 Y-13.1823
G01 X21.0662 Y-13.1339
G01 X21.0566 Y-13.0858
G01 X21.0459 Y-13.0379
G01 X21.0340 Y-12.9903
G01 X21.0209 Y-12.9430
G01 X21.0066 Y-12.8960
G01 X20.9912 Y-12.8494
G01 X20.9660 Y-12.7802
G01 X20.9478 Y-12.7346
G01 X20.9284 Y-12.6895
G01 X20.9080 Y-12.6449
G01 X20.8864 Y-12.6008
G01 X20.8638 Y-12.5572
G01 X20.8279 Y-12.4929
G01 X20.8027 Y-12.4508
G01 X20.7765 Y-12.4094
G01 X20.7492 Y-12.3685
G01 X20.7209 Y-12.3284
G01 X20.6917 Y-12.2890
G01 X20.6615 Y-12.2503
G01 X20.6303 Y-12.2123
G01 X20.5983 Y-12.1752
G01 X20.5653 Y-12.1388
G01 X20.5315 Y-12.1032
G01 X20.4284 Y-12.0000
G00 X20.4284 Y-12.0000
G01 F60.00
G01 Z-0.9000
G01 F60.00
G01 X30.0716 Y-12.0000
G01 X29.9685 Y-12.1032
G01 X29.9347 Y-12.1388
G01 X29.9017 Y-12.1752
G01 X29.8697 Y-12.2123
G01 X29.8385 Y-12.2503
G01 X29.8083 Y-12.2890
G01 X29.7791 Y-12.3284
G01 X29.7508 Y-12.3685
G01 X29.7236 Y-12.4094
G01 X29.6973 Y-12.4508
G01 X29.6721 Y-12.4929
G01 X29.6479 Y-12.5356
G01 X29.6247 Y-12.5789
G01 X29.5920 Y-12.6449
G01 X29.5716 Y-12.6895
G01 X29.5522 Y-12.7346
G01 X29.5340 Y-12.7802
G01 X29.5088 Y-12.8494
G01 X29.4934 Y-12.8960
G01 X29.4791 Y-12.9430
G01 X29.4660 Y-12.9903
G01 X29.4541 Y-13.0379
G01 X29.4434 Y-13.0858
G01 X29.4338 Y-13.1339
G01 X29.4254 Y-13.1823
G01 X29.4182 Y-13.2308
G01 X29.4122 Y-13.2796
G01 X29.4054 Y-13.3529
G01 X29.4024 Y-13.4019
G01 X29.4006 Y-13.4509
G01 X29.4000 Y-13.5000
G01 X29.4000 Y-20.4000
G01 X29.4006 Y-20.4491
G01 X29.4024 Y-20.4981
G01 X29.4074 Y-20.5716
G01 X29.4122 Y-20.6204
G01 X29.4182 Y-20.6692
G01 X29.4254 Y-20.7177
G01 X29.4338 Y-20.7661
G01 X29.4486 Y-20.8382
G01 X29.4599 Y-20.8860
G01 X29.4724 Y-20.9334
G01 X29.4861 Y-20.9806
G01 X29.5009 Y-21.0274
G01 X29.5169 Y-21.0738
G01 X29.5340 Y-21.1198
G01 X29.5522 Y-21.1654
G01 X29.5716 Y-21.2105
G01 X29.5920 Y-21.2551
G01 X29.6136 Y-21.2992
G01 X29.6362 Y-21.3428
G01 X29.6598 Y-21.3858
G01 X29.6845 Y-21.4282
G01 X29.7103 Y-21.4700
G01 X29.7508 Y-21.5315
G01 X29.7791 Y-21.5716
G01 X29.8083 Y-21.6110
G01 X29.8540 Y-21.6688
G01 X29.8856 Y-21.7063
G01 X29.9181 Y-21.7431
G01 X29.9685 Y-21.7968
G01 X30.0716 Y-21.9000
G01 X20.4284 Y-21.9000
G01 X20.5315 Y-21.7968
G01 X20.5819 Y-21.7431
G01 X20.6144 Y-21.7063
G01 X20.6460 Y-21.6688
G01 X20.6917 Y-21.6110
G01 X20.7352 Y-21.5516
G01 X20.7629 Y-21.5111
G01 X20.7897 Y-21.4700
G01 X20.8155 Y-21.4282
G01 X20.8402 Y-21.3858
G01 X20.8638 Y-21.3428
G01 X20.8864 Y-21.2992
G01 X20.9080 Y-21.2551
G01 X20.9284 Y-21.2105
G01 X20.9478 Y-21.1654
G01 X20.9660 Y-21.1198
G01 X20.9831 Y-21.0738
G01 X20.9991 Y-21.0274
G01 X21.0209 Y-20.9570
G01 X21.0340 Y-20.9097
G01 X21.0459 Y-20.8621
G01 X21.0566 Y-20.8142
G01 X21.0662 Y-20.7661
G01 X21.0746 Y-20.7177
G01 X21.0818 Y-20.6692
G01 X21.0878 Y-20.6204
G01 X21.0926 Y-20.5716
G01 X21.0976 Y-20.4981
G01 X21.0994 Y-20.4491
G01 X21.1000 Y-20.4000
G01 X21.1000 Y-13.5000
G01 X21.0994 Y-13.4509
G01 X21.0976 Y-13.4019
G01 X21.0946 Y-13.3529
G01 X21.0878 Y-13.2796
G01 X21.0818 Y-13.2308
G01 X21.0746 Y-13.1823
G01 X21.0662 Y-13.1339
G01 X21.0566 Y-13.0858
G01 X21.0459 Y-13.0379
G01 X21.0340 Y-12.9903
G01 X21.0209 Y-12.9430
G01 X21.0066 Y-12.8960
G01 X20.9912 Y-12.8494
G01 X20.9660 Y-12.7802
G01 X20.9478 Y-12.7346
G01 X20.9284 Y-12.6895
G01 X20.9080 Y-12.6449
G01 X20.8864 Y-12.6008
G01 X20.8638 Y-12.5572
G01 X20.8279 Y-12.4929
G01 X20.8027 Y-12.4508
G01 X20.7765 Y-12.4094
G01 X20.7492 Y-12.3685
G01 X20.7209 Y-12.3284
G01 X20.6917 Y-12.2890
G01 X20.6615 Y-12.2503
G01 X20.6303 Y-12.2123
G01 X20.5983 Y-12.1752
G01 X20.5653 Y-12.1388
G01 X20.5315 Y-12.1032
G01 X20.4284 Y-12.0000
G00 X20.4284 Y-12.0000
G01 F60.00
G01 Z-1.0000
G01 F60.00
G01 X30.0716 Y-12.0000
G01 X29.9685 Y-12.1032
G01 X29.9347 Y-12.1388
G01 X29.9017 Y-12.1752
G01 X29.8697 Y-12.2123
G01 X29.8385 Y-12.2503
G01 X29.8083 Y-12.2890
G01 X29.7791 Y-12.3284
G01 X29.7508 Y-12.3685
G01 X29.7236 Y-12.4094
G01 X29.6973 Y-12.4508
G01 X29.6721 Y-12.4929
G01 X29.6479 Y-12.5356
G01 X29.6247 Y-12.5789
G01 X29.5920 Y-12.6449
G01 X29.5716 Y-12.6895
G01 X29.5522 Y-12.7346
G01 X29.5340 Y-12.7802
G01 X29.5088 Y-12.8494
G01 X29.4934 Y-12.8960
G01 X29.4791 Y-12.9430
G01 X29.4660 Y-12.9903
G01 X29.4541 Y-13.0379
G01 X29.4434 Y-13.0858
G01 X29.4338 Y-13.1339
G01 X29.4254 Y-13.1823
G01 X29.4182 Y-13.2308
G01 X29.4122 Y-13.2796
G01 X29.4054 Y-13.3529
G01 X29.4024 Y-13.4019
G01 X29.4006 Y-13.4509
G01 X29.4000 Y-13.5000
G01 X29.4000 Y-20.4000
G01 X29.4006 Y-20.4491
G01 X29.4024 Y-20.4981
G01 X29.4074 Y-20.5716
G01 X29.4122 Y-20.6204
G01 X29.4182 Y-20.6692
G01 X29.4254 Y-20.7177
G01 X29.4338 Y-20.7661
G01 X29.4486 Y-20.8382
G01 X29.4599 Y-20.8860
G01 X29.4724 Y-20.9334
G01 X29.4861 Y-20.9806
G01 X29.5009 Y-21.0274
G01 X29.5169 Y-21.0738
G01 X29.5340 Y-21.1198
G01 X29.5522 Y-21.1654
G01 X29.5716 Y-21.2105
G01 X29.5920 Y-21.2551
G01 X29.6136 Y-21.2992
G01 X29.6362 Y-21.3428
G01 X29.6598 Y-21.3858
G01 X29.6845 Y-21.4282
G01 X29.7103 Y-21.4700
G01 X29.7508 Y-21.5315
G01 X29.7791 Y-21.5716
G01 X29.8083 Y-21.6110
G01 X29.8540 Y-21.6688
G01 X29.8856 Y-21.7063
G01 X29.9181 Y-21.7431
G01 X29.9685 Y-21.7968
G01 X30.0716 Y-21.9000
G01 X20.4284 Y-21.9000
G01 X20.5315 Y-21.7968
G01 X20.5819 Y-21.7431
G01 X20.6144 Y-21.7063
G01 X20.6460 Y-21.6688
G01 X20.6917 Y-21.6110
G01 X20.7352 Y-21.5516
G01 X20.7629 Y-21.5111
G01 X20.7897 Y-21.4700
G01 X20.8155 Y-21.4282
G01 X20.8402 Y-21.3858
G01 X20.8638 Y-21.3428
G01 X20.8864 Y-21.2992
G01 X20.9080 Y-21.2551
G01 X20.9284 Y-21.2105
G01 X20.9478 Y-21.1654
G01 X20.9660 Y-21.1198
G01 X20.9831 Y-21.0738
G01 X20.9991 Y-21.0274
G01 X21.0209 Y-20.9570
G01 X21.0340 Y-20.9097
G01 X21.0459 Y-20.8621
G01 X21.0566 Y-20.8142
G01 X21.0662 Y-20.7661
G01 X21.0746 Y-20.7177
G01 X21.0818 Y-20.6692
G01 X21.0878 Y-20.6204
G01 X21.0926 Y-20.5716
G01 X21.0976 Y-20.4981
G01 X21.0994 Y-20.4491
G01 X21.1000 Y-20.4000
G01 X21.1000 Y-13.5000
G01 X21.0994 Y-13.4509
G01 X21.0976 Y-13.4019
G01 X21.0946 Y-13.3529
G01 X21.0878 Y-13.2796
G01 X21.0818 Y-13.2308
G01 X21.0746 Y-13.1823
G01 X21.0662 Y-13.1339
G01 X21.0566 Y-13.0858
G01 X21.0459 Y-13.0379
G01 X21.0340 Y-12.9903
G01 X21.0209 Y-12.9430
G01 X21.0066 Y-12.8960
G01 X20.9912 Y-12.8494
G01 X20.9660 Y-12.7802
G01 X20.9478 Y-12.7346
G01 X20.9284 Y-12.6895
G01 X20.9080 Y-12.6449
G01 X20.8864 Y-12.6008
G01 X20.8638 Y-12.5572
G01 X20.8279 Y-12.4929
G01 X20.8027 Y-12.4508
G01 X20.7765 Y-12.4094
G01 X20.7492 Y-12.3685
G01 X20.7209 Y-12.3284
G01 X20.6917 Y-12.2890
G01 X20.6615 Y-12.2503
G01 X20.6303 Y-12.2123
G01 X20.5983 Y-12.1752
G01 X20.5653 Y-12.1388
G01 X20.5315 Y-12.1032
G01 X20.4284 Y-12.0000
G00 Z2.0000
G00 X22.0580 Y-13.0000
G01 F60.00
G01 Z-0.1000
G01 F60.00
G01 X28.4420 Y-13.0000
G01 X28.4325 Y-13.0598
G01 X28.4226 Y-13.1328
G01 X28.4111 Y-13.2426
G01 X28.4036 Y-13.3528
G01 X28.4009 Y-13.4264
G01 X28.4000 Y-13.5000
G01 X28.4000 Y-20.4000
G01 X28.4009 Y-20.4736
G01 X28.4036 Y-20.5472
G01 X28.4111 Y-20.6574
G01 X28.4226 Y-20.7672
G01 X28.4325 Y-20.8402
G01 X28.4420 Y-20.9000
G01 X22.0580 Y-20.9000
G01 X22.0675 Y-20.8402
G01 X22.0774 Y-20.7672
G01 X22.0889 Y-20.6574
G01 X22.0964 Y-20.5472
G01 X22.0991 Y-20.4736
G01 X22.1000 Y-20.4000
G01 X22.1000 Y-13.5000
G01 X22.0991 Y-13.4264
G01 X22.0964 Y-13.3528
G01 X22.0889 Y-13.2426
G01 X22.0774 Y-13.1328
G01 X22.0675 Y-13.0598
G01 X22.0580 Y-13.0000
G00 X22.0580 Y-13.0000
G01 F60.00
G01 Z-0.2000
G01 F60.00
G01 X28.4420 Y-13.0000
G01 X28.4325 Y-13.0598
G01 X28.4226 Y-13.1328
G01 X28.4111 Y-13.2426
G01 X28.4036 Y-13.3528
G01 X28.4009 Y-13.4264
G01 X28.4000 Y-13.5000
G01 X28.4000 Y-20.4000
G01 X28.4009 Y-20.4736
G01 X28.4036 Y-20.5472
G01 X28.4111 Y-20.6574
G01 X28.4226 Y-20.7672
G01 X28.4325 Y-20.8402
G01 X28.4420 Y-20.9000
G01 X22.0580 Y-20.9000
G01 X22.0675 Y-20.8402
G01 X22.0774 Y-20.7672
G01 X22.0889 Y-20.6574
G01 X22.0964 Y-20.5472
G01 X22.0991 Y-20.4736
G01 X22.1000 Y-20.4000
G01 X22.1000 Y-13.5000
G01 X22.0991 Y-13.4264
G01 X22.0964 Y-13.3528
G01 X22.0889 Y-13.2426
G01 X22.0774 Y-13.1328
G01 X22.0675 Y-13.0598
G01 X22.0580 Y-13.0000
G00 X22.0580 Y-13.0000
G01 F60.00
G01 Z-0.3000
G01 F60.00
G01 X28.4420 Y-13.0000
G01 X28.4325 Y-13.0598
G01 X28.4226 Y-13.1328
G01 X28.4111 Y-13.2426
G01 X28.4036 Y-13.3528
G01 X28.4009 Y-13.4264
G01 X28.4000 Y-13.5000
G01 X28.4000 Y-20.4000
G01 X28.4009 Y-20.4736
G01 X28.4036 Y-20.5472
G01 X28.4111 Y-20.6574
G01 X28.4226 Y-20.7672
G01 X28.4325 Y-20.8402
G01 X28.4420 Y-20.9000
G01 X22.0580 Y-20.9000
G01 X22.0675 Y-20.8402
G01 X22.0774 Y-20.7672
G01 X22.0889 Y-20.6574
G01 X22.0964 Y-20.5472
G01 X22.0991 Y-20.4736
G01 X22.1000 Y-20.4000
G01 X22.1000 Y-13.5000
G01 X22.0991 Y-13.4264
G01 X22.0964 Y-13.3528
G01 X22.0889 Y-13.2426
G01 X22.0774 Y-13.1328
G01 X22.0675 Y-13.0598
G01 X22.0580 Y-13.0000
G00 X22.0580 Y-13.0000
G01 F60.00
G01 Z-0.4000
G01 F60.00
G01 X28.4420 Y-13.0000
G01 X28.4325 Y-13.0598
G01 X28.4226 Y-13.1328
G01 X28.4111 Y-13.2426
G01 X28.4036 Y-13.3528
G01 X28.4009 Y-13.4264
G01 X28.4000 Y-13.5000
G01 X28.4000 Y-20.4000
G01 X28.4009 Y-20.4736
G01 X28.4036 Y-20.5472
G01 X28.4111 Y-20.6574
G01 X28.4226 Y-20.7672
G01 X28.4325 Y-20.8402
G01 X28.4420 Y-20.9000
G01 X22.0580 Y-20.9000
G01 X22.0675 Y-20.8402
G01 X22.0774 Y-20.7672
G01 X22.0889 Y-20.6574
G01 X22.0964 Y-20.5472
G01 X22.0991 Y-20.4736
G01 X22.1000 Y-20.4000
G01 X22.1000 Y-13.5000
G01 X22.0991 Y-13.4264
G01 X22.0964 Y-13.3528
G01 X22.0889 Y-13.2426
G01 X22.0774 Y-13.1328
G01 X22.0675 Y-13.0598
G01 X22.0580 Y-13.0000
G00 X22.0580 Y-13.0000
G01 F60.00
G01 Z-0.5000
G01 F60.00
G01 X28.4420 Y-13.0000
G01 X28.4325 Y-13.0598
G01 X28.4226 Y-13.1328
G01 X28.4111 Y-13.2426
G01 X28.4036 Y-13.3528
G01 X28.4009 Y-13.4264
G01 X28.4000 Y-13.5000
G01 X28.4000 Y-20.4000
G01 X28.4009 Y-20.4736
G01 X28.4036 Y-20.5472
G01 X28.4111 Y-20.6574
G01 X28.4226 Y-20.7672
G01 X28.4325 Y-20.8402
G01 X28.4420 Y-20.9000
G01 X22.0580 Y-20.9000
G01 X22.0675 Y-20.8402
G01 X22.0774 Y-20.7672
G01 X22.0889 Y-20.6574
G01 X22.0964 Y-20.5472
G01 X22.0991 Y-20.4736
G01 X22.1000 Y-20.4000
G01 X22.1000 Y-13.5000
G01 X22.0991 Y-13.4264
G01 X22.0964 Y-13.3528
G01 X22.0889 Y-13.2426
G01 X22.0774 Y-13.1328
G01 X22.0675 Y-13.0598
G01 X22.0580 Y-13.0000
G00 X22.0580 Y-13.0000
G01 F60.00
G01 Z-0.6000
G01 F60.00
G01 X28.4420 Y-13.0000
G01 X28.4325 Y-13.0598
G01 X28.4226 Y-13.1328
G01 X28.4111 Y-13.2426
G01 X28.4036 Y-13.3528
G01 X28.4009 Y-13.4264
G01 X28.4000 Y-13.5000
G01 X28.4000 Y-20.4000
G01 X28.4009 Y-20.4736
G01 X28.4036 Y-20.5472
G01 X28.4111 Y-20.6574
G01 X28.4226 Y-20.7672
G01 X28.4325 Y-20.8402
G01 X28.4420 Y-20.9000
G01 X22.0580 Y-20.9000
G01 X22.0675 Y-20.8402
G01 X22.0774 Y-20.7672
G01 X22.0889 Y-20.6574
G01 X22.0964 Y-20.5472
G01 X22.0991 Y-20.4736
G01 X22.1000 Y-20.4000
G01 X22.1000 Y-13.5000
G01 X22.0991 Y-13.4264
G01 X22.0964 Y-13.3528
G01 X22.0889 Y-13.2426
G01 X22.0774 Y-13.1328
G01 X22.0675 Y-13.0598
G01 X22.0580 Y-13.0000
G00 X22.0580 Y-13.0000
G01 F60.00
G01 Z-0.7000
G01 F60.00
G01 X28.4420 Y-13.0000
G01 X28.4325 Y-13.0598
G01 X28.4226 Y-13.1328
G01 X28.4111 Y-13.2426
G01 X28.4036 Y-13.3528
G01 X28.4009 Y-13.4264
G01 X28.4000 Y-13.5000
G01 X28.4000 Y-20.4000
G01 X28.4009 Y-20.4736
G01 X28.4036 Y-20.5472
G01 X28.4111 Y-20.6574
G01 X28.4226 Y-20.7672
G01 X28.4325 Y-20.8402
G01 X28.4420 Y-20.9000
G01 X22.0580 Y-20.9000
G01 X22.0675 Y-20.8402
G01 X22.0774 Y-20.7672
G01 X22.0889 Y-20.6574
G01 X22.0964 Y-20.5472
G01 X22.0991 Y-20.4736
G01 X22.1000 Y-20.4000
G01 X22.1000 Y-13.5000
G01 X22.0991 Y-13.4264
G01 X22.0964 Y-13.3528
G01 X22.0889 Y-13.2426
G01 X22.0774 Y-13.1328
G01 X22.0675 Y-13.0598
G01 X22.0580 Y-13.0000
G00 X22.0580 Y-13.0000
G01 F60.00
G01 Z-0.8000
G01 F60.00
G01 X28.4420 Y-13.0000
G01 X28.4325 Y-13.0598
G01 X28.4226 Y-13.1328
G01 X28.4111 Y-13.2426
G01 X28.4036 Y-13.3528
G01 X28.4009 Y-13.4264
G01 X28.4000 Y-13.5000
G01 X28.4000 Y-20.4000
G01 X28.4009 Y-20.4736
G01 X28.4036 Y-20.5472
G01 X28.4111 Y-20.6574
G01 X28.4226 Y-20.7672
G01 X28.4325 Y-20.8402
G01 X28.4420 Y-20.9000
G01 X22.0580 Y-20.9000
G01 X22.0675 Y-20.8402
G01 X22.0774 Y-20.7672
G01 X22.0889 Y-20.6574
G01 X22.0964 Y-20.5472
G01 X22.0991 Y-20.4736
G01 X22.1000 Y-20.4000
G01 X22.1000 Y-13.5000
G01 X22.0991 Y-13.4264
G01 X22.0964 Y-13.3528
G01 X22.0889 Y-13.2426
G01 X22.0774 Y-13.1328
G01 X22.0675 Y-13.0598
G01 X22.0580 Y-13.0000
G00 X22.0580 Y-13.0000
G01 F60.00
G01 Z-0.9000
G01 F60.00
G01 X28.4420 Y-13.0000
G01 X28.4325 Y-13.0598
G01 X28.4226 Y-13.1328
G01 X28.4111 Y-13.2426
G01 X28.4036 Y-13.3528
G01 X28.4009 Y-13.4264
G01 X28.4000 Y-13.5000
G01 X28.4000 Y-20.4000
G01 X28.4009 Y-20.4736
G01 X28.4036 Y-20.5472
G01 X28.4111 Y-20.6574
G01 X28.4226 Y-20.7672
G01 X28.4325 Y-20.8402
G01 X28.4420 Y-20.9000
G01 X22.0580 Y-20.9000
G01 X22.0675 Y-20.8402
G01 X22.0774 Y-20.7672
G01 X22.0889 Y-20.6574
G01 X22.0964 Y-20.5472
G01 X22.0991 Y-20.4736
G01 X22.1000 Y-20.4000
G01 X22.1000 Y-13.5000
G01 X22.0991 Y-13.4264
G01 X22.0964 Y-13.3528
G01 X22.0889 Y-13.2426
G01 X22.0774 Y-13.1328
G01 X22.0675 Y-13.0598
G01 X22.0580 Y-13.0000
G00 X22.0580 Y-13.0000
G01 F60.00
G01 Z-1.0000
G01 F60.00
G01 X28.4420 Y-13.0000
G01 X28.4325 Y-13.0598
G01 X28.4226 Y-13.1328
G01 X28.4111 Y-13.2426
G01 X28.4036 Y-13.3528
G01 X28.4009 Y-13.4264
G01 X28.4000 Y-13.5000
G01 X28.4000 Y-20.4000
G01 X28.4009 Y-20.4736
G01 X28.4036 Y-20.5472
G01 X28.4111 Y-20.6574
G01 X28.4226 Y-20.7672
G01 X28.4325 Y-20.8402
G01 X28.4420 Y-20.9000
G01 X22.0580 Y-20.9000
G01 X22.0675 Y-20.8402
G01 X22.0774 Y-20.7672
G01 X22.0889 Y-20.6574
G01 X22.0964 Y-20.5472
G01 X22.0991 Y-20.4736
G01 X22.1000 Y-20.4000
G01 X22.1000 Y-13.5000
G01 X22.0991 Y-13.4264
G01 X22.0964 Y-13.3528
G01 X22.0889 Y-13.2426
G01 X22.0774 Y-13.1328
G01 X22.0675 Y-13.0598
G01 X22.0580 Y-13.0000
G00 Z2.0000
G00 X25.4000 Y-17.9000
G01 F60.00
G01 Z-0.1000
G01 F60.00
G01 X25.1000 Y-17.9000
G01 X25.1000 Y-16.0000
G01 X25.4000 Y-16.0000
G01 X25.4000 Y-17.9000
G00 X25.4000 Y-17.9000
G01 F60.00
G01 Z-0.2000
G01 F60.00
G01 X25.1000 Y-17.9000
G01 X25.1000 Y-16.0000
G01 X25.4000 Y-16.0000
G01 X25.4000 Y-17.9000
G00 X25.4000 Y-17.9000
G01 F60.00
G01 Z-0.3000
G01 F60.00
G01 X25.1000 Y-17.9000
G01 X25.1000 Y-16.0000
G01 X25.4000 Y-16.0000
G01 X25.4000 Y-17.9000
G00 X25.4000 Y-17.9000
G01 F60.00
G01 Z-0.4000
G01 F60.00
G01 X25.1000 Y-17.9000
G01 X25.1000 Y-16.0000
G01 X25.4000 Y-16.0000
G01 X25.4000 Y-17.9000
G00 X25.4000 Y-17.9000
G01 F60.00
G01 Z-0.5000
G01 F60.00
G01 X25.1000 Y-17.9000
G01 X25.1000 Y-16.0000
G01 X25.4000 Y-16.0000
G01 X25.4000 Y-17.9000
G00 X25.4000 Y-17.9000
G01 F60.00
G01 Z-0.6000
G01 F60.00
G01 X25.1000 Y-17.9000
G01 X25.1000 Y-16.0000
G01 X25.4000 Y-16.0000
G01 X25.4000 Y-17.9000
G00 X25.4000 Y-17.9000
G01 F60.00
G01 Z-0.7000
G01 F60.00
G01 X25.1000 Y-17.9000
G01 X25.1000 Y-16.0000
G01 X25.4000 Y-16.0000
G01 X25.4000 Y-17.9000
G00 X25.4000 Y-17.9000
G01 F60.00
G01 Z-0.8000
G01 F60.00
G01 X25.1000 Y-17.9000
G01 X25.1000 Y-16.0000
G01 X25.4000 Y-16.0000
G01 X25.4000 Y-17.9000
G00 X25.4000 Y-17.9000
G01 F60.00
G01 Z-0.9000
G01 F60.00
G01 X25.1000 Y-17.9000
G01 X25.1000 Y-16.0000
G01 X25.4000 Y-16.0000
G01 X25.4000 Y-17.9000
G00 X25.4000 Y-17.9000
G01 F60.00
G01 Z-1.0000
G01 F60.00
G01 X25.1000 Y-17.9000
G01 X25.1000 Y-16.0000
G01 X25.4000 Y-16.0000
G01 X25.4000 Y-17.9000
G00 Z2.0000
G00 X26.4000 Y-18.9000
G01 F60.00
G01 Z-0.1000
G01 F60.00
G01 X24.1000 Y-18.9000
G01 X24.1000 Y-15.0000
G01 X26.4000 Y-15.0000
G01 X26.4000 Y-18.9000
G00 X26.4000 Y-18.9000
G01 F60.00
G01 Z-0.2000
G01 F60.00
G01 X24.1000 Y-18.9000
G01 X24.1000 Y-15.0000
G01 X26.4000 Y-15.0000
G01 X26.4000 Y-18.9000
G00 X26.4000 Y-18.9000
G01 F60.00
G01 Z-0.3000
G01 F60.00
G01 X24.1000 Y-18.9000
G01 X24.1000 Y-15.0000
G01 X26.4000 Y-15.0000
G01 X26.4000 Y-18.9000
G00 X26.4000 Y-18.9000
G01 F60.00
G01 Z-0.4000
G01 F60.00
G01 X24.1000 Y-18.9000
G01 X24.1000 Y-15.0000
G01 X26.4000 Y-15.0000
G01 X26.4000 Y-18.9000
G00 X26.4000 Y-18.9000
G01 F60.00
G01 Z-0.5000
G01 F60.00
G01 X24.1000 Y-18.9000
G01 X24.1000 Y-15.0000
G01 X26.4000 Y-15.0000
G01 X26.4000 Y-18.9000
G00 X26.4000 Y-18.9000
G01 F60.00
G01 Z-0.6000
G01 F60.00
G01 X24.1000 Y-18.9000
G01 X24.1000 Y-15.0000
G01 X26.4000 Y-15.0000
G01 X26.4000 Y-18.9000
G00 X26.4000 Y-18.9000
G01 F60.00
G01 Z-0.7000
G01 F60.00
G01 X24.1000 Y-18.9000
G01 X24.1000 Y-15.0000
G01 X26.4000 Y-15.0000
G01 X26.4000 Y-18.9000
G00 X26.4000 Y-18.9000
G01 F60.00
G01 Z-0.8000
G01 F60.00
G01 X24.1000 Y-18.9000
G01 X24.1000 Y-15.0000
G01 X26.4000 Y-15.0000
G01 X26.4000 Y-18.9000
G00 X26.4000 Y-18.9000
G01 F60.00
G01 Z-0.9000
G01 F60.00
G01 X24.1000 Y-18.9000
G01 X24.1000 Y-15.0000
G01 X26.4000 Y-15.0000
G01 X26.4000 Y-18.9000
G00 X26.4000 Y-18.9000
G01 F60.00
G01 Z-1.0000
G01 F60.00
G01 X24.1000 Y-18.9000
G01 X24.1000 Y-15.0000
G01 X26.4000 Y-15.0000
G01 X26.4000 Y-18.9000
G00 Z2.0000
G00 X23.1000 Y-19.9000
G01 F60.00
G01 Z-0.1000
G01 F60.00
G01 X23.1000 Y-14.0000
G01 X27.4000 Y-14.0000
G01 X27.4000 Y-19.9000
G01 X23.1000 Y-19.9000
G00 X23.1000 Y-19.9000
G01 F60.00
G01 Z-0.2000
G01 F60.00
G01 X23.1000 Y-14.0000
G01 X27.4000 Y-14.0000
G01 X27.4000 Y-19.9000
G01 X23.1000 Y-19.9000
G00 X23.1000 Y-19.9000
G01 F60.00
G01 Z-0.3000
G01 F60.00
G01 X23.1000 Y-14.0000
G01 X27.4000 Y-14.0000
G01 X27.4000 Y-19.9000
G01 X23.1000 Y-19.9000
G00 X23.1000 Y-19.9000
G01 F60.00
G01 Z-0.4000
G01 F60.00
G01 X23.1000 Y-14.0000
G01 X27.4000 Y-14.0000
G01 X27.4000 Y-19.9000
G01 X23.1000 Y-19.9000
G00 X23.1000 Y-19.9000
G01 F60.00
G01 Z-0.5000
G01 F60.00
G01 X23.1000 Y-14.0000
G01 X27.4000 Y-14.0000
G01 X27.4000 Y-19.9000
G01 X23.1000 Y-19.9000
G00 X23.1000 Y-19.9000
G01 F60.00
G01 Z-0.6000
G01 F60.00
G01 X23.1000 Y-14.0000
G01 X27.4000 Y-14.0000
G01 X27.4000 Y-19.9000
G01 X23.1000 Y-19.9000
G00 X23.1000 Y-19.9000
G01 F60.00
G01 Z-0.7000
G01 F60.00
G01 X23.1000 Y-14.0000
G01 X27.4000 Y-14.0000
G01 X27.4000 Y-19.9000
G01 X23.1000 Y-19.9000
G00 X23.1000 Y-19.9000
G01 F60.00
G01 Z-0.8000
G01 F60.00
G01 X23.1000 Y-14.0000
G01 X27.4000 Y-14.0000
G01 X27.4000 Y-19.9000
G01 X23.1000 Y-19.9000
G00 X23.1000 Y-19.9000
G01 F60.00
G01 Z-0.9000
G01 F60.00
G01 X23.1000 Y-14.0000
G01 X27.4000 Y-14.0000
G01 X27.4000 Y-19.9000
G01 X23.1000 Y-19.9000
G00 X23.1000 Y-19.9000
G01 F60.00
G01 Z-1.0000
G01 F60.00
G01 X23.1000 Y-14.0000
G01 X27.4000 Y-14.0000
G01 X27.4000 Y-19.9000
G01 X23.1000 Y-19.9000
G00 Z2.0000
G00 X32.4000 Y-22.4000
G01 F60.00
G01 Z-0.1000
G01 F60.00
G01 X59.3000 Y-22.4000
G01 X59.3368 Y-22.3993
G01 X59.3736 Y-22.3973
G01 X59.4102 Y-22.3939
G01 X59.4467 Y-22.3892
G01 X59.4830 Y-22.3831
G01 X59.5311 Y-22.3729
G01 X59.5667 Y-22.3638
G01 X59.6020 Y-22.3533
G01 X59.6484 Y-22.3373
G01 X59.6940 Y-22.3191
G01 X59.7496 Y-22.2932
G01 X59.7929 Y-22.2701
G01 X59.8453 Y-22.2382
G01 X59.8858 Y-22.2105
G01 X59.9249 Y-22.1807
G01 X59.9624 Y-22.1491
G01 X60.0071 Y-22.1071
G01 X61.0242 Y-21.0895
G01 X61.0491 Y-21.0624
G01 X61.0730 Y-21.0344
G01 X61.0958 Y-21.0055
G01 X61.1176 Y-20.9758
G01 X61.1382 Y-20.9453
G01 X61.1577 Y-20.9141
G01 X61.1761 Y-20.8822
G01 X61.1932 Y-20.8496
G01 X61.2092 Y-20.8164
G01 X61.2239 Y-20.7827
G01 X61.2373 Y-20.7484
G01 X61.2495 Y-20.7137
G01 X61.2604 Y-20.6785
G01 X61.2700 Y-20.6430
G01 X61.2831 Y-20.5830
G01 X61.2909 Y-20.5346
G01 X61.2963 Y-20.4858
G01 X61.2993 Y-20.4368
G01 X61.3000 Y-20.4000
G01 X61.3000 Y-13.5000
G01 X61.2993 Y-13.4632
G01 X61.2973 Y-13.4264
G01 X61.2939 Y-13.3898
G01 X61.2873 Y-13.3411
G01 X61.2808 Y-13.3049
G01 X61.2729 Y-13.2689
G01 X61.2638 Y-13.2333
G01 X61.2533 Y-13.1980
G01 X61.2373 Y-13.1516
G01 X61.2191 Y-13.1060
G01 X61.1932 Y-13.0504
G01 X61.1701 Y-13.0071
G01 X61.1449 Y-12.9650
G01 X61.1176 Y-12.9242
G01 X61.0807 Y-12.8751
G01 X61.0491 Y-12.8376
G01 X61.0071 Y-12.7929
G01 X60.0071 Y-11.7929
G01 X59.9716 Y-11.7590
G01 X59.9438 Y-11.7348
G01 X59.9055 Y-11.7042
G01 X59.8657 Y-11.6754
G01 X59.8350 Y-11.6551
G01 X59.8035 Y-11.6360
G01 X59.7605 Y-11.6124
G01 X59.7276 Y-11.5960
G01 X59.6827 Y-11.5761
G01 X59.6484 Y-11.5627
G01 X59.6020 Y-11.5467
G01 X59.5549 Y-11.5330
G01 X59.5191 Y-11.5243
G01 X59.4830 Y-11.5169
G01 X59.4346 Y-11.5091
G01 X59.3980 Y-11.5048
G01 X59.3613 Y-11.5019
G01 X59.3000 Y-11.5000
G01 X32.4000 Y-11.5000
G01 X32.3509 Y-11.5012
G01 X32.3142 Y-11.5037
G01 X32.2776 Y-11.5075
G01 X32.2411 Y-11.5127
G01 X32.2049 Y-11.5192
G01 X32.1689 Y-11.5271
G01 X32.1333 Y-11.5362
G01 X32.0980 Y-11.5467
G01 X32.0516 Y-11.5627
G01 X31.9948 Y-11.5858
G01 X31.9504 Y-11.6068
G01 X31.9071 Y-11.6299
G01 X31.8650 Y-11.6551
G01 X31.8242 Y-11.6824
G01 X31.7848 Y-11.7117
G01 X31.7376 Y-11.7509
G01 X31.6929 Y-11.7929
G01 X30.6758 Y-12.8105
G01 X30.6348 Y-12.8562
G01 X30.6117 Y-12.8848
G01 X30.5895 Y-12.9142
G01 X30.5685 Y-12.9444
G01 X30.5486 Y-12.9754
G01 X30.5299 Y-13.0071
G01 X30.5124 Y-13.0395
G01 X30.4960 Y-13.0724
G01 X30.4809 Y-13.1060
G01 X30.4670 Y-13.1401
G01 X30.4544 Y-13.1747
G01 X30.4431 Y-13.2097
G01 X30.4330 Y-13.2451
G01 X30.4243 Y-13.2809
G01 X30.4169 Y-13.3170
G01 X30.4091 Y-13.3654
G01 X30.4037 Y-13.4142
G01 X30.4012 Y-13.4509
G01 X30.4000 Y-13.5000
G01 X30.4003 Y-20.4245
G01 X30.4019 Y-20.4613
G01 X30.4061 Y-20.5102
G01 X30.4108 Y-20.5467
G01 X30.4169 Y-20.5830
G01 X30.4243 Y-20.6191
G01 X30.4330 Y-20.6549
G01 X30.4431 Y-20.6903
G01 X30.4544 Y-20.7253
G01 X30.4670 Y-20.7599
G01 X30.4809 Y-20.7940
G01 X30.5013 Y-20.8386
G01 X30.5181 Y-20.8714
G01 X30.5360 Y-20.9035
G01 X30.5618 Y-20.9453
G01 X30.5824 Y-20.9758
G01 X30.6042 Y-21.0055
G01 X30.6270 Y-21.0344
G01 X30.6509 Y-21.0624
G01 X30.6929 Y-21.1071
G01 X31.6929 Y-22.1071
G01 X31.7284 Y-22.1410
G01 X31.7656 Y-22.1730
G01 X31.8043 Y-22.2032
G01 X31.8444 Y-22.2315
G01 X31.8859 Y-22.2577
G01 X31.9286 Y-22.2819
G01 X31.9724 Y-22.3040
G01 X32.0173 Y-22.3239
G01 X32.0631 Y-22.3415
G01 X32.1097 Y-22.3569
G01 X32.1570 Y-22.3700
G01 X32.2049 Y-22.3808
G01 X32.2533 Y-22.3892
G01 X32.3020 Y-22.3952
G01 X32.3509 Y-22.3988
G01 X32.4000 Y-22.4000
G00 X32.4000 Y-22.4000
G01 F60.00
G01 Z-0.2000
G01 F60.00
G01 X59.3000 Y-22.4000
G01 X59.3368 Y-22.3993
G01 X59.3736 Y-22.3973
G01 X59.4102 Y-22.3939
G01 X59.4467 Y-22.3892
G01 X59.4830 Y-22.3831
G01 X59.5311 Y-22.3729
G01 X59.5667 Y-22.3638
G01 X59.6020 Y-22.3533
G01 X59.6484 Y-22.3373
G01 X59.6940 Y-22.3191
G01 X59.7496 Y-22.2932
G01 X59.7929 Y-22.2701
G01 X59.8453 Y-22.2382
G01 X59.8858 Y-22.2105
G01 X59.9249 Y-22.1807
G01 X59.9624 Y-22.1491
G01 X60.0071 Y-22.1071
G01 X61.0242 Y-21.0895
G01 X61.0491 Y-21.0624
G01 X61.0730 Y-21.0344
G01 X61.0958 Y-21.0055
G01 X61.1176 Y-20.9758
G01 X61.1382 Y-20.9453
G01 X61.1577 Y-20.9141
G01 X61.1761 Y-20.8822
G01 X61.1932 Y-20.8496
G01 X61.2092 Y-20.8164
G01 X61.2239 Y-20.7827
G01 X61.2373 Y-20.7484
G01 X61.2495 Y-20.7137
G01 X61.2604 Y-20.6785
G01 X61.2700 Y-20.6430
G01 X61.2831 Y-20.5830
G01 X61.2909 Y-20.5346
G01 X61.2963 Y-20.4858
G01 X61.2993 Y-20.4368
G01 X61.3000 Y-20.4000
G01 X61.3000 Y-13.5000
G01 X61.2993 Y-13.4632
G01 X61.2973 Y-13.4264
G01 X61.2939 Y-13.3898
G01 X61.2873 Y-13.3411
G01 X61.2808 Y-13.3049
G01 X61.2729 Y-13.2689
G01 X61.2638 Y-13.2333
G01 X61.2533 Y-13.1980
G01 X61.2373 Y-13.1516
G01 X61.2191 Y-13.1060
G01 X61.1932 Y-13.0504
G01 X61.1701 Y-13.0071
G01 X61.1449 Y-12.9650
G01 X61.1176 Y-12.9242
G01 X61.0807 Y-12.8751
G01 X61.0491 Y-12.8376
G01 X61.0071 Y-12.7929
G01 X60.0071 Y-11.7929
G01 X59.9716 Y-11.7590
G01 X59.9438 Y-11.7348
G01 X59.9055 Y-11.7042
G01 X59.8657 Y-11.6754
G01 X59.8350 Y-11.6551
G01 X59.8035 Y-11.6360
G01 X59.7605 Y-11.6124
G01 X59.7276 Y-11.5960
G01 X59.6827 Y-11.5761
G01 X59.6484 Y-11.5627
G01 X59.6020 Y-11.5467
G01 X59.5549 Y-11.5330
G01 X59.5191 Y-11.5243
G01 X59.4830 Y-11.5169
G01 X59.4346 Y-11.5091
G01 X59.3980 Y-11.5048
G01 X59.3613 Y-11.5019
G01 X59.3000 Y-11.5000
G01 X32.4000 Y-11.5000
G01 X32.3509 Y-11.5012
G01 X32.3142 Y-11.5037
G01 X32.2776 Y-11.5075
G01 X32.2411 Y-11.5127
G01 X32.2049 Y-11.5192
G01 X32.1689 Y-11.5271
G01 X32.1333 Y-11.5362
G01 X32.0980 Y-11.5467
G01 X32.0516 Y-11.5627
G01 X31.9948 Y-11.5858
G01 X31.9504 Y-11.6068
G01 X31.9071 Y-11.6299
G01 X31.8650 Y-11.6551
G01 X31.8242 Y-11.6824
G01 X31.7848 Y-11.7117
G01 X31.7376 Y-11.7509
G01 X31.6929 Y-11.7929
G01 X30.6758 Y-12.8105
G01 X30.6348 Y-12.8562
G01 X30.6117 Y-12.8848
G01 X30.5895 Y-12.9142
G01 X30.5685 Y-12.9444
G01 X30.5486 Y-12.9754
G01 X30.5299 Y-13.0071
G01 X30.5124 Y-13.0395
G01 X30.4960 Y-13.0724
G01 X30.4809 Y-13.1060
G01 X30.4670 Y-13.1401
G01 X30.4544 Y-13.1747
G01 X30.4431 Y-13.2097
G01 X30.4330 Y-13.2451
G01 X30.4243 Y-13.2809
G01 X30.4169 Y-13.3170
G01 X30.4091 Y-13.3654
G01 X30.4037 Y-13.4142
G01 X30.4012 Y-13.4509
G01 X30.4000 Y-13.5000
G01 X30.4003 Y-20.4245
G01 X30.4019 Y-20.4613
G01 X30.4061 Y-20.5102
G01 X30.4108 Y-20.5467
G01 X30.4169 Y-20.5830
G01 X30.4243 Y-20.6191
G01 X30.4330 Y-20.6549
G01 X30.4431 Y-20.6903
G01 X30.4544 Y-20.7253
G01 X30.4670 Y-20.7599
G01 X30.4809 Y-20.7940
G01 X30.5013 Y-20.8386
G01 X30.5181 Y-20.8714
G01 X30.5360 Y-20.9035
G01 X30.5618 Y-20.9453
G01 X30.5824 Y-20.9758
G01 X30.6042 Y-21.0055
G01 X30.6270 Y-21.0344
G01 X30.6509 Y-21.0624
G01 X30.6929 Y-21.1071
G01 X31.6929 Y-22.1071
G01 X31.7284 Y-22.1410
G01 X31.7656 Y-22.1730
G01 X31.8043 Y-22.2032
G01 X31.8444 Y-22.2315
G01 X31.8859 Y-22.2577
G01 X31.9286 Y-22.2819
G01 X31.9724 Y-22.3040
G01 X32.0173 Y-22.3239
G01 X32.0631 Y-22.3415
G01 X32.1097 Y-22.3569
G01 X32.1570 Y-22.3700
G01 X32.2049 Y-22.3808
G01 X32.2533 Y-22.3892
G01 X32.3020 Y-22.3952
G01 X32.3509 Y-22.3988
G01 X32.4000 Y-22.4000
G00 X32.4000 Y-22.4000
G01 F60.00
G01 Z-0.3000
G01 F60.00
G01 X59.3000 Y-22.4000
G01 X59.3368 Y-22.3993
G01 X59.3736 Y-22.3973
G01 X59.4102 Y-22.3939
G01 X59.4467 Y-22.3892
G01 X59.4830 Y-22.3831
G01 X59.5311 Y-22.3729
G01 X59.5667 Y-22.3638
G01 X59.6020 Y-22.3533
G01 X59.6484 Y-22.3373
G01 X59.6940 Y-22.3191
G01 X59.7496 Y-22.2932
G01 X59.7929 Y-22.2701
G01 X59.8453 Y-22.2382
G01 X59.8858 Y-22.2105
G01 X59.9249 Y-22.1807
G01 X59.9624 Y-22.1491
G01 X60.0071 Y-22.1071
G01 X61.0242 Y-21.0895
G01 X61.0491 Y-21.0624
G01 X61.0730 Y-21.0344
G01 X61.0958 Y-21.0055
G01 X61.1176 Y-20.9758
G01 X61.1382 Y-20.9453
G01 X61.1577 Y-20.9141
G01 X61.1761 Y-20.8822
G01 X61.1932 Y-20.8496
G01 X61.2092 Y-20.8164
G01 X61.2239 Y-20.7827
G01 X61.2373 Y-20.7484
G01 X61.2495 Y-20.7137
G01 X61.2604 Y-20.6785
G01 X61.2700 Y-20.6430
G01 X61.2831 Y-20.5830
G01 X61.2909 Y-20.5346
G01 X61.2963 Y-20.4858
G01 X61.2993 Y-20.4368
G01 X61.3000 Y-20.4000
G01 X61.3000 Y-13.5000
G01 X61.2993 Y-13.4632
G01 X61.2973 Y-13.4264
G01 X61.2939 Y-13.3898
G01 X61.2873 Y-13.3411
G01 X61.2808 Y-13.3049
G01 X61.2729 Y-13.2689
G01 X61.2638 Y-13.2333
G01 X61.2533 Y-13.1980
G01 X61.2373 Y-13.1516
G01 X61.2191 Y-13.1060
G01 X61.1932 Y-13.0504
G01 X61.1701 Y-13.0071
G01 X61.1449 Y-12.9650
G01 X61.1176 Y-12.9242
G01 X61.0807 Y-12.8751
G01 X61.0491 Y-12.8376
G01 X61.0071 Y-12.7929
G01 X60.0071 Y-11.7929
G01 X59.9716 Y-11.7590
G01 X59.9438 Y-11.7348
G01 X59.9055 Y-11.7042
G01 X59.8657 Y-11.6754
G01 X59.8350 Y-11.6551
G01 X59.8035 Y-11.6360
G01 X59.7605 Y-11.6124
G01 X59.7276 Y-11.5960
G01 X59.6827 Y-11.5761
G01 X59.6484 Y-11.5627
G01 X59.6020 Y-11.5467
G01 X59.5549 Y-11.5330
G01 X59.5191 Y-11.5243
G01 X59.4830 Y-11.5169
G01 X59.4346 Y-11.5091
G01 X59.3980 Y-11.5048
G01 X59.3613 Y-11.5019
G01 X59.3000 Y-11.5000
G01 X32.4000 Y-11.5000
G01 X32.3509 Y-11.5012
G01 X32.3142 Y-11.5037
G01 X32.2776 Y-11.5075
G01 X32.2411 Y-11.5127
G01 X32.2049 Y-11.5192
G01 X32.1689 Y-11.5271
G01 X32.1333 Y-11.5362
G01 X32.0980 Y-11.5467
G01 X32.0516 Y-11.5627
G01 X31.9948 Y-11.5858
G01 X31.9504 Y-11.6068
G01 X31.9071 Y-11.6299
G01 X31.8650 Y-11.6551
G01 X31.8242 Y-11.6824
G01 X31.7848 Y-11.7117
G01 X31.7376 Y-11.7509
G01 X31.6929 Y-11.7929
G01 X30.6758 Y-12.8105
G01 X30.6348 Y-12.8562
G01 X30.6117 Y-12.8848
G01 X30.5895 Y-12.9142
G01 X30.5685 Y-12.9444
G01 X30.5486 Y-12.9754
G01 X30.5299 Y-13.0071
G01 X30.5124 Y-13.0395
G01 X30.4960 Y-13.0724
G01 X30.4809 Y-13.1060
G01 X30.4670 Y-13.1401
G01 X30.4544 Y-13.1747
G01 X30.4431 Y-13.2097
G01 X30.4330 Y-13.2451
G01 X30.4243 Y-13.2809
G01 X30.4169 Y-13.3170
G01 X30.4091 Y-13.3654
G01 X30.4037 Y-13.4142
G01 X30.4012 Y-13.4509
G01 X30.4000 Y-13.5000
G01 X30.4003 Y-20.4245
G01 X30.4019 Y-20.4613
G01 X30.4061 Y-20.5102
G01 X30.4108 Y-20.5467
G01 X30.4169 Y-20.5830
G01 X30.4243 Y-20.6191
G01 X30.4330 Y-20.6549
G01 X30.4431 Y-20.6903
G01 X30.4544 Y-20.7253
G01 X30.4670 Y-20.7599
G01 X30.4809 Y-20.7940
G01 X30.5013 Y-20.8386
G01 X30.5181 Y-20.8714
G01 X30.5360 Y-20.9035
G01 X30.5618 Y-20.9453
G01 X30.5824 Y-20.9758
G01 X30.6042 Y-21.0055
G01 X30.6270 Y-21.0344
G01 X30.6509 Y-21.0624
G01 X30.6929 Y-21.1071
G01 X31.6929 Y-22.1071
G01 X31.7284 Y-22.1410
G01 X31.7656 Y-22.1730
G01 X31.8043 Y-22.2032
G01 X31.8444 Y-22.2315
G01 X31.8859 Y-22.2577
G01 X31.9286 Y-22.2819
G01 X31.9724 Y-22.3040
G01 X32.0173 Y-22.3239
G01 X32.0631 Y-22.3415
G01 X32.1097 Y-22.3569
G01 X32.1570 Y-22.3700
G01 X32.2049 Y-22.3808
G01 X32.2533 Y-22.3892
G01 X32.3020 Y-22.3952
G01 X32.3509 Y-22.3988
G01 X32.4000 Y-22.4000
G00 X32.4000 Y-22.4000
G01 F60.00
G01 Z-0.4000
G01 F60.00
G01 X59.3000 Y-22.4000
G01 X59.3368 Y-22.3993
G01 X59.3736 Y-22.3973
G01 X59.4102 Y-22.3939
G01 X59.4467 Y-22.3892
G01 X59.4830 Y-22.3831
G01 X59.5311 Y-22.3729
G01 X59.5667 Y-22.3638
G01 X59.6020 Y-22.3533
G01 X59.6484 Y-22.3373
G01 X59.6940 Y-22.3191
G01 X59.7496 Y-22.2932
G01 X59.7929 Y-22.2701
G01 X59.8453 Y-22.2382
G01 X59.8858 Y-22.2105
G01 X59.9249 Y-22.1807
G01 X59.9624 Y-22.1491
G01 X60.0071 Y-22.1071
G01 X61.0242 Y-21.0895
G01 X61.0491 Y-21.0624
G01 X61.0730 Y-21.0344
G01 X61.0958 Y-21.0055
G01 X61.1176 Y-20.9758
G01 X61.1382 Y-20.9453
G01 X61.1577 Y-20.9141
G01 X61.1761 Y-20.8822
G01 X61.1932 Y-20.8496
G01 X61.2092 Y-20.8164
G01 X61.2239 Y-20.7827
G01 X61.2373 Y-20.7484
G01 X61.2495 Y-20.7137
G01 X61.2604 Y-20.6785
G01 X61.2700 Y-20.6430
G01 X61.2831 Y-20.5830
G01 X61.2909 Y-20.5346
G01 X61.2963 Y-20.4858
G01 X61.2993 Y-20.4368
G01 X61.3000 Y-20.4000
G01 X61.3000 Y-13.5000
G01 X61.2993 Y-13.4632
G01 X61.2973 Y-13.4264
G01 X61.2939 Y-13.3898
G01 X61.2873 Y-13.3411
G01 X61.2808 Y-13.3049
G01 X61.2729 Y-13.2689
G01 X61.2638 Y-13.2333
G01 X61.2533 Y-13.1980
G01 X61.2373 Y-13.1516
G01 X61.2191 Y-13.1060
G01 X61.1932 Y-13.0504
G01 X61.1701 Y-13.0071
G01 X61.1449 Y-12.9650
G01 X61.1176 Y-12.9242
G01 X61.0807 Y-12.8751
G01 X61.0491 Y-12.8376
G01 X61.0071 Y-12.7929
G01 X60.0071 Y-11.7929
G01 X59.9716 Y-11.7590
G01 X59.9438 Y-11.7348
G01 X59.9055 Y-11.7042
G01 X59.8657 Y-11.6754
G01 X59.8350 Y-11.6551
G01 X59.8035 Y-11.6360
G01 X59.7605 Y-11.6124
G01 X59.7276 Y-11.5960
G01 X59.6827 Y-11.5761
G01 X59.6484 Y-11.5627
G01 X59.6020 Y-11.5467
G01 X59.5549 Y-11.5330
G01 X59.5191 Y-11.5243
G01 X59.4830 Y-11.5169
G01 X59.4346 Y-11.5091
G01 X59.3980 Y-11.5048
G01 X59.3613 Y-11.5019
G01 X59.3000 Y-11.5000
G01 X32.4000 Y-11.5000
G01 X32.3509 Y-11.5012
G01 X32.3142 Y-11.5037
G01 X32.2776 Y-11.5075
G01 X32.2411 Y-11.5127
G01 X32.2049 Y-11.5192
G01 X32.1689 Y-11.5271
G01 X32.1333 Y-11.5362
G01 X32.0980 Y-11.5467
G01 X32.0516 Y-11.5627
G01 X31.9948 Y-11.5858
G01 X31.9504 Y-11.6068
G01 X31.9071 Y-11.6299
G01 X31.8650 Y-11.6551
G01 X31.8242 Y-11.6824
G01 X31.7848 Y-11.7117
G01 X31.7376 Y-11.7509
G01 X31.6929 Y-11.7929
G01 X30.6758 Y-12.8105
G01 X30.6348 Y-12.8562
G01 X30.6117 Y-12.8848
G01 X30.5895 Y-12.9142
G01 X30.5685 Y-12.9444
G01 X30.5486 Y-12.9754
G01 X30.5299 Y-13.0071
G01 X30.5124 Y-13.0395
G01 X30.4960 Y-13.0724
G01 X30.4809 Y-13.1060
G01 X30.4670 Y-13.1401
G01 X30.4544 Y-13.1747
G01 X30.4431 Y-13.2097
G01 X30.4330 Y-13.2451
G01 X30.4243 Y-13.2809
G01 X30.4169 Y-13.3170
G01 X30.4091 Y-13.3654
G01 X30.4037 Y-13.4142
G01 X30.4012 Y-13.4509
G01 X30.4000 Y-13.5000
G01 X30.4003 Y-20.4245
G01 X30.4019 Y-20.4613
G01 X30.4061 Y-20.5102
G01 X30.4108 Y-20.5467
G01 X30.4169 Y-20.5830
G01 X30.4243 Y-20.6191
G01 X30.4330 Y-20.6549
G01 X30.4431 Y-20.6903
G01 X30.4544 Y-20.7253
G01 X30.4670 Y-20.7599
G01 X30.4809 Y-20.7940
G01 X30.5013 Y-20.8386
G01 X30.5181 Y-20.8714
G01 X30.5360 Y-20.9035
G01 X30.5618 Y-20.9453
G01 X30.5824 Y-20.9758
G01 X30.6042 Y-21.0055
G01 X30.6270 Y-21.0344
G01 X30.6509 Y-21.0624
G01 X30.6929 Y-21.1071
G01 X31.6929 Y-22.1071
G01 X31.7284 Y-22.1410
G01 X31.7656 Y-22.1730
G01 X31.8043 Y-22.2032
G01 X31.8444 Y-22.2315
G01 X31.8859 Y-22.2577
G01 X31.9286 Y-22.2819
G01 X31.9724 Y-22.3040
G01 X32.0173 Y-22.3239
G01 X32.0631 Y-22.3415
G01 X32.1097 Y-22.3569
G01 X32.1570 Y-22.3700
G01 X32.2049 Y-22.3808
G01 X32.2533 Y-22.3892
G01 X32.3020 Y-22.3952
G01 X32.3509 Y-22.3988
G01 X32.4000 Y-22.4000
G00 X32.4000 Y-22.4000
G01 F60.00
G01 Z-0.5000
G01 F60.00
G01 X59.3000 Y-22.4000
G01 X59.3368 Y-22.3993
G01 X59.3736 Y-22.3973
G01 X59.4102 Y-22.3939
G01 X59.4467 Y-22.3892
G01 X59.4830 Y-22.3831
G01 X59.5311 Y-22.3729
G01 X59.5667 Y-22.3638
G01 X59.6020 Y-22.3533
G01 X59.6484 Y-22.3373
G01 X59.6940 Y-22.3191
G01 X59.7496 Y-22.2932
G01 X59.7929 Y-22.2701
G01 X59.8453 Y-22.2382
G01 X59.8858 Y-22.2105
G01 X59.9249 Y-22.1807
G01 X59.9624 Y-22.1491
G01 X60.0071 Y-22.1071
G01 X61.0242 Y-21.0895
G01 X61.0491 Y-21.0624
G01 X61.0730 Y-21.0344
G01 X61.0958 Y-21.0055
G01 X61.1176 Y-20.9758
G01 X61.1382 Y-20.9453
G01 X61.1577 Y-20.9141
G01 X61.1761 Y-20.8822
G01 X61.1932 Y-20.8496
G01 X61.2092 Y-20.8164
G01 X61.2239 Y-20.7827
G01 X61.2373 Y-20.7484
G01 X61.2495 Y-20.7137
G01 X61.2604 Y-20.6785
G01 X61.2700 Y-20.6430
G01 X61.2831 Y-20.5830
G01 X61.2909 Y-20.5346
G01 X61.2963 Y-20.4858
G01 X61.2993 Y-20.4368
G01 X61.3000 Y-20.4000
G01 X61.3000 Y-13.5000
G01 X61.2993 Y-13.4632
G01 X61.2973 Y-13.4264
G01 X61.2939 Y-13.3898
G01 X61.2873 Y-13.3411
G01 X61.2808 Y-13.3049
G01 X61.2729 Y-13.2689
G01 X61.2638 Y-13.2333
G01 X61.2533 Y-13.1980
G01 X61.2373 Y-13.1516
G01 X61.2191 Y-13.1060
G01 X61.1932 Y-13.0504
G01 X61.1701 Y-13.0071
G01 X61.1449 Y-12.9650
G01 X61.1176 Y-12.9242
G01 X61.0807 Y-12.8751
G01 X61.0491 Y-12.8376
G01 X61.0071 Y-12.7929
G01 X60.0071 Y-11.7929
G01 X59.9716 Y-11.7590
G01 X59.9438 Y-11.7348
G01 X59.9055 Y-11.7042
G01 X59.8657 Y-11.6754
G01 X59.8350 Y-11.6551
G01 X59.8035 Y-11.6360
G01 X59.7605 Y-11.6124
G01 X59.7276 Y-11.5960
G01 X59.6827 Y-11.5761
G01 X59.6484 Y-11.5627
G01 X59.6020 Y-11.5467
G01 X59.5549 Y-11.5330
G01 X59.5191 Y-11.5243
G01 X59.4830 Y-11.5169
G01 X59.4346 Y-11.5091
G01 X59.3980 Y-11.5048
G01 X59.3613 Y-11.5019
G01 X59.3000 Y-11.5000
G01 X32.4000 Y-11.5000
G01 X32.3509 Y-11.5012
G01 X32.3142 Y-11.5037
G01 X32.2776 Y-11.5075
G01 X32.2411 Y-11.5127
G01 X32.2049 Y-11.5192
G01 X32.1689 Y-11.5271
G01 X32.1333 Y-11.5362
G01 X32.0980 Y-11.5467
G01 X32.0516 Y-11.5627
G01 X31.9948 Y-11.5858
G01 X31.9504 Y-11.6068
G01 X31.9071 Y-11.6299
G01 X31.8650 Y-11.6551
G01 X31.8242 Y-11.6824
G01 X31.7848 Y-11.7117
G01 X31.7376 Y-11.7509
G01 X31.6929 Y-11.7929
G01 X30.6758 Y-12.8105
G01 X30.6348 Y-12.8562
G01 X30.6117 Y-12.8848
G01 X30.5895 Y-12.9142
G01 X30.5685 Y-12.9444
G01 X30.5486 Y-12.9754
G01 X30.5299 Y-13.0071
G01 X30.5124 Y-13.0395
G01 X30.4960 Y-13.0724
G01 X30.4809 Y-13.1060
G01 X30.4670 Y-13.1401
G01 X30.4544 Y-13.1747
G01 X30.4431 Y-13.2097
G01 X30.4330 Y-13.2451
G01 X30.4243 Y-13.2809
G01 X30.4169 Y-13.3170
G01 X30.4091 Y-13.3654
G01 X30.4037 Y-13.4142
G01 X30.4012 Y-13.4509
G01 X30.4000 Y-13.5000
G01 X30.4003 Y-20.4245
G01 X30.4019 Y-20.4613
G01 X30.4061 Y-20.5102
G01 X30.4108 Y-20.5467
G01 X30.4169 Y-20.5830
G01 X30.4243 Y-20.6191
G01 X30.4330 Y-20.6549
G01 X30.4431 Y-20.6903
G01 X30.4544 Y-20.7253
G01 X30.4670 Y-20.7599
G01 X30.4809 Y-20.7940
G01 X30.5013 Y-20.8386
G01 X30.5181 Y-20.8714
G01 X30.5360 Y-20.9035
G01 X30.5618 Y-20.9453
G01 X30.5824 Y-20.9758
G01 X30.6042 Y-21.0055
G01 X30.6270 Y-21.0344
G01 X30.6509 Y-21.0624
G01 X30.6929 Y-21.1071
G01 X31.6929 Y-22.1071
G01 X31.7284 Y-22.1410
G01 X31.7656 Y-22.1730
G01 X31.8043 Y-22.2032
G01 X31.8444 Y-22.2315
G01 X31.8859 Y-22.2577
G01 X31.9286 Y-22.2819
G01 X31.9724 Y-22.3040
G01 X32.0173 Y-22.3239
G01 X32.0631 Y-22.3415
G01 X32.1097 Y-22.3569
G01 X32.1570 Y-22.3700
G01 X32.2049 Y-22.3808
G01 X32.2533 Y-22.3892
G01 X32.3020 Y-22.3952
G01 X32.3509 Y-22.3988
G01 X32.4000 Y-22.4000
G00 X32.4000 Y-22.4000
G01 F60.00
G01 Z-0.6000
G01 F60.00
G01 X59.3000 Y-22.4000
G01 X59.3368 Y-22.3993
G01 X59.3736 Y-22.3973
G01 X59.4102 Y-22.3939
G01 X59.4467 Y-22.3892
G01 X59.4830 Y-22.3831
G01 X59.5311 Y-22.3729
G01 X59.5667 Y-22.3638
G01 X59.6020 Y-22.3533
G01 X59.6484 Y-22.3373
G01 X59.6940 Y-22.3191
G01 X59.7496 Y-22.2932
G01 X59.7929 Y-22.2701
G01 X59.8453 Y-22.2382
G01 X59.8858 Y-22.2105
G01 X59.9249 Y-22.1807
G01 X59.9624 Y-22.1491
G01 X60.0071 Y-22.1071
G01 X61.0242 Y-21.0895
G01 X61.0491 Y-21.0624
G01 X61.0730 Y-21.0344
G01 X61.0958 Y-21.0055
G01 X61.1176 Y-20.9758
G01 X61.1382 Y-20.9453
G01 X61.1577 Y-20.9141
G01 X61.1761 Y-20.8822
G01 X61.1932 Y-20.8496
G01 X61.2092 Y-20.8164
G01 X61.2239 Y-20.7827
G01 X61.2373 Y-20.7484
G01 X61.2495 Y-20.7137
G01 X61.2604 Y-20.6785
G01 X61.2700 Y-20.6430
G01 X61.2831 Y-20.5830
G01 X61.2909 Y-20.5346
G01 X61.2963 Y-20.4858
G01 X61.2993 Y-20.4368
G01 X61.3000 Y-20.4000
G01 X61.3000 Y-13.5000
G01 X61.2993 Y-13.4632
G01 X61.2973 Y-13.4264
G01 X61.2939 Y-13.3898
G01 X61.2873 Y-13.3411
G01 X61.2808 Y-13.3049
G01 X61.2729 Y-13.2689
G01 X61.2638 Y-13.2333
G01 X61.2533 Y-13.1980
G01 X61.2373 Y-13.1516
G01 X61.2191 Y-13.1060
G01 X61.1932 Y-13.0504
G01 X61.1701 Y-13.0071
G01 X61.1449 Y-12.9650
G01 X61.1176 Y-12.9242
G01 X61.0807 Y-12.8751
G01 X61.0491 Y-12.8376
G01 X61.0071 Y-12.7929
G01 X60.0071 Y-11.7929
G01 X59.9716 Y-11.7590
G01 X59.9438 Y-11.7348
G01 X59.9055 Y-11.7042
G01 X59.8657 Y-11.6754
G01 X59.8350 Y-11.6551
G01 X59.8035 Y-11.6360
G01 X59.7605 Y-11.6124
G01 X59.7276 Y-11.5960
G01 X59.6827 Y-11.5761
G01 X59.6484 Y-11.5627
G01 X59.6020 Y-11.5467
G01 X59.5549 Y-11.5330
G01 X59.5191 Y-11.5243
G01 X59.4830 Y-11.5169
G01 X59.4346 Y-11.5091
G01 X59.3980 Y-11.5048
G01 X59.3613 Y-11.5019
G01 X59.3000 Y-11.5000
G01 X32.4000 Y-11.5000
G01 X32.3509 Y-11.5012
G01 X32.3142 Y-11.5037
G01 X32.2776 Y-11.5075
G01 X32.2411 Y-11.5127
G01 X32.2049 Y-11.5192
G01 X32.1689 Y-11.5271
G01 X32.1333 Y-11.5362
G01 X32.0980 Y-11.5467
G01 X32.0516 Y-11.5627
G01 X31.9948 Y-11.5858
G01 X31.9504 Y-11.6068
G01 X31.9071 Y-11.6299
G01 X31.8650 Y-11.6551
G01 X31.8242 Y-11.6824
G01 X31.7848 Y-11.7117
G01 X31.7376 Y-11.7509
G01 X31.6929 Y-11.7929
G01 X30.6758 Y-12.8105
G01 X30.6348 Y-12.8562
G01 X30.6117 Y-12.8848
G01 X30.5895 Y-12.9142
G01 X30.5685 Y-12.9444
G01 X30.5486 Y-12.9754
G01 X30.5299 Y-13.0071
G01 X30.5124 Y-13.0395
G01 X30.4960 Y-13.0724
G01 X30.4809 Y-13.1060
G01 X30.4670 Y-13.1401
G01 X30.4544 Y-13.1747
G01 X30.4431 Y-13.2097
G01 X30.4330 Y-13.2451
G01 X30.4243 Y-13.2809
G01 X30.4169 Y-13.3170
G01 X30.4091 Y-13.3654
G01 X30.4037 Y-13.4142
G01 X30.4012 Y-13.4509
G01 X30.4000 Y-13.5000
G01 X30.4003 Y-20.4245
G01 X30.4019 Y-20.4613
G01 X30.4061 Y-20.5102
G01 X30.4108 Y-20.5467
G01 X30.4169 Y-20.5830
G01 X30.4243 Y-20.6191
G01 X30.4330 Y-20.6549
G01 X30.4431 Y-20.6903
G01 X30.4544 Y-20.7253
G01 X30.4670 Y-20.7599
G01 X30.4809 Y-20.7940
G01 X30.5013 Y-20.8386
G01 X30.5181 Y-20.8714
G01 X30.5360 Y-20.9035
G01 X30.5618 Y-20.9453
G01 X30.5824 Y-20.9758
G01 X30.6042 Y-21.0055
G01 X30.6270 Y-21.0344
G01 X30.6509 Y-21.0624
G01 X30.6929 Y-21.1071
G01 X31.6929 Y-22.1071
G01 X31.7284 Y-22.1410
G01 X31.7656 Y-22.1730
G01 X31.8043 Y-22.2032
G01 X31.8444 Y-22.2315
G01 X31.8859 Y-22.2577
G01 X31.9286 Y-22.2819
G01 X31.9724 Y-22.3040
G01 X32.0173 Y-22.3239
G01 X32.0631 Y-22.3415
G01 X32.1097 Y-22.3569
G01 X32.1570 Y-22.3700
G01 X32.2049 Y-22.3808
G01 X32.2533 Y-22.3892
G01 X32.3020 Y-22.3952
G01 X32.3509 Y-22.3988
G01 X32.4000 Y-22.4000
G00 X32.4000 Y-22.4000
G01 F60.00
G01 Z-0.7000
G01 F60.00
G01 X59.3000 Y-22.4000
G01 X59.3368 Y-22.3993
G01 X59.3736 Y-22.3973
G01 X59.4102 Y-22.3939
G01 X59.4467 Y-22.3892
G01 X59.4830 Y-22.3831
G01 X59.5311 Y-22.3729
G01 X59.5667 Y-22.3638
G01 X59.6020 Y-22.3533
G01 X59.6484 Y-22.3373
G01 X59.6940 Y-22.3191
G01 X59.7496 Y-22.2932
G01 X59.7929 Y-22.2701
G01 X59.8453 Y-22.2382
G01 X59.8858 Y-22.2105
G01 X59.9249 Y-22.1807
G01 X59.9624 Y-22.1491
G01 X60.0071 Y-22.1071
G01 X61.0242 Y-21.0895
G01 X61.0491 Y-21.0624
G01 X61.0730 Y-21.0344
G01 X61.0958 Y-21.0055
G01 X61.1176 Y-20.9758
G01 X61.1382 Y-20.9453
G01 X61.1577 Y-20.9141
G01 X61.1761 Y-20.8822
G01 X61.1932 Y-20.8496
G01 X61.2092 Y-20.8164
G01 X61.2239 Y-20.7827
G01 X61.2373 Y-20.7484
G01 X61.2495 Y-20.7137
G01 X61.2604 Y-20.6785
G01 X61.2700 Y-20.6430
G01 X61.2831 Y-20.5830
G01 X61.2909 Y-20.5346
G01 X61.2963 Y-20.4858
G01 X61.2993 Y-20.4368
G01 X61.3000 Y-20.4000
G01 X61.3000 Y-13.5000
G01 X61.2993 Y-13.4632
G01 X61.2973 Y-13.4264
G01 X61.2939 Y-13.3898
G01 X61.2873 Y-13.3411
G01 X61.2808 Y-13.3049
G01 X61.2729 Y-13.2689
G01 X61.2638 Y-13.2333
G01 X61.2533 Y-13.1980
G01 X61.2373 Y-13.1516
G01 X61.2191 Y-13.1060
G01 X61.1932 Y-13.0504
G01 X61.1701 Y-13.0071
G01 X61.1449 Y-12.9650
G01 X61.1176 Y-12.9242
G01 X61.0807 Y-12.8751
G01 X61.0491 Y-12.8376
G01 X61.0071 Y-12.7929
G01 X60.0071 Y-11.7929
G01 X59.9716 Y-11.7590
G01 X59.9438 Y-11.7348
G01 X59.9055 Y-11.7042
G01 X59.8657 Y-11.6754
G01 X59.8350 Y-11.6551
G01 X59.8035 Y-11.6360
G01 X59.7605 Y-11.6124
G01 X59.7276 Y-11.5960
G01 X59.6827 Y-11.5761
G01 X59.6484 Y-11.5627
G01 X59.6020 Y-11.5467
G01 X59.5549 Y-11.5330
G01 X59.5191 Y-11.5243
G01 X59.4830 Y-11.5169
G01 X59.4346 Y-11.5091
G01 X59.3980 Y-11.5048
G01 X59.3613 Y-11.5019
G01 X59.3000 Y-11.5000
G01 X32.4000 Y-11.5000
G01 X32.3509 Y-11.5012
G01 X32.3142 Y-11.5037
G01 X32.2776 Y-11.5075
G01 X32.2411 Y-11.5127
G01 X32.2049 Y-11.5192
G01 X32.1689 Y-11.5271
G01 X32.1333 Y-11.5362
G01 X32.0980 Y-11.5467
G01 X32.0516 Y-11.5627
G01 X31.9948 Y-11.5858
G01 X31.9504 Y-11.6068
G01 X31.9071 Y-11.6299
G01 X31.8650 Y-11.6551
G01 X31.8242 Y-11.6824
G01 X31.7848 Y-11.7117
G01 X31.7376 Y-11.7509
G01 X31.6929 Y-11.7929
G01 X30.6758 Y-12.8105
G01 X30.6348 Y-12.8562
G01 X30.6117 Y-12.8848
G01 X30.5895 Y-12.9142
G01 X30.5685 Y-12.9444
G01 X30.5486 Y-12.9754
G01 X30.5299 Y-13.0071
G01 X30.5124 Y-13.0395
G01 X30.4960 Y-13.0724
G01 X30.4809 Y-13.1060
G01 X30.4670 Y-13.1401
G01 X30.4544 Y-13.1747
G01 X30.4431 Y-13.2097
G01 X30.4330 Y-13.2451
G01 X30.4243 Y-13.2809
G01 X30.4169 Y-13.3170
G01 X30.4091 Y-13.3654
G01 X30.4037 Y-13.4142
G01 X30.4012 Y-13.4509
G01 X30.4000 Y-13.5000
G01 X30.4003 Y-20.4245
G01 X30.4019 Y-20.4613
G01 X30.4061 Y-20.5102
G01 X30.4108 Y-20.5467
G01 X30.4169 Y-20.5830
G01 X30.4243 Y-20.6191
G01 X30.4330 Y-20.6549
G01 X30.4431 Y-20.6903
G01 X30.4544 Y-20.7253
G01 X30.4670 Y-20.7599
G01 X30.4809 Y-20.7940
G01 X30.5013 Y-20.8386
G01 X30.5181 Y-20.8714
G01 X30.5360 Y-20.9035
G01 X30.5618 Y-20.9453
G01 X30.5824 Y-20.9758
G01 X30.6042 Y-21.0055
G01 X30.6270 Y-21.0344
G01 X30.6509 Y-21.0624
G01 X30.6929 Y-21.1071
G01 X31.6929 Y-22.1071
G01 X31.7284 Y-22.1410
G01 X31.7656 Y-22.1730
G01 X31.8043 Y-22.2032
G01 X31.8444 Y-22.2315
G01 X31.8859 Y-22.2577
G01 X31.9286 Y-22.2819
G01 X31.9724 Y-22.3040
G01 X32.0173 Y-22.3239
G01 X32.0631 Y-22.3415
G01 X32.1097 Y-22.3569
G01 X32.1570 Y-22.3700
G01 X32.2049 Y-22.3808
G01 X32.2533 Y-22.3892
G01 X32.3020 Y-22.3952
G01 X32.3509 Y-22.3988
G01 X32.4000 Y-22.4000
G00 X32.4000 Y-22.4000
G01 F60.00
G01 Z-0.8000
G01 F60.00
G01 X59.3000 Y-22.4000
G01 X59.3368 Y-22.3993
G01 X59.3736 Y-22.3973
G01 X59.4102 Y-22.3939
G01 X59.4467 Y-22.3892
G01 X59.4830 Y-22.3831
G01 X59.5311 Y-22.3729
G01 X59.5667 Y-22.3638
G01 X59.6020 Y-22.3533
G01 X59.6484 Y-22.3373
G01 X59.6940 Y-22.3191
G01 X59.7496 Y-22.2932
G01 X59.7929 Y-22.2701
G01 X59.8453 Y-22.2382
G01 X59.8858 Y-22.2105
G01 X59.9249 Y-22.1807
G01 X59.9624 Y-22.1491
G01 X60.0071 Y-22.1071
G01 X61.0242 Y-21.0895
G01 X61.0491 Y-21.0624
G01 X61.0730 Y-21.0344
G01 X61.0958 Y-21.0055
G01 X61.1176 Y-20.9758
G01 X61.1382 Y-20.9453
G01 X61.1577 Y-20.9141
G01 X61.1761 Y-20.8822
G01 X61.1932 Y-20.8496
G01 X61.2092 Y-20.8164
G01 X61.2239 Y-20.7827
G01 X61.2373 Y-20.7484
G01 X61.2495 Y-20.7137
G01 X61.2604 Y-20.6785
G01 X61.2700 Y-20.6430
G01 X61.2831 Y-20.5830
G01 X61.2909 Y-20.5346
G01 X61.2963 Y-20.4858
G01 X61.2993 Y-20.4368
G01 X61.3000 Y-20.4000
G01 X61.3000 Y-13.5000
G01 X61.2993 Y-13.4632
G01 X61.2973 Y-13.4264
G01 X61.2939 Y-13.3898
G01 X61.2873 Y-13.3411
G01 X61.2808 Y-13.3049
G01 X61.2729 Y-13.2689
G01 X61.2638 Y-13.2333
G01 X61.2533 Y-13.1980
G01 X61.2373 Y-13.1516
G01 X61.2191 Y-13.1060
G01 X61.1932 Y-13.0504
G01 X61.1701 Y-13.0071
G01 X61.1449 Y-12.9650
G01 X61.1176 Y-12.9242
G01 X61.0807 Y-12.8751
G01 X61.0491 Y-12.8376
G01 X61.0071 Y-12.7929
G01 X60.0071 Y-11.7929
G01 X59.9716 Y-11.7590
G01 X59.9438 Y-11.7348
G01 X59.9055 Y-11.7042
G01 X59.8657 Y-11.6754
G01 X59.8350 Y-11.6551
G01 X59.8035 Y-11.6360
G01 X59.7605 Y-11.6124
G01 X59.7276 Y-11.5960
G01 X59.6827 Y-11.5761
G01 X59.6484 Y-11.5627
G01 X59.6020 Y-11.5467
G01 X59.5549 Y-11.5330
G01 X59.5191 Y-11.5243
G01 X59.4830 Y-11.5169
G01 X59.4346 Y-11.5091
G01 X59.3980 Y-11.5048
G01 X59.3613 Y-11.5019
G01 X59.3000 Y-11.5000
G01 X32.4000 Y-11.5000
G01 X32.3509 Y-11.5012
G01 X32.3142 Y-11.5037
G01 X32.2776 Y-11.5075
G01 X32.2411 Y-11.5127
G01 X32.2049 Y-11.5192
G01 X32.1689 Y-11.5271
G01 X32.1333 Y-11.5362
G01 X32.0980 Y-11.5467
G01 X32.0516 Y-11.5627
G01 X31.9948 Y-11.5858
G01 X31.9504 Y-11.6068
G01 X31.9071 Y-11.6299
G01 X31.8650 Y-11.6551
G01 X31.8242 Y-11.6824
G01 X31.7848 Y-11.7117
G01 X31.7376 Y-11.7509
G01 X31.6929 Y-11.7929
G01 X30.6758 Y-12.8105
G01 X30.6348 Y-12.8562
G01 X30.6117 Y-12.8848
G01 X30.5895 Y-12.9142
G01 X30.5685 Y-12.9444
G01 X30.5486 Y-12.9754
G01 X30.5299 Y-13.0071
G01 X30.5124 Y-13.0395
G01 X30.4960 Y-13.0724
G01 X30.4809 Y-13.1060
G01 X30.4670 Y-13.1401
G01 X30.4544 Y-13.1747
G01 X30.4431 Y-13.2097
G01 X30.4330 Y-13.2451
G01 X30.4243 Y-13.2809
G01 X30.4169 Y-13.3170
G01 X30.4091 Y-13.3654
G01 X30.4037 Y-13.4142
G01 X30.4012 Y-13.4509
G01 X30.4000 Y-13.5000
G01 X30.4003 Y-20.4245
G01 X30.4019 Y-20.4613
G01 X30.4061 Y-20.5102
G01 X30.4108 Y-20.5467
G01 X30.4169 Y-20.5830
G01 X30.4243 Y-20.6191
G01 X30.4330 Y-20.6549
G01 X30.4431 Y-20.6903
G01 X30.4544 Y-20.7253
G01 X30.4670 Y-20.7599
G01 X30.4809 Y-20.7940
G01 X30.5013 Y-20.8386
G01 X30.5181 Y-20.8714
G01 X30.5360 Y-20.9035
G01 X30.5618 Y-20.9453
G01 X30.5824 Y-20.9758
G01 X30.6042 Y-21.0055
G01 X30.6270 Y-21.0344
G01 X30.6509 Y-21.0624
G01 X30.6929 Y-21.1071
G01 X31.6929 Y-22.1071
G01 X31.7284 Y-22.1410
G01 X31.7656 Y-22.1730
G01 X31.8043 Y-22.2032
G01 X31.8444 Y-22.2315
G01 X31.8859 Y-22.2577
G01 X31.9286 Y-22.2819
G01 X31.9724 Y-22.3040
G01 X32.0173 Y-22.3239
G01 X32.0631 Y-22.3415
G01 X32.1097 Y-22.3569
G01 X32.1570 Y-22.3700
G01 X32.2049 Y-22.3808
G01 X32.2533 Y-22.3892
G01 X32.3020 Y-22.3952
G01 X32.3509 Y-22.3988
G01 X32.4000 Y-22.4000
G00 X32.4000 Y-22.4000
G01 F60.00
G01 Z-0.9000
G01 F60.00
G01 X59.3000 Y-22.4000
G01 X59.3368 Y-22.3993
G01 X59.3736 Y-22.3973
G01 X59.4102 Y-22.3939
G01 X59.4467 Y-22.3892
G01 X59.4830 Y-22.3831
G01 X59.5311 Y-22.3729
G01 X59.5667 Y-22.3638
G01 X59.6020 Y-22.3533
G01 X59.6484 Y-22.3373
G01 X59.6940 Y-22.3191
G01 X59.7496 Y-22.2932
G01 X59.7929 Y-22.2701
G01 X59.8453 Y-22.2382
G01 X59.8858 Y-22.2105
G01 X59.9249 Y-22.1807
G01 X59.9624 Y-22.1491
G01 X60.0071 Y-22.1071
G01 X61.0242 Y-21.0895
G01 X61.0491 Y-21.0624
G01 X61.0730 Y-21.0344
G01 X61.0958 Y-21.0055
G01 X61.1176 Y-20.9758
G01 X61.1382 Y-20.9453
G01 X61.1577 Y-20.9141
G01 X61.1761 Y-20.8822
G01 X61.1932 Y-20.8496
G01 X61.2092 Y-20.8164
G01 X61.2239 Y-20.7827
G01 X61.2373 Y-20.7484
G01 X61.2495 Y-20.7137
G01 X61.2604 Y-20.6785
G01 X61.2700 Y-20.6430
G01 X61.2831 Y-20.5830
G01 X61.2909 Y-20.5346
G01 X61.2963 Y-20.4858
G01 X61.2993 Y-20.4368
G01 X61.3000 Y-20.4000
G01 X61.3000 Y-13.5000
G01 X61.2993 Y-13.4632
G01 X61.2973 Y-13.4264
G01 X61.2939 Y-13.3898
G01 X61.2873 Y-13.3411
G01 X61.2808 Y-13.3049
G01 X61.2729 Y-13.2689
G01 X61.2638 Y-13.2333
G01 X61.2533 Y-13.1980
G01 X61.2373 Y-13.1516
G01 X61.2191 Y-13.1060
G01 X61.1932 Y-13.0504
G01 X61.1701 Y-13.0071
G01 X61.1449 Y-12.9650
G01 X61.1176 Y-12.9242
G01 X61.0807 Y-12.8751
G01 X61.0491 Y-12.8376
G01 X61.0071 Y-12.7929
G01 X60.0071 Y-11.7929
G01 X59.9716 Y-11.7590
G01 X59.9438 Y-11.7348
G01 X59.9055 Y-11.7042
G01 X59.8657 Y-11.6754
G01 X59.8350 Y-11.6551
G01 X59.8035 Y-11.6360
G01 X59.7605 Y-11.6124
G01 X59.7276 Y-11.5960
G01 X59.6827 Y-11.5761
G01 X59.6484 Y-11.5627
G01 X59.6020 Y-11.5467
G01 X59.5549 Y-11.5330
G01 X59.5191 Y-11.5243
G01 X59.4830 Y-11.5169
G01 X59.4346 Y-11.5091
G01 X59.3980 Y-11.5048
G01 X59.3613 Y-11.5019
G01 X59.3000 Y-11.5000
G01 X32.4000 Y-11.5000
G01 X32.3509 Y-11.5012
G01 X32.3142 Y-11.5037
G01 X32.2776 Y-11.5075
G01 X32.2411 Y-11.5127
G01 X32.2049 Y-11.5192
G01 X32.1689 Y-11.5271
G01 X32.1333 Y-11.5362
G01 X32.0980 Y-11.5467
G01 X32.0516 Y-11.5627
G01 X31.9948 Y-11.5858
G01 X31.9504 Y-11.6068
G01 X31.9071 Y-11.6299
G01 X31.8650 Y-11.6551
G01 X31.8242 Y-11.6824
G01 X31.7848 Y-11.7117
G01 X31.7376 Y-11.7509
G01 X31.6929 Y-11.7929
G01 X30.6758 Y-12.8105
G01 X30.6348 Y-12.8562
G01 X30.6117 Y-12.8848
G01 X30.5895 Y-12.9142
G01 X30.5685 Y-12.9444
G01 X30.5486 Y-12.9754
G01 X30.5299 Y-13.0071
G01 X30.5124 Y-13.0395
G01 X30.4960 Y-13.0724
G01 X30.4809 Y-13.1060
G01 X30.4670 Y-13.1401
G01 X30.4544 Y-13.1747
G01 X30.4431 Y-13.2097
G01 X30.4330 Y-13.2451
G01 X30.4243 Y-13.2809
G01 X30.4169 Y-13.3170
G01 X30.4091 Y-13.3654
G01 X30.4037 Y-13.4142
G01 X30.4012 Y-13.4509
G01 X30.4000 Y-13.5000
G01 X30.4003 Y-20.4245
G01 X30.4019 Y-20.4613
G01 X30.4061 Y-20.5102
G01 X30.4108 Y-20.5467
G01 X30.4169 Y-20.5830
G01 X30.4243 Y-20.6191
G01 X30.4330 Y-20.6549
G01 X30.4431 Y-20.6903
G01 X30.4544 Y-20.7253
G01 X30.4670 Y-20.7599
G01 X30.4809 Y-20.7940
G01 X30.5013 Y-20.8386
G01 X30.5181 Y-20.8714
G01 X30.5360 Y-20.9035
G01 X30.5618 Y-20.9453
G01 X30.5824 Y-20.9758
G01 X30.6042 Y-21.0055
G01 X30.6270 Y-21.0344
G01 X30.6509 Y-21.0624
G01 X30.6929 Y-21.1071
G01 X31.6929 Y-22.1071
G01 X31.7284 Y-22.1410
G01 X31.7656 Y-22.1730
G01 X31.8043 Y-22.2032
G01 X31.8444 Y-22.2315
G01 X31.8859 Y-22.2577
G01 X31.9286 Y-22.2819
G01 X31.9724 Y-22.3040
G01 X32.0173 Y-22.3239
G01 X32.0631 Y-22.3415
G01 X32.1097 Y-22.3569
G01 X32.1570 Y-22.3700
G01 X32.2049 Y-22.3808
G01 X32.2533 Y-22.3892
G01 X32.3020 Y-22.3952
G01 X32.3509 Y-22.3988
G01 X32.4000 Y-22.4000
G00 X32.4000 Y-22.4000
G01 F60.00
G01 Z-1.0000
G01 F60.00
G01 X59.3000 Y-22.4000
G01 X59.3368 Y-22.3993
G01 X59.3736 Y-22.3973
G01 X59.4102 Y-22.3939
G01 X59.4467 Y-22.3892
G01 X59.4830 Y-22.3831
G01 X59.5311 Y-22.3729
G01 X59.5667 Y-22.3638
G01 X59.6020 Y-22.3533
G01 X59.6484 Y-22.3373
G01 X59.6940 Y-22.3191
G01 X59.7496 Y-22.2932
G01 X59.7929 Y-22.2701
G01 X59.8453 Y-22.2382
G01 X59.8858 Y-22.2105
G01 X59.9249 Y-22.1807
G01 X59.9624 Y-22.1491
G01 X60.0071 Y-22.1071
G01 X61.0242 Y-21.0895
G01 X61.0491 Y-21.0624
G01 X61.0730 Y-21.0344
G01 X61.0958 Y-21.0055
G01 X61.1176 Y-20.9758
G01 X61.1382 Y-20.9453
G01 X61.1577 Y-20.9141
G01 X61.1761 Y-20.8822
G01 X61.1932 Y-20.8496
G01 X61.2092 Y-20.8164
G01 X61.2239 Y-20.7827
G01 X61.2373 Y-20.7484
G01 X61.2495 Y-20.7137
G01 X61.2604 Y-20.6785
G01 X61.2700 Y-20.6430
G01 X61.2831 Y-20.5830
G01 X61.2909 Y-20.5346
G01 X61.2963 Y-20.4858
G01 X61.2993 Y-20.4368
G01 X61.3000 Y-20.4000
G01 X61.3000 Y-13.5000
G01 X61.2993 Y-13.4632
G01 X61.2973 Y-13.4264
G01 X61.2939 Y-13.3898
G01 X61.2873 Y-13.3411
G01 X61.2808 Y-13.3049
G01 X61.2729 Y-13.2689
G01 X61.2638 Y-13.2333
G01 X61.2533 Y-13.1980
G01 X61.2373 Y-13.1516
G01 X61.2191 Y-13.1060
G01 X61.1932 Y-13.0504
G01 X61.1701 Y-13.0071
G01 X61.1449 Y-12.9650
G01 X61.1176 Y-12.9242
G01 X61.0807 Y-12.8751
G01 X61.0491 Y-12.8376
G01 X61.0071 Y-12.7929
G01 X60.0071 Y-11.7929
G01 X59.9716 Y-11.7590
G01 X59.9438 Y-11.7348
G01 X59.9055 Y-11.7042
G01 X59.8657 Y-11.6754
G01 X59.8350 Y-11.6551
G01 X59.8035 Y-11.6360
G01 X59.7605 Y-11.6124
G01 X59.7276 Y-11.5960
G01 X59.6827 Y-11.5761
G01 X59.6484 Y-11.5627
G01 X59.6020 Y-11.5467
G01 X59.5549 Y-11.5330
G01 X59.5191 Y-11.5243
G01 X59.4830 Y-11.5169
G01 X59.4346 Y-11.5091
G01 X59.3980 Y-11.5048
G01 X59.3613 Y-11.5019
G01 X59.3000 Y-11.5000
G01 X32.4000 Y-11.5000
G01 X32.3509 Y-11.5012
G01 X32.3142 Y-11.5037
G01 X32.2776 Y-11.5075
G01 X32.2411 Y-11.5127
G01 X32.2049 Y-11.5192
G01 X32.1689 Y-11.5271
G01 X32.1333 Y-11.5362
G01 X32.0980 Y-11.5467
G01 X32.0516 Y-11.5627
G01 X31.9948 Y-11.5858
G01 X31.9504 Y-11.6068
G01 X31.9071 Y-11.6299
G01 X31.8650 Y-11.6551
G01 X31.8242 Y-11.6824
G01 X31.7848 Y-11.7117
G01 X31.7376 Y-11.7509
G01 X31.6929 Y-11.7929
G01 X30.6758 Y-12.8105
G01 X30.6348 Y-12.8562
G01 X30.6117 Y-12.8848
G01 X30.5895 Y-12.9142
G01 X30.5685 Y-12.9444
G01 X30.5486 Y-12.9754
G01 X30.5299 Y-13.0071
G01 X30.5124 Y-13.0395
G01 X30.4960 Y-13.0724
G01 X30.4809 Y-13.1060
G01 X30.4670 Y-13.1401
G01 X30.4544 Y-13.1747
G01 X30.4431 Y-13.2097
G01 X30.4330 Y-13.2451
G01 X30.4243 Y-13.2809
G01 X30.4169 Y-13.3170
G01 X30.4091 Y-13.3654
G01 X30.4037 Y-13.4142
G01 X30.4012 Y-13.4509
G01 X30.4000 Y-13.5000
G01 X30.4003 Y-20.4245
G01 X30.4019 Y-20.4613
G01 X30.4061 Y-20.5102
G01 X30.4108 Y-20.5467
G01 X30.4169 Y-20.5830
G01 X30.4243 Y-20.6191
G01 X30.4330 Y-20.6549
G01 X30.4431 Y-20.6903
G01 X30.4544 Y-20.7253
G01 X30.4670 Y-20.7599
G01 X30.4809 Y-20.7940
G01 X30.5013 Y-20.8386
G01 X30.5181 Y-20.8714
G01 X30.5360 Y-20.9035
G01 X30.5618 Y-20.9453
G01 X30.5824 Y-20.9758
G01 X30.6042 Y-21.0055
G01 X30.6270 Y-21.0344
G01 X30.6509 Y-21.0624
G01 X30.6929 Y-21.1071
G01 X31.6929 Y-22.1071
G01 X31.7284 Y-22.1410
G01 X31.7656 Y-22.1730
G01 X31.8043 Y-22.2032
G01 X31.8444 Y-22.2315
G01 X31.8859 Y-22.2577
G01 X31.9286 Y-22.2819
G01 X31.9724 Y-22.3040
G01 X32.0173 Y-22.3239
G01 X32.0631 Y-22.3415
G01 X32.1097 Y-22.3569
G01 X32.1570 Y-22.3700
G01 X32.2049 Y-22.3808
G01 X32.2533 Y-22.3892
G01 X32.3020 Y-22.3952
G01 X32.3509 Y-22.3988
G01 X32.4000 Y-22.4000
G00 Z2.0000
G00 X11.2000 Y-22.4000
G01 F60.00
G01 Z-0.1000
G01 F60.00
G01 X18.1000 Y-22.4000
G01 X18.1491 Y-22.3988
G01 X18.1858 Y-22.3963
G01 X18.2224 Y-22.3925
G01 X18.2589 Y-22.3873
G01 X18.3191 Y-22.3757
G01 X18.3549 Y-22.3670
G01 X18.3903 Y-22.3569
G01 X18.4253 Y-22.3456
G01 X18.4599 Y-22.3330
G01 X18.5164 Y-22.3092
G01 X18.5714 Y-22.2819
G01 X18.6035 Y-22.2640
G01 X18.6350 Y-22.2449
G01 X18.6858 Y-22.2105
G01 X18.7152 Y-22.1883
G01 X18.7438 Y-22.1652
G01 X18.7716 Y-22.1410
G01 X18.8071 Y-22.1071
G01 X19.8157 Y-21.0984
G01 X19.8410 Y-21.0716
G01 X19.8652 Y-21.0438
G01 X19.8883 Y-21.0152
G01 X19.9176 Y-20.9758
G01 X19.9382 Y-20.9453
G01 X19.9577 Y-20.9141
G01 X19.9761 Y-20.8822
G01 X19.9932 Y-20.8496
G01 X20.0092 Y-20.8164
G01 X20.0239 Y-20.7827
G01 X20.0373 Y-20.7484
G01 X20.0495 Y-20.7137
G01 X20.0604 Y-20.6785
G01 X20.0700 Y-20.6430
G01 X20.0783 Y-20.6071
G01 X20.0853 Y-20.5710
G01 X20.0909 Y-20.5346
G01 X20.0952 Y-20.4980
G01 X20.0981 Y-20.4613
G01 X20.0997 Y-20.4245
G01 X20.1000 Y-13.5000
G01 X20.0981 Y-13.4387
G01 X20.0952 Y-13.4020
G01 X20.0909 Y-13.3654
G01 X20.0853 Y-13.3290
G01 X20.0783 Y-13.2929
G01 X20.0700 Y-13.2570
G01 X20.0604 Y-13.2215
G01 X20.0415 Y-13.1631
G01 X20.0285 Y-13.1287
G01 X20.0142 Y-13.0948
G01 X19.9987 Y-13.0614
G01 X19.9819 Y-13.0286
G01 X19.9640 Y-12.9965
G01 X19.9449 Y-12.9650
G01 X19.9105 Y-12.9142
G01 X19.8883 Y-12.8848
G01 X19.8652 Y-12.8562
G01 X19.8410 Y-12.8284
G01 X19.8071 Y-12.7929
G01 X18.7984 Y-11.7843
G01 X18.7716 Y-11.7590
G01 X18.7438 Y-11.7348
G01 X18.7152 Y-11.7117
G01 X18.6758 Y-11.6824
G01 X18.6453 Y-11.6618
G01 X18.6141 Y-11.6423
G01 X18.5822 Y-11.6239
G01 X18.5496 Y-11.6068
G01 X18.5164 Y-11.5908
G01 X18.4827 Y-11.5761
G01 X18.4484 Y-11.5627
G01 X18.4137 Y-11.5505
G01 X18.3785 Y-11.5396
G01 X18.3430 Y-11.5300
G01 X18.3071 Y-11.5217
G01 X18.2710 Y-11.5147
G01 X18.2346 Y-11.5091
G01 X18.1980 Y-11.5048
G01 X18.1613 Y-11.5019
G01 X18.1245 Y-11.5003
G01 X11.2000 Y-11.5000
G01 X11.1387 Y-11.5019
G01 X11.1020 Y-11.5048
G01 X11.0654 Y-11.5091
G01 X11.0290 Y-11.5147
G01 X10.9929 Y-11.5217
G01 X10.9570 Y-11.5300
G01 X10.9215 Y-11.5396
G01 X10.8631 Y-11.5585
G01 X10.8287 Y-11.5715
G01 X10.7948 Y-11.5858
G01 X10.7614 Y-11.6013
G01 X10.7286 Y-11.6181
G01 X10.6965 Y-11.6360
G01 X10.6650 Y-11.6551
G01 X10.6142 Y-11.6895
G01 X10.5848 Y-11.7117
G01 X10.5562 Y-11.7348
G01 X10.5284 Y-11.7590
G01 X10.4929 Y-11.7929
G01 X9.4843 Y-12.8016
G01 X9.4590 Y-12.8284
G01 X9.4348 Y-12.8562
G01 X9.4117 Y-12.8848
G01 X9.3824 Y-12.9242
G01 X9.3618 Y-12.9547
G01 X9.3423 Y-12.9859
G01 X9.3239 Y-13.0178
G01 X9.3068 Y-13.0504
G01 X9.2908 Y-13.0836
G01 X9.2761 Y-13.1173
G01 X9.2627 Y-13.1516
G01 X9.2505 Y-13.1863
G01 X9.2396 Y-13.2215
G01 X9.2300 Y-13.2570
G01 X9.2217 Y-13.2929
G01 X9.2147 Y-13.3290
G01 X9.2091 Y-13.3654
G01 X9.2048 Y-13.4020
G01 X9.2019 Y-13.4387
G01 X9.2003 Y-13.4755
G01 X9.2000 Y-20.4000
G01 X9.2012 Y-20.4491
G01 X9.2037 Y-20.4858
G01 X9.2091 Y-20.5346
G01 X9.2169 Y-20.5830
G01 X9.2300 Y-20.6430
G01 X9.2467 Y-20.7020
G01 X9.2670 Y-20.7599
G01 X9.2809 Y-20.7940
G01 X9.2960 Y-20.8276
G01 X9.3239 Y-20.8822
G01 X9.3423 Y-20.9141
G01 X9.3618 Y-20.9453
G01 X9.3968 Y-20.9957
G01 X9.4348 Y-21.0438
G01 X9.4590 Y-21.0716
G01 X9.4929 Y-21.1071
G01 X10.4929 Y-22.1071
G01 X10.5284 Y-22.1410
G01 X10.5656 Y-22.1730
G01 X10.6043 Y-22.2032
G01 X10.6343 Y-22.2246
G01 X10.6754 Y-22.2514
G01 X10.7178 Y-22.2761
G01 X10.7614 Y-22.2987
G01 X10.7948 Y-22.3142
G01 X10.8401 Y-22.3330
G01 X10.8747 Y-22.3456
G01 X10.9215 Y-22.3604
G01 X10.9689 Y-22.3729
G01 X11.0170 Y-22.3831
G01 X11.0654 Y-22.3909
G01 X11.1142 Y-22.3963
G01 X11.1509 Y-22.3988
G01 X11.2000 Y-22.4000
G00 X11.2000 Y-22.4000
G01 F60.00
G01 Z-0.2000
G01 F60.00
G01 X18.1000 Y-22.4000
G01 X18.1491 Y-22.3988
G01 X18.1858 Y-22.3963
G01 X18.2224 Y-22.3925
G01 X18.2589 Y-22.3873
G01 X18.3191 Y-22.3757
G01 X18.3549 Y-22.3670
G01 X18.3903 Y-22.3569
G01 X18.4253 Y-22.3456
G01 X18.4599 Y-22.3330
G01 X18.5164 Y-22.3092
G01 X18.5714 Y-22.2819
G01 X18.6035 Y-22.2640
G01 X18.6350 Y-22.2449
G01 X18.6858 Y-22.2105
G01 X18.7152 Y-22.1883
G01 X18.7438 Y-22.1652
G01 X18.7716 Y-22.1410
G01 X18.8071 Y-22.1071
G01 X19.8157 Y-21.0984
G01 X19.8410 Y-21.0716
G01 X19.8652 Y-21.0438
G01 X19.8883 Y-21.0152
G01 X19.9176 Y-20.9758
G01 X19.9382 Y-20.9453
G01 X19.9577 Y-20.9141
G01 X19.9761 Y-20.8822
G01 X19.9932 Y-20.8496
G01 X20.0092 Y-20.8164
G01 X20.0239 Y-20.7827
G01 X20.0373 Y-20.7484
G01 X20.0495 Y-20.7137
G01 X20.0604 Y-20.6785
G01 X20.0700 Y-20.6430
G01 X20.0783 Y-20.6071
G01 X20.0853 Y-20.5710
G01 X20.0909 Y-20.5346
G01 X20.0952 Y-20.4980
G01 X20.0981 Y-20.4613
G01 X20.0997 Y-20.4245
G01 X20.1000 Y-13.5000
G01 X20.0981 Y-13.4387
G01 X20.0952 Y-13.4020
G01 X20.0909 Y-13.3654
G01 X20.0853 Y-13.3290
G01 X20.0783 Y-13.2929
G01 X20.0700 Y-13.2570
G01 X20.0604 Y-13.2215
G01 X20.0415 Y-13.1631
G01 X20.0285 Y-13.1287
G01 X20.0142 Y-13.0948
G01 X19.9987 Y-13.0614
G01 X19.9819 Y-13.0286
G01 X19.9640 Y-12.9965
G01 X19.9449 Y-12.9650
G01 X19.9105 Y-12.9142
G01 X19.8883 Y-12.8848
G01 X19.8652 Y-12.8562
G01 X19.8410 Y-12.8284
G01 X19.8071 Y-12.7929
G01 X18.7984 Y-11.7843
G01 X18.7716 Y-11.7590
G01 X18.7438 Y-11.7348
G01 X18.7152 Y-11.7117
G01 X18.6758 Y-11.6824
G01 X18.6453 Y-11.6618
G01 X18.6141 Y-11.6423
G01 X18.5822 Y-11.6239
G01 X18.5496 Y-11.6068
G01 X18.5164 Y-11.5908
G01 X18.4827 Y-11.5761
G01 X18.4484 Y-11.5627
G01 X18.4137 Y-11.5505
G01 X18.3785 Y-11.5396
G01 X18.3430 Y-11.5300
G01 X18.3071 Y-11.5217
G01 X18.2710 Y-11.5147
G01 X18.2346 Y-11.5091
G01 X18.1980 Y-11.5048
G01 X18.1613 Y-11.5019
G01 X18.1245 Y-11.5003
G01 X11.2000 Y-11.5000
G01 X11.1387 Y-11.5019
G01 X11.1020 Y-11.5048
G01 X11.0654 Y-11.5091
G01 X11.0290 Y-11.5147
G01 X10.9929 Y-11.5217
G01 X10.9570 Y-11.5300
G01 X10.9215 Y-11.5396
G01 X10.8631 Y-11.5585
G01 X10.8287 Y-11.5715
G01 X10.7948 Y-11.5858
G01 X10.7614 Y-11.6013
G01 X10.7286 Y-11.6181
G01 X10.6965 Y-11.6360
G01 X10.6650 Y-11.6551
G01 X10.6142 Y-11.6895
G01 X10.5848 Y-11.7117
G01 X10.5562 Y-11.7348
G01 X10.5284 Y-11.7590
G01 X10.4929 Y-11.7929
G01 X9.4843 Y-12.8016
G01 X9.4590 Y-12.8284
G01 X9.4348 Y-12.8562
G01 X9.4117 Y-12.8848
G01 X9.3824 Y-12.9242
G01 X9.3618 Y-12.9547
G01 X9.3423 Y-12.9859
G01 X9.3239 Y-13.0178
G01 X9.3068 Y-13.0504
G01 X9.2908 Y-13.0836
G01 X9.2761 Y-13.1173
G01 X9.2627 Y-13.1516
G01 X9.2505 Y-13.1863
G01 X9.2396 Y-13.2215
G01 X9.2300 Y-13.2570
G01 X9.2217 Y-13.2929
G01 X9.2147 Y-13.3290
G01 X9.2091 Y-13.3654
G01 X9.2048 Y-13.4020
G01 X9.2019 Y-13.4387
G01 X9.2003 Y-13.4755
G01 X9.2000 Y-20.4000
G01 X9.2012 Y-20.4491
G01 X9.2037 Y-20.4858
G01 X9.2091 Y-20.5346
G01 X9.2169 Y-20.5830
G01 X9.2300 Y-20.6430
G01 X9.2467 Y-20.7020
G01 X9.2670 Y-20.7599
G01 X9.2809 Y-20.7940
G01 X9.2960 Y-20.8276
G01 X9.3239 Y-20.8822
G01 X9.3423 Y-20.9141
G01 X9.3618 Y-20.9453
G01 X9.3968 Y-20.9957
G01 X9.4348 Y-21.0438
G01 X9.4590 Y-21.0716
G01 X9.4929 Y-21.1071
G01 X10.4929 Y-22.1071
G01 X10.5284 Y-22.1410
G01 X10.5656 Y-22.1730
G01 X10.6043 Y-22.2032
G01 X10.6343 Y-22.2246
G01 X10.6754 Y-22.2514
G01 X10.7178 Y-22.2761
G01 X10.7614 Y-22.2987
G01 X10.7948 Y-22.3142
G01 X10.8401 Y-22.3330
G01 X10.8747 Y-22.3456
G01 X10.9215 Y-22.3604
G01 X10.9689 Y-22.3729
G01 X11.0170 Y-22.3831
G01 X11.0654 Y-22.3909
G01 X11.1142 Y-22.3963
G01 X11.1509 Y-22.3988
G01 X11.2000 Y-22.4000
G00 X11.2000 Y-22.4000
G01 F60.00
G01 Z-0.3000
G01 F60.00
G01 X18.1000 Y-22.4000
G01 X18.1491 Y-22.3988
G01 X18.1858 Y-22.3963
G01 X18.2224 Y-22.3925
G01 X18.2589 Y-22.3873
G01 X18.3191 Y-22.3757
G01 X18.3549 Y-22.3670
G01 X18.3903 Y-22.3569
G01 X18.4253 Y-22.3456
G01 X18.4599 Y-22.3330
G01 X18.5164 Y-22.3092
G01 X18.5714 Y-22.2819
G01 X18.6035 Y-22.2640
G01 X18.6350 Y-22.2449
G01 X18.6858 Y-22.2105
G01 X18.7152 Y-22.1883
G01 X18.7438 Y-22.1652
G01 X18.7716 Y-22.1410
G01 X18.8071 Y-22.1071
G01 X19.8157 Y-21.0984
G01 X19.8410 Y-21.0716
G01 X19.8652 Y-21.0438
G01 X19.8883 Y-21.0152
G01 X19.9176 Y-20.9758
G01 X19.9382 Y-20.9453
G01 X19.9577 Y-20.9141
G01 X19.9761 Y-20.8822
G01 X19.9932 Y-20.8496
G01 X20.0092 Y-20.8164
G01 X20.0239 Y-20.7827
G01 X20.0373 Y-20.7484
G01 X20.0495 Y-20.7137
G01 X20.0604 Y-20.6785
G01 X20.0700 Y-20.6430
G01 X20.0783 Y-20.6071
G01 X20.0853 Y-20.5710
G01 X20.0909 Y-20.5346
G01 X20.0952 Y-20.4980
G01 X20.0981 Y-20.4613
G01 X20.0997 Y-20.4245
G01 X20.1000 Y-13.5000
G01 X20.0981 Y-13.4387
G01 X20.0952 Y-13.4020
G01 X20.0909 Y-13.3654
G01 X20.0853 Y-13.3290
G01 X20.0783 Y-13.2929
G01 X20.0700 Y-13.2570
G01 X20.0604 Y-13.2215
G01 X20.0415 Y-13.1631
G01 X20.0285 Y-13.1287
G01 X20.0142 Y-13.0948
G01 X19.9987 Y-13.0614
G01 X19.9819 Y-13.0286
G01 X19.9640 Y-12.9965
G01 X19.9449 Y-12.9650
G01 X19.9105 Y-12.9142
G01 X19.8883 Y-12.8848
G01 X19.8652 Y-12.8562
G01 X19.8410 Y-12.8284
G01 X19.8071 Y-12.7929
G01 X18.7984 Y-11.7843
G01 X18.7716 Y-11.7590
G01 X18.7438 Y-11.7348
G01 X18.7152 Y-11.7117
G01 X18.6758 Y-11.6824
G01 X18.6453 Y-11.6618
G01 X18.6141 Y-11.6423
G01 X18.5822 Y-11.6239
G01 X18.5496 Y-11.6068
G01 X18.5164 Y-11.5908
G01 X18.4827 Y-11.5761
G01 X18.4484 Y-11.5627
G01 X18.4137 Y-11.5505
G01 X18.3785 Y-11.5396
G01 X18.3430 Y-11.5300
G01 X18.3071 Y-11.5217
G01 X18.2710 Y-11.5147
G01 X18.2346 Y-11.5091
G01 X18.1980 Y-11.5048
G01 X18.1613 Y-11.5019
G01 X18.1245 Y-11.5003
G01 X11.2000 Y-11.5000
G01 X11.1387 Y-11.5019
G01 X11.1020 Y-11.5048
G01 X11.0654 Y-11.5091
G01 X11.0290 Y-11.5147
G01 X10.9929 Y-11.5217
G01 X10.9570 Y-11.5300
G01 X10.9215 Y-11.5396
G01 X10.8631 Y-11.5585
G01 X10.8287 Y-11.5715
G01 X10.7948 Y-11.5858
G01 X10.7614 Y-11.6013
G01 X10.7286 Y-11.6181
G01 X10.6965 Y-11.6360
G01 X10.6650 Y-11.6551
G01 X10.6142 Y-11.6895
G01 X10.5848 Y-11.7117
G01 X10.5562 Y-11.7348
G01 X10.5284 Y-11.7590
G01 X10.4929 Y-11.7929
G01 X9.4843 Y-12.8016
G01 X9.4590 Y-12.8284
G01 X9.4348 Y-12.8562
G01 X9.4117 Y-12.8848
G01 X9.3824 Y-12.9242
G01 X9.3618 Y-12.9547
G01 X9.3423 Y-12.9859
G01 X9.3239 Y-13.0178
G01 X9.3068 Y-13.0504
G01 X9.2908 Y-13.0836
G01 X9.2761 Y-13.1173
G01 X9.2627 Y-13.1516
G01 X9.2505 Y-13.1863
G01 X9.2396 Y-13.2215
G01 X9.2300 Y-13.2570
G01 X9.2217 Y-13.2929
G01 X9.2147 Y-13.3290
G01 X9.2091 Y-13.3654
G01 X9.2048 Y-13.4020
G01 X9.2019 Y-13.4387
G01 X9.2003 Y-13.4755
G01 X9.2000 Y-20.4000
G01 X9.2012 Y-20.4491
G01 X9.2037 Y-20.4858
G01 X9.2091 Y-20.5346
G01 X9.2169 Y-20.5830
G01 X9.2300 Y-20.6430
G01 X9.2467 Y-20.7020
G01 X9.2670 Y-20.7599
G01 X9.2809 Y-20.7940
G01 X9.2960 Y-20.8276
G01 X9.3239 Y-20.8822
G01 X9.3423 Y-20.9141
G01 X9.3618 Y-20.9453
G01 X9.3968 Y-20.9957
G01 X9.4348 Y-21.0438
G01 X9.4590 Y-21.0716
G01 X9.4929 Y-21.1071
G01 X10.4929 Y-22.1071
G01 X10.5284 Y-22.1410
G01 X10.5656 Y-22.1730
G01 X10.6043 Y-22.2032
G01 X10.6343 Y-22.2246
G01 X10.6754 Y-22.2514
G01 X10.7178 Y-22.2761
G01 X10.7614 Y-22.2987
G01 X10.7948 Y-22.3142
G01 X10.8401 Y-22.3330
G01 X10.8747 Y-22.3456
G01 X10.9215 Y-22.3604
G01 X10.9689 Y-22.3729
G01 X11.0170 Y-22.3831
G01 X11.0654 Y-22.3909
G01 X11.1142 Y-22.3963
G01 X11.1509 Y-22.3988
G01 X11.2000 Y-22.4000
G00 X11.2000 Y-22.4000
G01 F60.00
G01 Z-0.4000
G01 F60.00
G01 X18.1000 Y-22.4000
G01 X18.1491 Y-22.3988
G01 X18.1858 Y-22.3963
G01 X18.2224 Y-22.3925
G01 X18.2589 Y-22.3873
G01 X18.3191 Y-22.3757
G01 X18.3549 Y-22.3670
G01 X18.3903 Y-22.3569
G01 X18.4253 Y-22.3456
G01 X18.4599 Y-22.3330
G01 X18.5164 Y-22.3092
G01 X18.5714 Y-22.2819
G01 X18.6035 Y-22.2640
G01 X18.6350 Y-22.2449
G01 X18.6858 Y-22.2105
G01 X18.7152 Y-22.1883
G01 X18.7438 Y-22.1652
G01 X18.7716 Y-22.1410
G01 X18.8071 Y-22.1071
G01 X19.8157 Y-21.0984
G01 X19.8410 Y-21.0716
G01 X19.8652 Y-21.0438
G01 X19.8883 Y-21.0152
G01 X19.9176 Y-20.9758
G01 X19.9382 Y-20.9453
G01 X19.9577 Y-20.9141
G01 X19.9761 Y-20.8822
G01 X19.9932 Y-20.8496
G01 X20.0092 Y-20.8164
G01 X20.0239 Y-20.7827
G01 X20.0373 Y-20.7484
G01 X20.0495 Y-20.7137
G01 X20.0604 Y-20.6785
G01 X20.0700 Y-20.6430
G01 X20.0783 Y-20.6071
G01 X20.0853 Y-20.5710
G01 X20.0909 Y-20.5346
G01 X20.0952 Y-20.4980
G01 X20.0981 Y-20.4613
G01 X20.0997 Y-20.4245
G01 X20.1000 Y-13.5000
G01 X20.0981 Y-13.4387
G01 X20.0952 Y-13.4020
G01 X20.0909 Y-13.3654
G01 X20.0853 Y-13.3290
G01 X20.0783 Y-13.2929
G01 X20.0700 Y-13.2570
G01 X20.0604 Y-13.2215
G01 X20.0415 Y-13.1631
G01 X20.0285 Y-13.1287
G01 X20.0142 Y-13.0948
G01 X19.9987 Y-13.0614
G01 X19.9819 Y-13.0286
G01 X19.9640 Y-12.9965
G01 X19.9449 Y-12.9650
G01 X19.9105 Y-12.9142
G01 X19.8883 Y-12.8848
G01 X19.8652 Y-12.8562
G01 X19.8410 Y-12.8284
G01 X19.8071 Y-12.7929
G01 X18.7984 Y-11.7843
G01 X18.7716 Y-11.7590
G01 X18.7438 Y-11.7348
G01 X18.7152 Y-11.7117
G01 X18.6758 Y-11.6824
G01 X18.6453 Y-11.6618
G01 X18.6141 Y-11.6423
G01 X18.5822 Y-11.6239
G01 X18.5496 Y-11.6068
G01 X18.5164 Y-11.5908
G01 X18.4827 Y-11.5761
G01 X18.4484 Y-11.5627
G01 X18.4137 Y-11.5505
G01 X18.3785 Y-11.5396
G01 X18.3430 Y-11.5300
G01 X18.3071 Y-11.5217
G01 X18.2710 Y-11.5147
G01 X18.2346 Y-11.5091
G01 X18.1980 Y-11.5048
G01 X18.1613 Y-11.5019
G01 X18.1245 Y-11.5003
G01 X11.2000 Y-11.5000
G01 X11.1387 Y-11.5019
G01 X11.1020 Y-11.5048
G01 X11.0654 Y-11.5091
G01 X11.0290 Y-11.5147
G01 X10.9929 Y-11.5217
G01 X10.9570 Y-11.5300
G01 X10.9215 Y-11.5396
G01 X10.8631 Y-11.5585
G01 X10.8287 Y-11.5715
G01 X10.7948 Y-11.5858
G01 X10.7614 Y-11.6013
G01 X10.7286 Y-11.6181
G01 X10.6965 Y-11.6360
G01 X10.6650 Y-11.6551
G01 X10.6142 Y-11.6895
G01 X10.5848 Y-11.7117
G01 X10.5562 Y-11.7348
G01 X10.5284 Y-11.7590
G01 X10.4929 Y-11.7929
G01 X9.4843 Y-12.8016
G01 X9.4590 Y-12.8284
G01 X9.4348 Y-12.8562
G01 X9.4117 Y-12.8848
G01 X9.3824 Y-12.9242
G01 X9.3618 Y-12.9547
G01 X9.3423 Y-12.9859
G01 X9.3239 Y-13.0178
G01 X9.3068 Y-13.0504
G01 X9.2908 Y-13.0836
G01 X9.2761 Y-13.1173
G01 X9.2627 Y-13.1516
G01 X9.2505 Y-13.1863
G01 X9.2396 Y-13.2215
G01 X9.2300 Y-13.2570
G01 X9.2217 Y-13.2929
G01 X9.2147 Y-13.3290
G01 X9.2091 Y-13.3654
G01 X9.2048 Y-13.4020
G01 X9.2019 Y-13.4387
G01 X9.2003 Y-13.4755
G01 X9.2000 Y-20.4000
G01 X9.2012 Y-20.4491
G01 X9.2037 Y-20.4858
G01 X9.2091 Y-20.5346
G01 X9.2169 Y-20.5830
G01 X9.2300 Y-20.6430
G01 X9.2467 Y-20.7020
G01 X9.2670 Y-20.7599
G01 X9.2809 Y-20.7940
G01 X9.2960 Y-20.8276
G01 X9.3239 Y-20.8822
G01 X9.3423 Y-20.9141
G01 X9.3618 Y-20.9453
G01 X9.3968 Y-20.9957
G01 X9.4348 Y-21.0438
G01 X9.4590 Y-21.0716
G01 X9.4929 Y-21.1071
G01 X10.4929 Y-22.1071
G01 X10.5284 Y-22.1410
G01 X10.5656 Y-22.1730
G01 X10.6043 Y-22.2032
G01 X10.6343 Y-22.2246
G01 X10.6754 Y-22.2514
G01 X10.7178 Y-22.2761
G01 X10.7614 Y-22.2987
G01 X10.7948 Y-22.3142
G01 X10.8401 Y-22.3330
G01 X10.8747 Y-22.3456
G01 X10.9215 Y-22.3604
G01 X10.9689 Y-22.3729
G01 X11.0170 Y-22.3831
G01 X11.0654 Y-22.3909
G01 X11.1142 Y-22.3963
G01 X11.1509 Y-22.3988
G01 X11.2000 Y-22.4000
G00 X11.2000 Y-22.4000
G01 F60.00
G01 Z-0.5000
G01 F60.00
G01 X18.1000 Y-22.4000
G01 X18.1491 Y-22.3988
G01 X18.1858 Y-22.3963
G01 X18.2224 Y-22.3925
G01 X18.2589 Y-22.3873
G01 X18.3191 Y-22.3757
G01 X18.3549 Y-22.3670
G01 X18.3903 Y-22.3569
G01 X18.4253 Y-22.3456
G01 X18.4599 Y-22.3330
G01 X18.5164 Y-22.3092
G01 X18.5714 Y-22.2819
G01 X18.6035 Y-22.2640
G01 X18.6350 Y-22.2449
G01 X18.6858 Y-22.2105
G01 X18.7152 Y-22.1883
G01 X18.7438 Y-22.1652
G01 X18.7716 Y-22.1410
G01 X18.8071 Y-22.1071
G01 X19.8157 Y-21.0984
G01 X19.8410 Y-21.0716
G01 X19.8652 Y-21.0438
G01 X19.8883 Y-21.0152
G01 X19.9176 Y-20.9758
G01 X19.9382 Y-20.9453
G01 X19.9577 Y-20.9141
G01 X19.9761 Y-20.8822
G01 X19.9932 Y-20.8496
G01 X20.0092 Y-20.8164
G01 X20.0239 Y-20.7827
G01 X20.0373 Y-20.7484
G01 X20.0495 Y-20.7137
G01 X20.0604 Y-20.6785
G01 X20.0700 Y-20.6430
G01 X20.0783 Y-20.6071
G01 X20.0853 Y-20.5710
G01 X20.0909 Y-20.5346
G01 X20.0952 Y-20.4980
G01 X20.0981 Y-20.4613
G01 X20.0997 Y-20.4245
G01 X20.1000 Y-13.5000
G01 X20.0981 Y-13.4387
G01 X20.0952 Y-13.4020
G01 X20.0909 Y-13.3654
G01 X20.0853 Y-13.3290
G01 X20.0783 Y-13.2929
G01 X20.0700 Y-13.2570
G01 X20.0604 Y-13.2215
G01 X20.0415 Y-13.1631
G01 X20.0285 Y-13.1287
G01 X20.0142 Y-13.0948
G01 X19.9987 Y-13.0614
G01 X19.9819 Y-13.0286
G01 X19.9640 Y-12.9965
G01 X19.9449 Y-12.9650
G01 X19.9105 Y-12.9142
G01 X19.8883 Y-12.8848
G01 X19.8652 Y-12.8562
G01 X19.8410 Y-12.8284
G01 X19.8071 Y-12.7929
G01 X18.7984 Y-11.7843
G01 X18.7716 Y-11.7590
G01 X18.7438 Y-11.7348
G01 X18.7152 Y-11.7117
G01 X18.6758 Y-11.6824
G01 X18.6453 Y-11.6618
G01 X18.6141 Y-11.6423
G01 X18.5822 Y-11.6239
G01 X18.5496 Y-11.6068
G01 X18.5164 Y-11.5908
G01 X18.4827 Y-11.5761
G01 X18.4484 Y-11.5627
G01 X18.4137 Y-11.5505
G01 X18.3785 Y-11.5396
G01 X18.3430 Y-11.5300
G01 X18.3071 Y-11.5217
G01 X18.2710 Y-11.5147
G01 X18.2346 Y-11.5091
G01 X18.1980 Y-11.5048
G01 X18.1613 Y-11.5019
G01 X18.1245 Y-11.5003
G01 X11.2000 Y-11.5000
G01 X11.1387 Y-11.5019
G01 X11.1020 Y-11.5048
G01 X11.0654 Y-11.5091
G01 X11.0290 Y-11.5147
G01 X10.9929 Y-11.5217
G01 X10.9570 Y-11.5300
G01 X10.9215 Y-11.5396
G01 X10.8631 Y-11.5585
G01 X10.8287 Y-11.5715
G01 X10.7948 Y-11.5858
G01 X10.7614 Y-11.6013
G01 X10.7286 Y-11.6181
G01 X10.6965 Y-11.6360
G01 X10.6650 Y-11.6551
G01 X10.6142 Y-11.6895
G01 X10.5848 Y-11.7117
G01 X10.5562 Y-11.7348
G01 X10.5284 Y-11.7590
G01 X10.4929 Y-11.7929
G01 X9.4843 Y-12.8016
G01 X9.4590 Y-12.8284
G01 X9.4348 Y-12.8562
G01 X9.4117 Y-12.8848
G01 X9.3824 Y-12.9242
G01 X9.3618 Y-12.9547
G01 X9.3423 Y-12.9859
G01 X9.3239 Y-13.0178
G01 X9.3068 Y-13.0504
G01 X9.2908 Y-13.0836
G01 X9.2761 Y-13.1173
G01 X9.2627 Y-13.1516
G01 X9.2505 Y-13.1863
G01 X9.2396 Y-13.2215
G01 X9.2300 Y-13.2570
G01 X9.2217 Y-13.2929
G01 X9.2147 Y-13.3290
G01 X9.2091 Y-13.3654
G01 X9.2048 Y-13.4020
G01 X9.2019 Y-13.4387
G01 X9.2003 Y-13.4755
G01 X9.2000 Y-20.4000
G01 X9.2012 Y-20.4491
G01 X9.2037 Y-20.4858
G01 X9.2091 Y-20.5346
G01 X9.2169 Y-20.5830
G01 X9.2300 Y-20.6430
G01 X9.2467 Y-20.7020
G01 X9.2670 Y-20.7599
G01 X9.2809 Y-20.7940
G01 X9.2960 Y-20.8276
G01 X9.3239 Y-20.8822
G01 X9.3423 Y-20.9141
G01 X9.3618 Y-20.9453
G01 X9.3968 Y-20.9957
G01 X9.4348 Y-21.0438
G01 X9.4590 Y-21.0716
G01 X9.4929 Y-21.1071
G01 X10.4929 Y-22.1071
G01 X10.5284 Y-22.1410
G01 X10.5656 Y-22.1730
G01 X10.6043 Y-22.2032
G01 X10.6343 Y-22.2246
G01 X10.6754 Y-22.2514
G01 X10.7178 Y-22.2761
G01 X10.7614 Y-22.2987
G01 X10.7948 Y-22.3142
G01 X10.8401 Y-22.3330
G01 X10.8747 Y-22.3456
G01 X10.9215 Y-22.3604
G01 X10.9689 Y-22.3729
G01 X11.0170 Y-22.3831
G01 X11.0654 Y-22.3909
G01 X11.1142 Y-22.3963
G01 X11.1509 Y-22.3988
G01 X11.2000 Y-22.4000
G00 X11.2000 Y-22.4000
G01 F60.00
G01 Z-0.6000
G01 F60.00
G01 X18.1000 Y-22.4000
G01 X18.1491 Y-22.3988
G01 X18.1858 Y-22.3963
G01 X18.2224 Y-22.3925
G01 X18.2589 Y-22.3873
G01 X18.3191 Y-22.3757
G01 X18.3549 Y-22.3670
G01 X18.3903 Y-22.3569
G01 X18.4253 Y-22.3456
G01 X18.4599 Y-22.3330
G01 X18.5164 Y-22.3092
G01 X18.5714 Y-22.2819
G01 X18.6035 Y-22.2640
G01 X18.6350 Y-22.2449
G01 X18.6858 Y-22.2105
G01 X18.7152 Y-22.1883
G01 X18.7438 Y-22.1652
G01 X18.7716 Y-22.1410
G01 X18.8071 Y-22.1071
G01 X19.8157 Y-21.0984
G01 X19.8410 Y-21.0716
G01 X19.8652 Y-21.0438
G01 X19.8883 Y-21.0152
G01 X19.9176 Y-20.9758
G01 X19.9382 Y-20.9453
G01 X19.9577 Y-20.9141
G01 X19.9761 Y-20.8822
G01 X19.9932 Y-20.8496
G01 X20.0092 Y-20.8164
G01 X20.0239 Y-20.7827
G01 X20.0373 Y-20.7484
G01 X20.0495 Y-20.7137
G01 X20.0604 Y-20.6785
G01 X20.0700 Y-20.6430
G01 X20.0783 Y-20.6071
G01 X20.0853 Y-20.5710
G01 X20.0909 Y-20.5346
G01 X20.0952 Y-20.4980
G01 X20.0981 Y-20.4613
G01 X20.0997 Y-20.4245
G01 X20.1000 Y-13.5000
G01 X20.0981 Y-13.4387
G01 X20.0952 Y-13.4020
G01 X20.0909 Y-13.3654
G01 X20.0853 Y-13.3290
G01 X20.0783 Y-13.2929
G01 X20.0700 Y-13.2570
G01 X20.0604 Y-13.2215
G01 X20.0415 Y-13.1631
G01 X20.0285 Y-13.1287
G01 X20.0142 Y-13.0948
G01 X19.9987 Y-13.0614
G01 X19.9819 Y-13.0286
G01 X19.9640 Y-12.9965
G01 X19.9449 Y-12.9650
G01 X19.9105 Y-12.9142
G01 X19.8883 Y-12.8848
G01 X19.8652 Y-12.8562
G01 X19.8410 Y-12.8284
G01 X19.8071 Y-12.7929
G01 X18.7984 Y-11.7843
G01 X18.7716 Y-11.7590
G01 X18.7438 Y-11.7348
G01 X18.7152 Y-11.7117
G01 X18.6758 Y-11.6824
G01 X18.6453 Y-11.6618
G01 X18.6141 Y-11.6423
G01 X18.5822 Y-11.6239
G01 X18.5496 Y-11.6068
G01 X18.5164 Y-11.5908
G01 X18.4827 Y-11.5761
G01 X18.4484 Y-11.5627
G01 X18.4137 Y-11.5505
G01 X18.3785 Y-11.5396
G01 X18.3430 Y-11.5300
G01 X18.3071 Y-11.5217
G01 X18.2710 Y-11.5147
G01 X18.2346 Y-11.5091
G01 X18.1980 Y-11.5048
G01 X18.1613 Y-11.5019
G01 X18.1245 Y-11.5003
G01 X11.2000 Y-11.5000
G01 X11.1387 Y-11.5019
G01 X11.1020 Y-11.5048
G01 X11.0654 Y-11.5091
G01 X11.0290 Y-11.5147
G01 X10.9929 Y-11.5217
G01 X10.9570 Y-11.5300
G01 X10.9215 Y-11.5396
G01 X10.8631 Y-11.5585
G01 X10.8287 Y-11.5715
G01 X10.7948 Y-11.5858
G01 X10.7614 Y-11.6013
G01 X10.7286 Y-11.6181
G01 X10.6965 Y-11.6360
G01 X10.6650 Y-11.6551
G01 X10.6142 Y-11.6895
G01 X10.5848 Y-11.7117
G01 X10.5562 Y-11.7348
G01 X10.5284 Y-11.7590
G01 X10.4929 Y-11.7929
G01 X9.4843 Y-12.8016
G01 X9.4590 Y-12.8284
